( Made using CamBam - http://www.cambam.co.uk )
( tournevis2 7/21/2017 6:41:44 PM )
G0 Z3.0
M3 S1000
G0 X167.9976 Y231.3842
G0 Z1.0
G1 F300.0 Z-0.6
G1 F1200.0 X167.0588 Y229.9471
G1 X165.7044 Y228.893
G1 X165.6319 Y228.8365
G1 X164.0086 Y228.2792
G1 X163.9216 Y228.2493
G1 X162.2052
G1 X162.1133
G1 X160.49 Y228.8067
G1 X160.4031 Y228.8365
G1 X159.0487 Y229.8907
G1 X158.9761 Y229.9471
G1 X158.9259 Y230.0241
G1 X157.9871 Y231.4611
G1 X157.9645 Y231.5502
G1 X157.5432 Y233.2144
G1 X157.5508 Y233.3059
G1 X157.6925 Y235.0161
G1 X157.7294 Y235.1003
G1 X158.4189 Y236.6723
G1 X158.4811 Y236.7398
G1 X159.6435 Y238.0025
G1 X161.153 Y238.8193
G1 X161.1531
G1 X161.2339 Y238.8631
G1 X162.9268 Y239.1455
G1 X163.0175 Y239.1606
G1 X164.7105 Y238.8782
G1 X164.8011 Y238.8631
G1 X166.3106 Y238.0462
G1 X166.3915 Y238.0025
G1 X166.4537 Y237.9349
G1 X167.6161 Y236.6723
G1 X167.653 Y236.5881
G1 X168.3425 Y235.0161
G1 X168.3501 Y234.9245
G1 X168.4918 Y233.2144
G1 X168.4692 Y233.1252
G1 X168.0479 Y231.4611
G1 X167.9976 Y231.3842
G1 F300.0 Z-1.2
G1 F1200.0 X167.0588 Y229.9471
G1 X165.7044 Y228.893
G1 X165.6319 Y228.8365
G1 X164.0086 Y228.2792
G1 X163.9216 Y228.2493
G1 X162.2052
G1 X162.1133
G1 X160.49 Y228.8067
G1 X160.4031 Y228.8365
G1 X159.0487 Y229.8907
G1 X158.9761 Y229.9471
G1 X158.9259 Y230.0241
G1 X157.9871 Y231.4611
G1 X157.9645 Y231.5502
G1 X157.5432 Y233.2144
G1 X157.5508 Y233.3059
G1 X157.6925 Y235.0161
G1 X157.7294 Y235.1003
G1 X158.4189 Y236.6723
G1 X158.4811 Y236.7398
G1 X159.6435 Y238.0025
G1 X161.153 Y238.8193
G1 X161.1531
G1 X161.2339 Y238.8631
G1 X162.9268 Y239.1455
G1 X163.0175 Y239.1606
G1 X164.7105 Y238.8782
G1 X164.8011 Y238.8631
G1 X166.3106 Y238.0462
G1 X166.3915 Y238.0025
G1 X166.4537 Y237.9349
G1 X167.6161 Y236.6723
G1 X167.653 Y236.5881
G1 X168.3425 Y235.0161
G1 X168.3501 Y234.9245
G1 X168.4918 Y233.2144
G1 X168.4692 Y233.1252
G1 X168.0479 Y231.4611
G1 X167.9976 Y231.3842
G1 F300.0 Z-1.8
G1 F1200.0 X167.0588 Y229.9471
G1 X165.7044 Y228.893
G1 X165.6319 Y228.8365
G1 X164.0086 Y228.2792
G1 X163.9216 Y228.2493
G1 X162.2052
G1 X162.1133
G1 X160.49 Y228.8067
G1 X160.4031 Y228.8365
G1 X159.0487 Y229.8907
G1 X158.9761 Y229.9471
G1 X158.9259 Y230.0241
G1 X157.9871 Y231.4611
G1 X157.9645 Y231.5502
G1 X157.5432 Y233.2144
G1 X157.5508 Y233.3059
G1 X157.6925 Y235.0161
G1 X157.7294 Y235.1003
G1 X158.4189 Y236.6723
G1 X158.4811 Y236.7398
G1 X159.6435 Y238.0025
G1 X161.153 Y238.8193
G1 X161.1531
G1 X161.2339 Y238.8631
G1 X162.9268 Y239.1455
G1 X163.0175 Y239.1606
G1 X164.7105 Y238.8782
G1 X164.8011 Y238.8631
G1 X166.3106 Y238.0462
G1 X166.3915 Y238.0025
G1 X166.4537 Y237.9349
G1 X167.6161 Y236.6723
G1 X167.653 Y236.5881
G1 X168.3425 Y235.0161
G1 X168.3501 Y234.9245
G1 X168.4918 Y233.2144
G1 X168.4692 Y233.1252
G1 X168.0479 Y231.4611
G1 X167.9976 Y231.3842
G1 F300.0 Z-2.4
G1 F1200.0 X167.0588 Y229.9471
G1 X165.7044 Y228.893
G1 X165.6319 Y228.8365
G1 X164.0086 Y228.2792
G1 X163.9216 Y228.2493
G1 X162.2052
G1 X162.1133
G1 X160.49 Y228.8067
G1 X160.4031 Y228.8365
G1 X159.0487 Y229.8907
G1 X158.9761 Y229.9471
G1 X158.9259 Y230.0241
G1 X157.9871 Y231.4611
G1 X157.9645 Y231.5502
G1 X157.5432 Y233.2144
G1 X157.5508 Y233.3059
G1 X157.6925 Y235.0161
G1 X157.7294 Y235.1003
G1 X158.4189 Y236.6723
G1 X158.4811 Y236.7398
G1 X159.6435 Y238.0025
G1 X161.153 Y238.8193
G1 X161.1531
G1 X161.2339 Y238.8631
G1 X162.9268 Y239.1455
G1 X163.0175 Y239.1606
G1 X164.7105 Y238.8782
G1 X164.8011 Y238.8631
G1 X166.3106 Y238.0462
G1 X166.3915 Y238.0025
G1 X166.4537 Y237.9349
G1 X167.6161 Y236.6723
G1 X167.653 Y236.5881
G1 X168.3425 Y235.0161
G1 X168.3501 Y234.9245
G1 X168.4918 Y233.2144
G1 X168.4692 Y233.1252
G1 X168.0479 Y231.4611
G1 X167.9976 Y231.3842
G1 F300.0 Z-3.0
G1 F1200.0 X167.0588 Y229.9471
G1 X165.7044 Y228.893
G1 X165.6319 Y228.8365
G1 X164.0086 Y228.2792
G1 X163.9216 Y228.2493
G1 X162.2052
G1 X162.1133
G1 X160.49 Y228.8067
G1 X160.4031 Y228.8365
G1 X159.0487 Y229.8907
G1 X158.9761 Y229.9471
G1 X158.9259 Y230.0241
G1 X157.9871 Y231.4611
G1 X157.9645 Y231.5502
G1 X157.5432 Y233.2144
G1 X157.5508 Y233.3059
G1 X157.6925 Y235.0161
G1 X157.7294 Y235.1003
G1 X158.4189 Y236.6723
G1 X158.4811 Y236.7398
G1 X159.6435 Y238.0025
G1 X161.153 Y238.8193
G1 X161.1531
G1 X161.2339 Y238.8631
G1 X162.9268 Y239.1455
G1 X163.0175 Y239.1606
G1 X164.7105 Y238.8782
G1 X164.8011 Y238.8631
G1 X166.3106 Y238.0462
G1 X166.3915 Y238.0025
G1 X166.4537 Y237.9349
G1 X167.6161 Y236.6723
G1 X167.653 Y236.5881
G1 X168.3425 Y235.0161
G1 X168.3501 Y234.9245
G1 X168.4918 Y233.2144
G1 X168.4692 Y233.1252
G1 X168.0479 Y231.4611
G1 X167.9976 Y231.3842
G1 F300.0 Z-3.6
G1 F1200.0 X167.0588 Y229.9471
G1 X165.7044 Y228.893
G1 X165.6319 Y228.8365
G1 X164.0086 Y228.2792
G1 X163.9216 Y228.2493
G1 X162.2052
G1 X162.1133
G1 X160.49 Y228.8067
G1 X160.4031 Y228.8365
G1 X159.0487 Y229.8907
G1 X158.9761 Y229.9471
G1 X158.9259 Y230.0241
G1 X157.9871 Y231.4611
G1 X157.9645 Y231.5502
G1 X157.5432 Y233.2144
G1 X157.5508 Y233.3059
G1 X157.6925 Y235.0161
G1 X157.7294 Y235.1003
G1 X158.4189 Y236.6723
G1 X158.4811 Y236.7398
G1 X159.6435 Y238.0025
G1 X161.153 Y238.8193
G1 X161.1531
G1 X161.2339 Y238.8631
G1 X162.9268 Y239.1455
G1 X163.0175 Y239.1606
G1 X164.7105 Y238.8782
G1 X164.8011 Y238.8631
G1 X166.3106 Y238.0462
G1 X166.3915 Y238.0025
G1 X166.4537 Y237.9349
G1 X167.6161 Y236.6723
G1 X167.653 Y236.5881
G1 X168.3425 Y235.0161
G1 X168.3501 Y234.9245
G1 X168.4918 Y233.2144
G1 X168.4692 Y233.1252
G1 X168.0479 Y231.4611
G1 X167.9976 Y231.3842
G1 F300.0 Z-4.0
G1 F1200.0 X167.0588 Y229.9471
G1 X165.7044 Y228.893
G1 X165.6319 Y228.8365
G1 X164.0086 Y228.2792
G1 X163.9216 Y228.2493
G1 X162.2052
G1 X162.1133
G1 X160.49 Y228.8067
G1 X160.4031 Y228.8365
G1 X159.0487 Y229.8907
G1 X158.9761 Y229.9471
G1 X158.9259 Y230.0241
G1 X157.9871 Y231.4611
G1 X157.9645 Y231.5502
G1 X157.5432 Y233.2144
G1 X157.5508 Y233.3059
G1 X157.6925 Y235.0161
G1 X157.7294 Y235.1003
G1 X158.4189 Y236.6723
G1 X158.4811 Y236.7398
G1 X159.6435 Y238.0025
G1 X161.153 Y238.8193
G1 X161.1531
G1 X161.2339 Y238.8631
G1 X162.9268 Y239.1455
G1 X163.0175 Y239.1606
G1 X164.7105 Y238.8782
G1 X164.8011 Y238.8631
G1 X166.3106 Y238.0462
G1 X166.3915 Y238.0025
G1 X166.4537 Y237.9349
G1 X167.6161 Y236.6723
G1 X167.653 Y236.5881
G1 X168.3425 Y235.0161
G1 X168.3501 Y234.9245
G1 X168.4918 Y233.2144
G1 X168.4692 Y233.1252
G1 X168.0479 Y231.4611
G1 X167.9976 Y231.3842
G0 Z3.0
G0 X163.0175 Y200.1606
G0 Z1.0
G1 F300.0 Z-0.6
G1 F1200.0 X164.7104 Y199.8781
G1 X164.8011 Y199.863
G1 X166.3106 Y199.046
G1 X166.3914 Y199.0023
G1 X166.4537 Y198.9347
G1 X167.6161 Y197.672
G1 X167.653 Y197.5878
G1 X168.3425 Y196.016
G1 X168.3501 Y195.9244
G1 X168.4918 Y194.2139
G1 X168.4692 Y194.1248
G1 X168.0479 Y192.4609
G1 X167.9976 Y192.384
G1 X167.0588 Y190.9471
G1 X165.7044 Y189.893
G1 X165.6319 Y189.8365
G1 X164.0086 Y189.2791
G1 X163.9216 Y189.2493
G1 X162.2052
G1 X162.1133
G1 X160.49 Y189.8067
G1 X160.4031 Y189.8365
G1 X159.0487 Y190.8907
G1 X158.9761 Y190.9471
G1 X158.9259 Y191.0241
G1 X157.9871 Y192.4609
G1 X157.9645 Y192.55
G1 X157.5432 Y194.2139
G1 X157.5508 Y194.3055
G1 X157.6925 Y196.016
G1 X157.7294 Y196.1001
G1 X158.4189 Y197.672
G1 X158.4811 Y197.7396
G1 X159.6435 Y199.0023
G1 X161.1531 Y199.8192
G1 X161.2339 Y199.863
G1 X162.9268 Y200.1455
G1 X163.0175 Y200.1606
G1 F300.0 Z-1.2
G1 F1200.0 X164.7104 Y199.8781
G1 X164.8011 Y199.863
G1 X166.3106 Y199.046
G1 X166.3914 Y199.0023
G1 X166.4537 Y198.9347
G1 X167.6161 Y197.672
G1 X167.653 Y197.5878
G1 X168.3425 Y196.016
G1 X168.3501 Y195.9244
G1 X168.4918 Y194.2139
G1 X168.4692 Y194.1248
G1 X168.0479 Y192.4609
G1 X167.9976 Y192.384
G1 X167.0588 Y190.9471
G1 X165.7044 Y189.893
G1 X165.6319 Y189.8365
G1 X164.0086 Y189.2791
G1 X163.9216 Y189.2493
G1 X162.2052
G1 X162.1133
G1 X160.49 Y189.8067
G1 X160.4031 Y189.8365
G1 X159.0487 Y190.8907
G1 X158.9761 Y190.9471
G1 X158.9259 Y191.0241
G1 X157.9871 Y192.4609
G1 X157.9645 Y192.55
G1 X157.5432 Y194.2139
G1 X157.5508 Y194.3055
G1 X157.6925 Y196.016
G1 X157.7294 Y196.1001
G1 X158.4189 Y197.672
G1 X158.4811 Y197.7396
G1 X159.6435 Y199.0023
G1 X161.1531 Y199.8192
G1 X161.2339 Y199.863
G1 X162.9268 Y200.1455
G1 X163.0175 Y200.1606
G1 F300.0 Z-1.8
G1 F1200.0 X164.7104 Y199.8781
G1 X164.8011 Y199.863
G1 X166.3106 Y199.046
G1 X166.3914 Y199.0023
G1 X166.4537 Y198.9347
G1 X167.6161 Y197.672
G1 X167.653 Y197.5878
G1 X168.3425 Y196.016
G1 X168.3501 Y195.9244
G1 X168.4918 Y194.2139
G1 X168.4692 Y194.1248
G1 X168.0479 Y192.4609
G1 X167.9976 Y192.384
G1 X167.0588 Y190.9471
G1 X165.7044 Y189.893
G1 X165.6319 Y189.8365
G1 X164.0086 Y189.2791
G1 X163.9216 Y189.2493
G1 X162.2052
G1 X162.1133
G1 X160.49 Y189.8067
G1 X160.4031 Y189.8365
G1 X159.0487 Y190.8907
G1 X158.9761 Y190.9471
G1 X158.9259 Y191.0241
G1 X157.9871 Y192.4609
G1 X157.9645 Y192.55
G1 X157.5432 Y194.2139
G1 X157.5508 Y194.3055
G1 X157.6925 Y196.016
G1 X157.7294 Y196.1001
G1 X158.4189 Y197.672
G1 X158.4811 Y197.7396
G1 X159.6435 Y199.0023
G1 X161.1531 Y199.8192
G1 X161.2339 Y199.863
G1 X162.9268 Y200.1455
G1 X163.0175 Y200.1606
G1 F300.0 Z-2.4
G1 F1200.0 X164.7104 Y199.8781
G1 X164.8011 Y199.863
G1 X166.3106 Y199.046
G1 X166.3914 Y199.0023
G1 X166.4537 Y198.9347
G1 X167.6161 Y197.672
G1 X167.653 Y197.5878
G1 X168.3425 Y196.016
G1 X168.3501 Y195.9244
G1 X168.4918 Y194.2139
G1 X168.4692 Y194.1248
G1 X168.0479 Y192.4609
G1 X167.9976 Y192.384
G1 X167.0588 Y190.9471
G1 X165.7044 Y189.893
G1 X165.6319 Y189.8365
G1 X164.0086 Y189.2791
G1 X163.9216 Y189.2493
G1 X162.2052
G1 X162.1133
G1 X160.49 Y189.8067
G1 X160.4031 Y189.8365
G1 X159.0487 Y190.8907
G1 X158.9761 Y190.9471
G1 X158.9259 Y191.0241
G1 X157.9871 Y192.4609
G1 X157.9645 Y192.55
G1 X157.5432 Y194.2139
G1 X157.5508 Y194.3055
G1 X157.6925 Y196.016
G1 X157.7294 Y196.1001
G1 X158.4189 Y197.672
G1 X158.4811 Y197.7396
G1 X159.6435 Y199.0023
G1 X161.1531 Y199.8192
G1 X161.2339 Y199.863
G1 X162.9268 Y200.1455
G1 X163.0175 Y200.1606
G1 F300.0 Z-3.0
G1 F1200.0 X164.7104 Y199.8781
G1 X164.8011 Y199.863
G1 X166.3106 Y199.046
G1 X166.3914 Y199.0023
G1 X166.4537 Y198.9347
G1 X167.6161 Y197.672
G1 X167.653 Y197.5878
G1 X168.3425 Y196.016
G1 X168.3501 Y195.9244
G1 X168.4918 Y194.2139
G1 X168.4692 Y194.1248
G1 X168.0479 Y192.4609
G1 X167.9976 Y192.384
G1 X167.0588 Y190.9471
G1 X165.7044 Y189.893
G1 X165.6319 Y189.8365
G1 X164.0086 Y189.2791
G1 X163.9216 Y189.2493
G1 X162.2052
G1 X162.1133
G1 X160.49 Y189.8067
G1 X160.4031 Y189.8365
G1 X159.0487 Y190.8907
G1 X158.9761 Y190.9471
G1 X158.9259 Y191.0241
G1 X157.9871 Y192.4609
G1 X157.9645 Y192.55
G1 X157.5432 Y194.2139
G1 X157.5508 Y194.3055
G1 X157.6925 Y196.016
G1 X157.7294 Y196.1001
G1 X158.4189 Y197.672
G1 X158.4811 Y197.7396
G1 X159.6435 Y199.0023
G1 X161.1531 Y199.8192
G1 X161.2339 Y199.863
G1 X162.9268 Y200.1455
G1 X163.0175 Y200.1606
G1 F300.0 Z-3.6
G1 F1200.0 X164.7104 Y199.8781
G1 X164.8011 Y199.863
G1 X166.3106 Y199.046
G1 X166.3914 Y199.0023
G1 X166.4537 Y198.9347
G1 X167.6161 Y197.672
G1 X167.653 Y197.5878
G1 X168.3425 Y196.016
G1 X168.3501 Y195.9244
G1 X168.4918 Y194.2139
G1 X168.4692 Y194.1248
G1 X168.0479 Y192.4609
G1 X167.9976 Y192.384
G1 X167.0588 Y190.9471
G1 X165.7044 Y189.893
G1 X165.6319 Y189.8365
G1 X164.0086 Y189.2791
G1 X163.9216 Y189.2493
G1 X162.2052
G1 X162.1133
G1 X160.49 Y189.8067
G1 X160.4031 Y189.8365
G1 X159.0487 Y190.8907
G1 X158.9761 Y190.9471
G1 X158.9259 Y191.0241
G1 X157.9871 Y192.4609
G1 X157.9645 Y192.55
G1 X157.5432 Y194.2139
G1 X157.5508 Y194.3055
G1 X157.6925 Y196.016
G1 X157.7294 Y196.1001
G1 X158.4189 Y197.672
G1 X158.4811 Y197.7396
G1 X159.6435 Y199.0023
G1 X161.1531 Y199.8192
G1 X161.2339 Y199.863
G1 X162.9268 Y200.1455
G1 X163.0175 Y200.1606
G1 F300.0 Z-4.0
G1 F1200.0 X164.7104 Y199.8781
G1 X164.8011 Y199.863
G1 X166.3106 Y199.046
G1 X166.3914 Y199.0023
G1 X166.4537 Y198.9347
G1 X167.6161 Y197.672
G1 X167.653 Y197.5878
G1 X168.3425 Y196.016
G1 X168.3501 Y195.9244
G1 X168.4918 Y194.2139
G1 X168.4692 Y194.1248
G1 X168.0479 Y192.4609
G1 X167.9976 Y192.384
G1 X167.0588 Y190.9471
G1 X165.7044 Y189.893
G1 X165.6319 Y189.8365
G1 X164.0086 Y189.2791
G1 X163.9216 Y189.2493
G1 X162.2052
G1 X162.1133
G1 X160.49 Y189.8067
G1 X160.4031 Y189.8365
G1 X159.0487 Y190.8907
G1 X158.9761 Y190.9471
G1 X158.9259 Y191.0241
G1 X157.9871 Y192.4609
G1 X157.9645 Y192.55
G1 X157.5432 Y194.2139
G1 X157.5508 Y194.3055
G1 X157.6925 Y196.016
G1 X157.7294 Y196.1001
G1 X158.4189 Y197.672
G1 X158.4811 Y197.7396
G1 X159.6435 Y199.0023
G1 X161.1531 Y199.8192
G1 X161.2339 Y199.863
G1 X162.9268 Y200.1455
G1 X163.0175 Y200.1606
G0 Z3.0
G0 X165.9814 Y159.1662
G0 Z1.0
G1 F300.0 Z-0.6
G3 F1200.0 X165.9352 Y159.1607 I0.0361 J-0.4987
G1 X165.7622 Y159.1318
G1 X163.987 Y158.8356
G3 X163.8313 Y158.7821 I0.0823 J-0.4932
G1 X163.6771 Y158.6987
G1 X162.0942 Y157.842
G3 X161.9643 Y157.7409 I0.238 J-0.4397
G1 X160.7454 Y156.4168
G1 X160.6266 Y156.2878
G3 X160.5366 Y156.1501 I0.3679 J-0.3386
G1 X159.8136 Y154.5018
G1 X159.7432 Y154.3413
G3 X159.7028 Y154.1817 I0.4579 J-0.2008
G1 X159.5542 Y152.388
G1 X159.5397 Y152.2133
G3 X159.5533 Y152.0493 I0.4983 J-0.0413
G1 X159.9951 Y150.3045
G1 X160.0382 Y150.1346
G3 X160.1043 Y149.9838 I0.4847 J0.1228
G1 X161.0887 Y148.4771
G1 X161.1846 Y148.3303
G3 X161.2961 Y148.2092 I0.4186 J0.2735
G1 X161.4344 Y148.1015
G1 X162.8547 Y146.9961
G3 X162.9994 Y146.9178 I0.3071 J0.3946
G1 X163.1653 Y146.8609
G1 X164.8675 Y146.2764
G3 X165.0299 Y146.2493 I0.1624 J0.4729
G1 X165.2052
G1 X167.0051
G3 X167.1675 Y146.2764 I0.0 J0.5
G1 X167.3333 Y146.3333
G1 X169.0356 Y146.9178
G3 X169.1803 Y146.9961 I-0.1624 J0.4729
G1 X169.3187 Y147.1038
G1 X170.7389 Y148.2092
G3 X170.8504 Y148.3303 I-0.3071 J0.3946
G1 X171.8348 Y149.837
G1 X171.9307 Y149.9838
G3 X171.9968 Y150.1346 I-0.4186 J0.2735
G1 X172.4386 Y151.8793
G1 X172.4817 Y152.0493
G3 X172.4953 Y152.2133 I-0.4847 J0.1227
G1 X172.3467 Y154.007
G1 X172.3322 Y154.1817
G3 X172.2918 Y154.3413 I-0.4983 J-0.0413
G1 X171.5688 Y155.9895
G1 X171.5336 Y156.0698
G3 X171.4486 Y156.202 I-0.4579 J-0.2008
G1 X170.1945 Y157.6064
G3 X170.1894 Y157.612 I-0.3729 J-0.333
G1 X170.0707 Y157.7409
G3 X169.9408 Y157.842 I-0.3679 J-0.3386
G1 X169.7866 Y157.9255
G1 X168.2037 Y158.7821
G3 X168.048 Y158.8356 I-0.238 J-0.4397
G1 X167.875 Y158.8644
G1 X166.0998 Y159.1607
G3 X165.9814 Y159.1662 I-0.0823 J-0.4932
G1 F300.0 Z-1.2
G3 F1200.0 X165.9352 Y159.1607 I0.0361 J-0.4987
G1 X165.7622 Y159.1318
G1 X163.987 Y158.8356
G3 X163.8313 Y158.7821 I0.0823 J-0.4932
G1 X163.6771 Y158.6987
G1 X162.0942 Y157.842
G3 X161.9643 Y157.7409 I0.238 J-0.4397
G1 X160.7454 Y156.4168
G1 X160.6266 Y156.2878
G3 X160.5366 Y156.1501 I0.3679 J-0.3386
G1 X159.8136 Y154.5018
G1 X159.7432 Y154.3413
G3 X159.7028 Y154.1817 I0.4579 J-0.2008
G1 X159.5542 Y152.388
G1 X159.5397 Y152.2133
G3 X159.5533 Y152.0493 I0.4983 J-0.0413
G1 X159.9951 Y150.3045
G1 X160.0382 Y150.1346
G3 X160.1043 Y149.9838 I0.4847 J0.1228
G1 X161.0887 Y148.4771
G1 X161.1846 Y148.3303
G3 X161.2961 Y148.2092 I0.4186 J0.2735
G1 X161.4344 Y148.1015
G1 X162.8547 Y146.9961
G3 X162.9994 Y146.9178 I0.3071 J0.3946
G1 X163.1653 Y146.8609
G1 X164.8675 Y146.2764
G3 X165.0299 Y146.2493 I0.1624 J0.4729
G1 X165.2052
G1 X167.0051
G3 X167.1675 Y146.2764 I0.0 J0.5
G1 X167.3333 Y146.3333
G1 X169.0356 Y146.9178
G3 X169.1803 Y146.9961 I-0.1624 J0.4729
G1 X169.3187 Y147.1038
G1 X170.7389 Y148.2092
G3 X170.8504 Y148.3303 I-0.3071 J0.3946
G1 X171.8348 Y149.837
G1 X171.9307 Y149.9838
G3 X171.9968 Y150.1346 I-0.4186 J0.2735
G1 X172.4386 Y151.8793
G1 X172.4817 Y152.0493
G3 X172.4953 Y152.2133 I-0.4847 J0.1227
G1 X172.3467 Y154.007
G1 X172.3322 Y154.1817
G3 X172.2918 Y154.3413 I-0.4983 J-0.0413
G1 X171.5688 Y155.9895
G1 X171.5336 Y156.0698
G3 X171.4486 Y156.202 I-0.4579 J-0.2008
G1 X170.1945 Y157.6064
G3 X170.1894 Y157.612 I-0.3729 J-0.333
G1 X170.0707 Y157.7409
G3 X169.9408 Y157.842 I-0.3679 J-0.3386
G1 X169.7866 Y157.9255
G1 X168.2037 Y158.7821
G3 X168.048 Y158.8356 I-0.238 J-0.4397
G1 X167.875 Y158.8644
G1 X166.0998 Y159.1607
G3 X165.9814 Y159.1662 I-0.0823 J-0.4932
G1 F300.0 Z-1.8
G3 F1200.0 X165.9352 Y159.1607 I0.0361 J-0.4987
G1 X165.7622 Y159.1318
G1 X163.987 Y158.8356
G3 X163.8313 Y158.7821 I0.0823 J-0.4932
G1 X163.6771 Y158.6987
G1 X162.0942 Y157.842
G3 X161.9643 Y157.7409 I0.238 J-0.4397
G1 X160.7454 Y156.4168
G1 X160.6266 Y156.2878
G3 X160.5366 Y156.1501 I0.3679 J-0.3386
G1 X159.8136 Y154.5018
G1 X159.7432 Y154.3413
G3 X159.7028 Y154.1817 I0.4579 J-0.2008
G1 X159.5542 Y152.388
G1 X159.5397 Y152.2133
G3 X159.5533 Y152.0493 I0.4983 J-0.0413
G1 X159.9951 Y150.3045
G1 X160.0382 Y150.1346
G3 X160.1043 Y149.9838 I0.4847 J0.1228
G1 X161.0887 Y148.4771
G1 X161.1846 Y148.3303
G3 X161.2961 Y148.2092 I0.4186 J0.2735
G1 X161.4344 Y148.1015
G1 X162.8547 Y146.9961
G3 X162.9994 Y146.9178 I0.3071 J0.3946
G1 X163.1653 Y146.8609
G1 X164.8675 Y146.2764
G3 X165.0299 Y146.2493 I0.1624 J0.4729
G1 X165.2052
G1 X167.0051
G3 X167.1675 Y146.2764 I0.0 J0.5
G1 X167.3333 Y146.3333
G1 X169.0356 Y146.9178
G3 X169.1803 Y146.9961 I-0.1624 J0.4729
G1 X169.3187 Y147.1038
G1 X170.7389 Y148.2092
G3 X170.8504 Y148.3303 I-0.3071 J0.3946
G1 X171.8348 Y149.837
G1 X171.9307 Y149.9838
G3 X171.9968 Y150.1346 I-0.4186 J0.2735
G1 X172.4386 Y151.8793
G1 X172.4817 Y152.0493
G3 X172.4953 Y152.2133 I-0.4847 J0.1227
G1 X172.3467 Y154.007
G1 X172.3322 Y154.1817
G3 X172.2918 Y154.3413 I-0.4983 J-0.0413
G1 X171.5688 Y155.9895
G1 X171.5336 Y156.0698
G3 X171.4486 Y156.202 I-0.4579 J-0.2008
G1 X170.1945 Y157.6064
G3 X170.1894 Y157.612 I-0.3729 J-0.333
G1 X170.0707 Y157.7409
G3 X169.9408 Y157.842 I-0.3679 J-0.3386
G1 X169.7866 Y157.9255
G1 X168.2037 Y158.7821
G3 X168.048 Y158.8356 I-0.238 J-0.4397
G1 X167.875 Y158.8644
G1 X166.0998 Y159.1607
G3 X165.9814 Y159.1662 I-0.0823 J-0.4932
G1 F300.0 Z-2.4
G3 F1200.0 X165.9352 Y159.1607 I0.0361 J-0.4987
G1 X165.7622 Y159.1318
G1 X163.987 Y158.8356
G3 X163.8313 Y158.7821 I0.0823 J-0.4932
G1 X163.6771 Y158.6987
G1 X162.0942 Y157.842
G3 X161.9643 Y157.7409 I0.238 J-0.4397
G1 X160.7454 Y156.4168
G1 X160.6266 Y156.2878
G3 X160.5366 Y156.1501 I0.3679 J-0.3386
G1 X159.8136 Y154.5018
G1 X159.7432 Y154.3413
G3 X159.7028 Y154.1817 I0.4579 J-0.2008
G1 X159.5542 Y152.388
G1 X159.5397 Y152.2133
G3 X159.5533 Y152.0493 I0.4983 J-0.0413
G1 X159.9951 Y150.3045
G1 X160.0382 Y150.1346
G3 X160.1043 Y149.9838 I0.4847 J0.1228
G1 X161.0887 Y148.4771
G1 X161.1846 Y148.3303
G3 X161.2961 Y148.2092 I0.4186 J0.2735
G1 X161.4344 Y148.1015
G1 X162.8547 Y146.9961
G3 X162.9994 Y146.9178 I0.3071 J0.3946
G1 X163.1653 Y146.8609
G1 X164.8675 Y146.2764
G3 X165.0299 Y146.2493 I0.1624 J0.4729
G1 X165.2052
G1 X167.0051
G3 X167.1675 Y146.2764 I0.0 J0.5
G1 X167.3333 Y146.3333
G1 X169.0356 Y146.9178
G3 X169.1803 Y146.9961 I-0.1624 J0.4729
G1 X169.3187 Y147.1038
G1 X170.7389 Y148.2092
G3 X170.8504 Y148.3303 I-0.3071 J0.3946
G1 X171.8348 Y149.837
G1 X171.9307 Y149.9838
G3 X171.9968 Y150.1346 I-0.4186 J0.2735
G1 X172.4386 Y151.8793
G1 X172.4817 Y152.0493
G3 X172.4953 Y152.2133 I-0.4847 J0.1227
G1 X172.3467 Y154.007
G1 X172.3322 Y154.1817
G3 X172.2918 Y154.3413 I-0.4983 J-0.0413
G1 X171.5688 Y155.9895
G1 X171.5336 Y156.0698
G3 X171.4486 Y156.202 I-0.4579 J-0.2008
G1 X170.1945 Y157.6064
G3 X170.1894 Y157.612 I-0.3729 J-0.333
G1 X170.0707 Y157.7409
G3 X169.9408 Y157.842 I-0.3679 J-0.3386
G1 X169.7866 Y157.9255
G1 X168.2037 Y158.7821
G3 X168.048 Y158.8356 I-0.238 J-0.4397
G1 X167.875 Y158.8644
G1 X166.0998 Y159.1607
G3 X165.9814 Y159.1662 I-0.0823 J-0.4932
G1 F300.0 Z-3.0
G3 F1200.0 X165.9352 Y159.1607 I0.0361 J-0.4987
G1 X165.7622 Y159.1318
G1 X163.987 Y158.8356
G3 X163.8313 Y158.7821 I0.0823 J-0.4932
G1 X163.6771 Y158.6987
G1 X162.0942 Y157.842
G3 X161.9643 Y157.7409 I0.238 J-0.4397
G1 X160.7454 Y156.4168
G1 X160.6266 Y156.2878
G3 X160.5366 Y156.1501 I0.3679 J-0.3386
G1 X159.8136 Y154.5018
G1 X159.7432 Y154.3413
G3 X159.7028 Y154.1817 I0.4579 J-0.2008
G1 X159.5542 Y152.388
G1 X159.5397 Y152.2133
G3 X159.5533 Y152.0493 I0.4983 J-0.0413
G1 X159.9951 Y150.3045
G1 X160.0382 Y150.1346
G3 X160.1043 Y149.9838 I0.4847 J0.1228
G1 X161.0887 Y148.4771
G1 X161.1846 Y148.3303
G3 X161.2961 Y148.2092 I0.4186 J0.2735
G1 X161.4344 Y148.1015
G1 X162.8547 Y146.9961
G3 X162.9994 Y146.9178 I0.3071 J0.3946
G1 X163.1653 Y146.8609
G1 X164.8675 Y146.2764
G3 X165.0299 Y146.2493 I0.1624 J0.4729
G1 X165.2052
G1 X167.0051
G3 X167.1675 Y146.2764 I0.0 J0.5
G1 X167.3333 Y146.3333
G1 X169.0356 Y146.9178
G3 X169.1803 Y146.9961 I-0.1624 J0.4729
G1 X169.3187 Y147.1038
G1 X170.7389 Y148.2092
G3 X170.8504 Y148.3303 I-0.3071 J0.3946
G1 X171.8348 Y149.837
G1 X171.9307 Y149.9838
G3 X171.9968 Y150.1346 I-0.4186 J0.2735
G1 X172.4386 Y151.8793
G1 X172.4817 Y152.0493
G3 X172.4953 Y152.2133 I-0.4847 J0.1227
G1 X172.3467 Y154.007
G1 X172.3322 Y154.1817
G3 X172.2918 Y154.3413 I-0.4983 J-0.0413
G1 X171.5688 Y155.9895
G1 X171.5336 Y156.0698
G3 X171.4486 Y156.202 I-0.4579 J-0.2008
G1 X170.1945 Y157.6064
G3 X170.1894 Y157.612 I-0.3729 J-0.333
G1 X170.0707 Y157.7409
G3 X169.9408 Y157.842 I-0.3679 J-0.3386
G1 X169.7866 Y157.9255
G1 X168.2037 Y158.7821
G3 X168.048 Y158.8356 I-0.238 J-0.4397
G1 X167.875 Y158.8644
G1 X166.0998 Y159.1607
G3 X165.9814 Y159.1662 I-0.0823 J-0.4932
G1 F300.0 Z-3.6
G3 F1200.0 X165.9352 Y159.1607 I0.0361 J-0.4987
G1 X165.7622 Y159.1318
G1 X163.987 Y158.8356
G3 X163.8313 Y158.7821 I0.0823 J-0.4932
G1 X163.6771 Y158.6987
G1 X162.0942 Y157.842
G3 X161.9643 Y157.7409 I0.238 J-0.4397
G1 X160.7454 Y156.4168
G1 X160.6266 Y156.2878
G3 X160.5366 Y156.1501 I0.3679 J-0.3386
G1 X159.8136 Y154.5018
G1 X159.7432 Y154.3413
G3 X159.7028 Y154.1817 I0.4579 J-0.2008
G1 X159.5542 Y152.388
G1 X159.5397 Y152.2133
G3 X159.5533 Y152.0493 I0.4983 J-0.0413
G1 X159.9951 Y150.3045
G1 X160.0382 Y150.1346
G3 X160.1043 Y149.9838 I0.4847 J0.1228
G1 X161.0887 Y148.4771
G1 X161.1846 Y148.3303
G3 X161.2961 Y148.2092 I0.4186 J0.2735
G1 X161.4344 Y148.1015
G1 X162.8547 Y146.9961
G3 X162.9994 Y146.9178 I0.3071 J0.3946
G1 X163.1653 Y146.8609
G1 X164.8675 Y146.2764
G3 X165.0299 Y146.2493 I0.1624 J0.4729
G1 X165.2052
G1 X167.0051
G3 X167.1675 Y146.2764 I0.0 J0.5
G1 X167.3333 Y146.3333
G1 X169.0356 Y146.9178
G3 X169.1803 Y146.9961 I-0.1624 J0.4729
G1 X169.3187 Y147.1038
G1 X170.7389 Y148.2092
G3 X170.8504 Y148.3303 I-0.3071 J0.3946
G1 X171.8348 Y149.837
G1 X171.9307 Y149.9838
G3 X171.9968 Y150.1346 I-0.4186 J0.2735
G1 X172.4386 Y151.8793
G1 X172.4817 Y152.0493
G3 X172.4953 Y152.2133 I-0.4847 J0.1227
G1 X172.3467 Y154.007
G1 X172.3322 Y154.1817
G3 X172.2918 Y154.3413 I-0.4983 J-0.0413
G1 X171.5688 Y155.9895
G1 X171.5336 Y156.0698
G3 X171.4486 Y156.202 I-0.4579 J-0.2008
G1 X170.1945 Y157.6064
G3 X170.1894 Y157.612 I-0.3729 J-0.333
G1 X170.0707 Y157.7409
G3 X169.9408 Y157.842 I-0.3679 J-0.3386
G1 X169.7866 Y157.9255
G1 X168.2037 Y158.7821
G3 X168.048 Y158.8356 I-0.238 J-0.4397
G1 X167.875 Y158.8644
G1 X166.0998 Y159.1607
G3 X165.9814 Y159.1662 I-0.0823 J-0.4932
G1 F300.0 Z-4.0
G3 F1200.0 X165.9352 Y159.1607 I0.0361 J-0.4987
G1 X165.7622 Y159.1318
G1 X163.987 Y158.8356
G3 X163.8313 Y158.7821 I0.0823 J-0.4932
G1 X163.6771 Y158.6987
G1 X162.0942 Y157.842
G3 X161.9643 Y157.7409 I0.238 J-0.4397
G1 X160.7454 Y156.4168
G1 X160.6266 Y156.2878
G3 X160.5366 Y156.1501 I0.3679 J-0.3386
G1 X159.8136 Y154.5018
G1 X159.7432 Y154.3413
G3 X159.7028 Y154.1817 I0.4579 J-0.2008
G1 X159.5542 Y152.388
G1 X159.5397 Y152.2133
G3 X159.5533 Y152.0493 I0.4983 J-0.0413
G1 X159.9951 Y150.3045
G1 X160.0382 Y150.1346
G3 X160.1043 Y149.9838 I0.4847 J0.1228
G1 X161.0887 Y148.4771
G1 X161.1846 Y148.3303
G3 X161.2961 Y148.2092 I0.4186 J0.2735
G1 X161.4344 Y148.1015
G1 X162.8547 Y146.9961
G3 X162.9994 Y146.9178 I0.3071 J0.3946
G1 X163.1653 Y146.8609
G1 X164.8675 Y146.2764
G3 X165.0299 Y146.2493 I0.1624 J0.4729
G1 X165.2052
G1 X167.0051
G3 X167.1675 Y146.2764 I0.0 J0.5
G1 X167.3333 Y146.3333
G1 X169.0356 Y146.9178
G3 X169.1803 Y146.9961 I-0.1624 J0.4729
G1 X169.3187 Y147.1038
G1 X170.7389 Y148.2092
G3 X170.8504 Y148.3303 I-0.3071 J0.3946
G1 X171.8348 Y149.837
G1 X171.9307 Y149.9838
G3 X171.9968 Y150.1346 I-0.4186 J0.2735
G1 X172.4386 Y151.8793
G1 X172.4817 Y152.0493
G3 X172.4953 Y152.2133 I-0.4847 J0.1227
G1 X172.3467 Y154.007
G1 X172.3322 Y154.1817
G3 X172.2918 Y154.3413 I-0.4983 J-0.0413
G1 X171.5688 Y155.9895
G1 X171.5336 Y156.0698
G3 X171.4486 Y156.202 I-0.4579 J-0.2008
G1 X170.1945 Y157.6064
G3 X170.1894 Y157.612 I-0.3729 J-0.333
G1 X170.0707 Y157.7409
G3 X169.9408 Y157.842 I-0.3679 J-0.3386
G1 X169.7866 Y157.9255
G1 X168.2037 Y158.7821
G3 X168.048 Y158.8356 I-0.238 J-0.4397
G1 X167.875 Y158.8644
G1 X166.0998 Y159.1607
G3 X165.9814 Y159.1662 I-0.0823 J-0.4932
G0 Z3.0
G0 X166.0175 Y112.1606
G0 Z1.0
G1 F300.0 Z-0.6
G1 F1200.0 X167.7105 Y111.8781
G1 X167.7104
G1 X167.8011 Y111.863
G1 X169.3106 Y111.046
G1 X169.3914 Y111.0023
G1 X169.4537 Y110.9347
G1 X170.6161 Y109.6719
G1 X170.653 Y109.5878
G1 X171.3425 Y108.016
G1 X171.3501 Y107.9244
G1 X171.4918 Y106.2139
G1 X171.4692 Y106.1248
G1 X171.0479 Y104.4609
G1 X170.9976 Y104.384
G1 X170.0588 Y102.9471
G1 X168.7044 Y101.893
G1 X168.6319 Y101.8365
G1 X167.0086 Y101.2791
G1 X166.9216 Y101.2493
G1 X165.2052
G1 X165.1133
G1 X163.49 Y101.8067
G1 X163.4031 Y101.8365
G1 X162.0487 Y102.8907
G1 X161.9761 Y102.9471
G1 X161.9259 Y103.0241
G1 X160.9871 Y104.4609
G1 X160.9645 Y104.55
G1 X160.5432 Y106.2139
G1 X160.5508 Y106.3054
G1 Y106.3055
G1 X160.6925 Y108.016
G1 X160.7294 Y108.1001
G1 X161.4189 Y109.6719
G1 X161.4811 Y109.7396
G1 X162.6435 Y111.0023
G1 X164.1531 Y111.8192
G1 X164.2339 Y111.863
G1 X165.9268 Y112.1455
G1 X166.0175 Y112.1606
G1 F300.0 Z-1.2
G1 F1200.0 X167.7105 Y111.8781
G1 X167.7104
G1 X167.8011 Y111.863
G1 X169.3106 Y111.046
G1 X169.3914 Y111.0023
G1 X169.4537 Y110.9347
G1 X170.6161 Y109.6719
G1 X170.653 Y109.5878
G1 X171.3425 Y108.016
G1 X171.3501 Y107.9244
G1 X171.4918 Y106.2139
G1 X171.4692 Y106.1248
G1 X171.0479 Y104.4609
G1 X170.9976 Y104.384
G1 X170.0588 Y102.9471
G1 X168.7044 Y101.893
G1 X168.6319 Y101.8365
G1 X167.0086 Y101.2791
G1 X166.9216 Y101.2493
G1 X165.2052
G1 X165.1133
G1 X163.49 Y101.8067
G1 X163.4031 Y101.8365
G1 X162.0487 Y102.8907
G1 X161.9761 Y102.9471
G1 X161.9259 Y103.0241
G1 X160.9871 Y104.4609
G1 X160.9645 Y104.55
G1 X160.5432 Y106.2139
G1 X160.5508 Y106.3054
G1 Y106.3055
G1 X160.6925 Y108.016
G1 X160.7294 Y108.1001
G1 X161.4189 Y109.6719
G1 X161.4811 Y109.7396
G1 X162.6435 Y111.0023
G1 X164.1531 Y111.8192
G1 X164.2339 Y111.863
G1 X165.9268 Y112.1455
G1 X166.0175 Y112.1606
G1 F300.0 Z-1.8
G1 F1200.0 X167.7105 Y111.8781
G1 X167.7104
G1 X167.8011 Y111.863
G1 X169.3106 Y111.046
G1 X169.3914 Y111.0023
G1 X169.4537 Y110.9347
G1 X170.6161 Y109.6719
G1 X170.653 Y109.5878
G1 X171.3425 Y108.016
G1 X171.3501 Y107.9244
G1 X171.4918 Y106.2139
G1 X171.4692 Y106.1248
G1 X171.0479 Y104.4609
G1 X170.9976 Y104.384
G1 X170.0588 Y102.9471
G1 X168.7044 Y101.893
G1 X168.6319 Y101.8365
G1 X167.0086 Y101.2791
G1 X166.9216 Y101.2493
G1 X165.2052
G1 X165.1133
G1 X163.49 Y101.8067
G1 X163.4031 Y101.8365
G1 X162.0487 Y102.8907
G1 X161.9761 Y102.9471
G1 X161.9259 Y103.0241
G1 X160.9871 Y104.4609
G1 X160.9645 Y104.55
G1 X160.5432 Y106.2139
G1 X160.5508 Y106.3054
G1 Y106.3055
G1 X160.6925 Y108.016
G1 X160.7294 Y108.1001
G1 X161.4189 Y109.6719
G1 X161.4811 Y109.7396
G1 X162.6435 Y111.0023
G1 X164.1531 Y111.8192
G1 X164.2339 Y111.863
G1 X165.9268 Y112.1455
G1 X166.0175 Y112.1606
G1 F300.0 Z-2.4
G1 F1200.0 X167.7105 Y111.8781
G1 X167.7104
G1 X167.8011 Y111.863
G1 X169.3106 Y111.046
G1 X169.3914 Y111.0023
G1 X169.4537 Y110.9347
G1 X170.6161 Y109.6719
G1 X170.653 Y109.5878
G1 X171.3425 Y108.016
G1 X171.3501 Y107.9244
G1 X171.4918 Y106.2139
G1 X171.4692 Y106.1248
G1 X171.0479 Y104.4609
G1 X170.9976 Y104.384
G1 X170.0588 Y102.9471
G1 X168.7044 Y101.893
G1 X168.6319 Y101.8365
G1 X167.0086 Y101.2791
G1 X166.9216 Y101.2493
G1 X165.2052
G1 X165.1133
G1 X163.49 Y101.8067
G1 X163.4031 Y101.8365
G1 X162.0487 Y102.8907
G1 X161.9761 Y102.9471
G1 X161.9259 Y103.0241
G1 X160.9871 Y104.4609
G1 X160.9645 Y104.55
G1 X160.5432 Y106.2139
G1 X160.5508 Y106.3054
G1 Y106.3055
G1 X160.6925 Y108.016
G1 X160.7294 Y108.1001
G1 X161.4189 Y109.6719
G1 X161.4811 Y109.7396
G1 X162.6435 Y111.0023
G1 X164.1531 Y111.8192
G1 X164.2339 Y111.863
G1 X165.9268 Y112.1455
G1 X166.0175 Y112.1606
G1 F300.0 Z-3.0
G1 F1200.0 X167.7105 Y111.8781
G1 X167.7104
G1 X167.8011 Y111.863
G1 X169.3106 Y111.046
G1 X169.3914 Y111.0023
G1 X169.4537 Y110.9347
G1 X170.6161 Y109.6719
G1 X170.653 Y109.5878
G1 X171.3425 Y108.016
G1 X171.3501 Y107.9244
G1 X171.4918 Y106.2139
G1 X171.4692 Y106.1248
G1 X171.0479 Y104.4609
G1 X170.9976 Y104.384
G1 X170.0588 Y102.9471
G1 X168.7044 Y101.893
G1 X168.6319 Y101.8365
G1 X167.0086 Y101.2791
G1 X166.9216 Y101.2493
G1 X165.2052
G1 X165.1133
G1 X163.49 Y101.8067
G1 X163.4031 Y101.8365
G1 X162.0487 Y102.8907
G1 X161.9761 Y102.9471
G1 X161.9259 Y103.0241
G1 X160.9871 Y104.4609
G1 X160.9645 Y104.55
G1 X160.5432 Y106.2139
G1 X160.5508 Y106.3054
G1 Y106.3055
G1 X160.6925 Y108.016
G1 X160.7294 Y108.1001
G1 X161.4189 Y109.6719
G1 X161.4811 Y109.7396
G1 X162.6435 Y111.0023
G1 X164.1531 Y111.8192
G1 X164.2339 Y111.863
G1 X165.9268 Y112.1455
G1 X166.0175 Y112.1606
G1 F300.0 Z-3.6
G1 F1200.0 X167.7105 Y111.8781
G1 X167.7104
G1 X167.8011 Y111.863
G1 X169.3106 Y111.046
G1 X169.3914 Y111.0023
G1 X169.4537 Y110.9347
G1 X170.6161 Y109.6719
G1 X170.653 Y109.5878
G1 X171.3425 Y108.016
G1 X171.3501 Y107.9244
G1 X171.4918 Y106.2139
G1 X171.4692 Y106.1248
G1 X171.0479 Y104.4609
G1 X170.9976 Y104.384
G1 X170.0588 Y102.9471
G1 X168.7044 Y101.893
G1 X168.6319 Y101.8365
G1 X167.0086 Y101.2791
G1 X166.9216 Y101.2493
G1 X165.2052
G1 X165.1133
G1 X163.49 Y101.8067
G1 X163.4031 Y101.8365
G1 X162.0487 Y102.8907
G1 X161.9761 Y102.9471
G1 X161.9259 Y103.0241
G1 X160.9871 Y104.4609
G1 X160.9645 Y104.55
G1 X160.5432 Y106.2139
G1 X160.5508 Y106.3054
G1 Y106.3055
G1 X160.6925 Y108.016
G1 X160.7294 Y108.1001
G1 X161.4189 Y109.6719
G1 X161.4811 Y109.7396
G1 X162.6435 Y111.0023
G1 X164.1531 Y111.8192
G1 X164.2339 Y111.863
G1 X165.9268 Y112.1455
G1 X166.0175 Y112.1606
G1 F300.0 Z-4.0
G1 F1200.0 X167.7105 Y111.8781
G1 X167.7104
G1 X167.8011 Y111.863
G1 X169.3106 Y111.046
G1 X169.3914 Y111.0023
G1 X169.4537 Y110.9347
G1 X170.6161 Y109.6719
G1 X170.653 Y109.5878
G1 X171.3425 Y108.016
G1 X171.3501 Y107.9244
G1 X171.4918 Y106.2139
G1 X171.4692 Y106.1248
G1 X171.0479 Y104.4609
G1 X170.9976 Y104.384
G1 X170.0588 Y102.9471
G1 X168.7044 Y101.893
G1 X168.6319 Y101.8365
G1 X167.0086 Y101.2791
G1 X166.9216 Y101.2493
G1 X165.2052
G1 X165.1133
G1 X163.49 Y101.8067
G1 X163.4031 Y101.8365
G1 X162.0487 Y102.8907
G1 X161.9761 Y102.9471
G1 X161.9259 Y103.0241
G1 X160.9871 Y104.4609
G1 X160.9645 Y104.55
G1 X160.5432 Y106.2139
G1 X160.5508 Y106.3054
G1 Y106.3055
G1 X160.6925 Y108.016
G1 X160.7294 Y108.1001
G1 X161.4189 Y109.6719
G1 X161.4811 Y109.7396
G1 X162.6435 Y111.0023
G1 X164.1531 Y111.8192
G1 X164.2339 Y111.863
G1 X165.9268 Y112.1455
G1 X166.0175 Y112.1606
G0 Z3.0
G0 X163.0175 Y70.1606
G0 Z1.0
G1 F300.0 Z-0.6
G1 F1200.0 X164.7105 Y69.8781
G1 X164.8011 Y69.863
G1 X166.3106 Y69.046
G1 X166.3914 Y69.0023
G1 X166.4537 Y68.9347
G1 X167.6161 Y67.6719
G1 X167.653 Y67.5878
G1 X168.3425 Y66.016
G1 X168.3501 Y65.9244
G1 X168.4918 Y64.2139
G1 X168.4692 Y64.1248
G1 X168.0479 Y62.4609
G1 X167.9976 Y62.384
G1 X167.0588 Y60.9471
G1 X165.7044 Y59.893
G1 X165.6319 Y59.8365
G1 X164.0086 Y59.2791
G1 X163.9216 Y59.2493
G1 X162.2052
G1 X162.1133
G1 X160.49 Y59.8067
G1 X160.4031 Y59.8365
G1 X159.0487 Y60.8907
G1 X158.9761 Y60.9471
G1 X158.9259 Y61.0241
G1 X157.9871 Y62.4609
G1 X157.9645 Y62.55
G1 X157.5432 Y64.2139
G1 X157.5508 Y64.3054
G1 X157.6925 Y66.016
G1 X157.7294 Y66.1001
G1 X158.4189 Y67.6719
G1 X158.4811 Y67.7396
G1 X159.6435 Y69.0023
G1 X161.1531 Y69.8192
G1 X161.2339 Y69.863
G1 X162.9268 Y70.1455
G1 X163.0175 Y70.1606
G1 F300.0 Z-1.2
G1 F1200.0 X164.7105 Y69.8781
G1 X164.8011 Y69.863
G1 X166.3106 Y69.046
G1 X166.3914 Y69.0023
G1 X166.4537 Y68.9347
G1 X167.6161 Y67.6719
G1 X167.653 Y67.5878
G1 X168.3425 Y66.016
G1 X168.3501 Y65.9244
G1 X168.4918 Y64.2139
G1 X168.4692 Y64.1248
G1 X168.0479 Y62.4609
G1 X167.9976 Y62.384
G1 X167.0588 Y60.9471
G1 X165.7044 Y59.893
G1 X165.6319 Y59.8365
G1 X164.0086 Y59.2791
G1 X163.9216 Y59.2493
G1 X162.2052
G1 X162.1133
G1 X160.49 Y59.8067
G1 X160.4031 Y59.8365
G1 X159.0487 Y60.8907
G1 X158.9761 Y60.9471
G1 X158.9259 Y61.0241
G1 X157.9871 Y62.4609
G1 X157.9645 Y62.55
G1 X157.5432 Y64.2139
G1 X157.5508 Y64.3054
G1 X157.6925 Y66.016
G1 X157.7294 Y66.1001
G1 X158.4189 Y67.6719
G1 X158.4811 Y67.7396
G1 X159.6435 Y69.0023
G1 X161.1531 Y69.8192
G1 X161.2339 Y69.863
G1 X162.9268 Y70.1455
G1 X163.0175 Y70.1606
G1 F300.0 Z-1.8
G1 F1200.0 X164.7105 Y69.8781
G1 X164.8011 Y69.863
G1 X166.3106 Y69.046
G1 X166.3914 Y69.0023
G1 X166.4537 Y68.9347
G1 X167.6161 Y67.6719
G1 X167.653 Y67.5878
G1 X168.3425 Y66.016
G1 X168.3501 Y65.9244
G1 X168.4918 Y64.2139
G1 X168.4692 Y64.1248
G1 X168.0479 Y62.4609
G1 X167.9976 Y62.384
G1 X167.0588 Y60.9471
G1 X165.7044 Y59.893
G1 X165.6319 Y59.8365
G1 X164.0086 Y59.2791
G1 X163.9216 Y59.2493
G1 X162.2052
G1 X162.1133
G1 X160.49 Y59.8067
G1 X160.4031 Y59.8365
G1 X159.0487 Y60.8907
G1 X158.9761 Y60.9471
G1 X158.9259 Y61.0241
G1 X157.9871 Y62.4609
G1 X157.9645 Y62.55
G1 X157.5432 Y64.2139
G1 X157.5508 Y64.3054
G1 X157.6925 Y66.016
G1 X157.7294 Y66.1001
G1 X158.4189 Y67.6719
G1 X158.4811 Y67.7396
G1 X159.6435 Y69.0023
G1 X161.1531 Y69.8192
G1 X161.2339 Y69.863
G1 X162.9268 Y70.1455
G1 X163.0175 Y70.1606
G1 F300.0 Z-2.4
G1 F1200.0 X164.7105 Y69.8781
G1 X164.8011 Y69.863
G1 X166.3106 Y69.046
G1 X166.3914 Y69.0023
G1 X166.4537 Y68.9347
G1 X167.6161 Y67.6719
G1 X167.653 Y67.5878
G1 X168.3425 Y66.016
G1 X168.3501 Y65.9244
G1 X168.4918 Y64.2139
G1 X168.4692 Y64.1248
G1 X168.0479 Y62.4609
G1 X167.9976 Y62.384
G1 X167.0588 Y60.9471
G1 X165.7044 Y59.893
G1 X165.6319 Y59.8365
G1 X164.0086 Y59.2791
G1 X163.9216 Y59.2493
G1 X162.2052
G1 X162.1133
G1 X160.49 Y59.8067
G1 X160.4031 Y59.8365
G1 X159.0487 Y60.8907
G1 X158.9761 Y60.9471
G1 X158.9259 Y61.0241
G1 X157.9871 Y62.4609
G1 X157.9645 Y62.55
G1 X157.5432 Y64.2139
G1 X157.5508 Y64.3054
G1 X157.6925 Y66.016
G1 X157.7294 Y66.1001
G1 X158.4189 Y67.6719
G1 X158.4811 Y67.7396
G1 X159.6435 Y69.0023
G1 X161.1531 Y69.8192
G1 X161.2339 Y69.863
G1 X162.9268 Y70.1455
G1 X163.0175 Y70.1606
G1 F300.0 Z-3.0
G1 F1200.0 X164.7105 Y69.8781
G1 X164.8011 Y69.863
G1 X166.3106 Y69.046
G1 X166.3914 Y69.0023
G1 X166.4537 Y68.9347
G1 X167.6161 Y67.6719
G1 X167.653 Y67.5878
G1 X168.3425 Y66.016
G1 X168.3501 Y65.9244
G1 X168.4918 Y64.2139
G1 X168.4692 Y64.1248
G1 X168.0479 Y62.4609
G1 X167.9976 Y62.384
G1 X167.0588 Y60.9471
G1 X165.7044 Y59.893
G1 X165.6319 Y59.8365
G1 X164.0086 Y59.2791
G1 X163.9216 Y59.2493
G1 X162.2052
G1 X162.1133
G1 X160.49 Y59.8067
G1 X160.4031 Y59.8365
G1 X159.0487 Y60.8907
G1 X158.9761 Y60.9471
G1 X158.9259 Y61.0241
G1 X157.9871 Y62.4609
G1 X157.9645 Y62.55
G1 X157.5432 Y64.2139
G1 X157.5508 Y64.3054
G1 X157.6925 Y66.016
G1 X157.7294 Y66.1001
G1 X158.4189 Y67.6719
G1 X158.4811 Y67.7396
G1 X159.6435 Y69.0023
G1 X161.1531 Y69.8192
G1 X161.2339 Y69.863
G1 X162.9268 Y70.1455
G1 X163.0175 Y70.1606
G1 F300.0 Z-3.6
G1 F1200.0 X164.7105 Y69.8781
G1 X164.8011 Y69.863
G1 X166.3106 Y69.046
G1 X166.3914 Y69.0023
G1 X166.4537 Y68.9347
G1 X167.6161 Y67.6719
G1 X167.653 Y67.5878
G1 X168.3425 Y66.016
G1 X168.3501 Y65.9244
G1 X168.4918 Y64.2139
G1 X168.4692 Y64.1248
G1 X168.0479 Y62.4609
G1 X167.9976 Y62.384
G1 X167.0588 Y60.9471
G1 X165.7044 Y59.893
G1 X165.6319 Y59.8365
G1 X164.0086 Y59.2791
G1 X163.9216 Y59.2493
G1 X162.2052
G1 X162.1133
G1 X160.49 Y59.8067
G1 X160.4031 Y59.8365
G1 X159.0487 Y60.8907
G1 X158.9761 Y60.9471
G1 X158.9259 Y61.0241
G1 X157.9871 Y62.4609
G1 X157.9645 Y62.55
G1 X157.5432 Y64.2139
G1 X157.5508 Y64.3054
G1 X157.6925 Y66.016
G1 X157.7294 Y66.1001
G1 X158.4189 Y67.6719
G1 X158.4811 Y67.7396
G1 X159.6435 Y69.0023
G1 X161.1531 Y69.8192
G1 X161.2339 Y69.863
G1 X162.9268 Y70.1455
G1 X163.0175 Y70.1606
G1 F300.0 Z-4.0
G1 F1200.0 X164.7105 Y69.8781
G1 X164.8011 Y69.863
G1 X166.3106 Y69.046
G1 X166.3914 Y69.0023
G1 X166.4537 Y68.9347
G1 X167.6161 Y67.6719
G1 X167.653 Y67.5878
G1 X168.3425 Y66.016
G1 X168.3501 Y65.9244
G1 X168.4918 Y64.2139
G1 X168.4692 Y64.1248
G1 X168.0479 Y62.4609
G1 X167.9976 Y62.384
G1 X167.0588 Y60.9471
G1 X165.7044 Y59.893
G1 X165.6319 Y59.8365
G1 X164.0086 Y59.2791
G1 X163.9216 Y59.2493
G1 X162.2052
G1 X162.1133
G1 X160.49 Y59.8067
G1 X160.4031 Y59.8365
G1 X159.0487 Y60.8907
G1 X158.9761 Y60.9471
G1 X158.9259 Y61.0241
G1 X157.9871 Y62.4609
G1 X157.9645 Y62.55
G1 X157.5432 Y64.2139
G1 X157.5508 Y64.3054
G1 X157.6925 Y66.016
G1 X157.7294 Y66.1001
G1 X158.4189 Y67.6719
G1 X158.4811 Y67.7396
G1 X159.6435 Y69.0023
G1 X161.1531 Y69.8192
G1 X161.2339 Y69.863
G1 X162.9268 Y70.1455
G1 X163.0175 Y70.1606
G0 Z3.0
G0 Y31.1606
G0 Z1.0
G1 F300.0 Z-0.6
G1 F1200.0 X164.7104 Y30.8781
G1 X164.8011 Y30.8629
G1 X166.3106 Y30.046
G1 X166.3915 Y30.0023
G1 X166.4537 Y29.9347
G1 X167.6161 Y28.6722
G1 X167.653 Y28.5881
G1 X168.3425 Y27.0161
G1 X168.3501 Y26.9245
G1 X168.4918 Y25.2143
G1 X168.4692 Y25.1252
G1 X168.0479 Y23.4611
G1 X167.9976 Y23.3841
G1 X167.0588 Y21.9468
G1 X165.7045 Y20.8928
G1 X165.632 Y20.8363
G1 X164.0087 Y20.2793
G1 X164.0086
G1 X164.0087
G1 X163.9217 Y20.2495
G1 X162.2052
G1 X162.1133
G1 X160.4899 Y20.8065
G1 X160.403 Y20.8363
G1 X159.0486 Y21.8904
G1 X158.9762 Y21.9468
G1 X158.9259 Y22.0237
G1 Y22.0238
G1 X157.9871 Y23.4611
G1 X157.9645 Y23.5502
G1 X157.5432 Y25.2143
G1 X157.5508 Y25.3059
G1 X157.6925 Y27.0161
G1 X157.7294 Y27.1003
G1 X158.4189 Y28.6722
G1 X158.4811 Y28.7398
G1 X159.6435 Y30.0023
G1 X161.1531 Y30.8192
G1 X161.2339 Y30.8629
G1 X162.9268 Y31.1455
G1 X163.0175 Y31.1606
G1 F300.0 Z-1.2
G1 F1200.0 X164.7104 Y30.8781
G1 X164.8011 Y30.8629
G1 X166.3106 Y30.046
G1 X166.3915 Y30.0023
G1 X166.4537 Y29.9347
G1 X167.6161 Y28.6722
G1 X167.653 Y28.5881
G1 X168.3425 Y27.0161
G1 X168.3501 Y26.9245
G1 X168.4918 Y25.2143
G1 X168.4692 Y25.1252
G1 X168.0479 Y23.4611
G1 X167.9976 Y23.3841
G1 X167.0588 Y21.9468
G1 X165.7045 Y20.8928
G1 X165.632 Y20.8363
G1 X164.0087 Y20.2793
G1 X164.0086
G1 X164.0087
G1 X163.9217 Y20.2495
G1 X162.2052
G1 X162.1133
G1 X160.4899 Y20.8065
G1 X160.403 Y20.8363
G1 X159.0486 Y21.8904
G1 X158.9762 Y21.9468
G1 X158.9259 Y22.0237
G1 Y22.0238
G1 X157.9871 Y23.4611
G1 X157.9645 Y23.5502
G1 X157.5432 Y25.2143
G1 X157.5508 Y25.3059
G1 X157.6925 Y27.0161
G1 X157.7294 Y27.1003
G1 X158.4189 Y28.6722
G1 X158.4811 Y28.7398
G1 X159.6435 Y30.0023
G1 X161.1531 Y30.8192
G1 X161.2339 Y30.8629
G1 X162.9268 Y31.1455
G1 X163.0175 Y31.1606
G1 F300.0 Z-1.8
G1 F1200.0 X164.7104 Y30.8781
G1 X164.8011 Y30.8629
G1 X166.3106 Y30.046
G1 X166.3915 Y30.0023
G1 X166.4537 Y29.9347
G1 X167.6161 Y28.6722
G1 X167.653 Y28.5881
G1 X168.3425 Y27.0161
G1 X168.3501 Y26.9245
G1 X168.4918 Y25.2143
G1 X168.4692 Y25.1252
G1 X168.0479 Y23.4611
G1 X167.9976 Y23.3841
G1 X167.0588 Y21.9468
G1 X165.7045 Y20.8928
G1 X165.632 Y20.8363
G1 X164.0087 Y20.2793
G1 X164.0086
G1 X164.0087
G1 X163.9217 Y20.2495
G1 X162.2052
G1 X162.1133
G1 X160.4899 Y20.8065
G1 X160.403 Y20.8363
G1 X159.0486 Y21.8904
G1 X158.9762 Y21.9468
G1 X158.9259 Y22.0237
G1 Y22.0238
G1 X157.9871 Y23.4611
G1 X157.9645 Y23.5502
G1 X157.5432 Y25.2143
G1 X157.5508 Y25.3059
G1 X157.6925 Y27.0161
G1 X157.7294 Y27.1003
G1 X158.4189 Y28.6722
G1 X158.4811 Y28.7398
G1 X159.6435 Y30.0023
G1 X161.1531 Y30.8192
G1 X161.2339 Y30.8629
G1 X162.9268 Y31.1455
G1 X163.0175 Y31.1606
G1 F300.0 Z-2.4
G1 F1200.0 X164.7104 Y30.8781
G1 X164.8011 Y30.8629
G1 X166.3106 Y30.046
G1 X166.3915 Y30.0023
G1 X166.4537 Y29.9347
G1 X167.6161 Y28.6722
G1 X167.653 Y28.5881
G1 X168.3425 Y27.0161
G1 X168.3501 Y26.9245
G1 X168.4918 Y25.2143
G1 X168.4692 Y25.1252
G1 X168.0479 Y23.4611
G1 X167.9976 Y23.3841
G1 X167.0588 Y21.9468
G1 X165.7045 Y20.8928
G1 X165.632 Y20.8363
G1 X164.0087 Y20.2793
G1 X164.0086
G1 X164.0087
G1 X163.9217 Y20.2495
G1 X162.2052
G1 X162.1133
G1 X160.4899 Y20.8065
G1 X160.403 Y20.8363
G1 X159.0486 Y21.8904
G1 X158.9762 Y21.9468
G1 X158.9259 Y22.0237
G1 Y22.0238
G1 X157.9871 Y23.4611
G1 X157.9645 Y23.5502
G1 X157.5432 Y25.2143
G1 X157.5508 Y25.3059
G1 X157.6925 Y27.0161
G1 X157.7294 Y27.1003
G1 X158.4189 Y28.6722
G1 X158.4811 Y28.7398
G1 X159.6435 Y30.0023
G1 X161.1531 Y30.8192
G1 X161.2339 Y30.8629
G1 X162.9268 Y31.1455
G1 X163.0175 Y31.1606
G1 F300.0 Z-3.0
G1 F1200.0 X164.7104 Y30.8781
G1 X164.8011 Y30.8629
G1 X166.3106 Y30.046
G1 X166.3915 Y30.0023
G1 X166.4537 Y29.9347
G1 X167.6161 Y28.6722
G1 X167.653 Y28.5881
G1 X168.3425 Y27.0161
G1 X168.3501 Y26.9245
G1 X168.4918 Y25.2143
G1 X168.4692 Y25.1252
G1 X168.0479 Y23.4611
G1 X167.9976 Y23.3841
G1 X167.0588 Y21.9468
G1 X165.7045 Y20.8928
G1 X165.632 Y20.8363
G1 X164.0087 Y20.2793
G1 X164.0086
G1 X164.0087
G1 X163.9217 Y20.2495
G1 X162.2052
G1 X162.1133
G1 X160.4899 Y20.8065
G1 X160.403 Y20.8363
G1 X159.0486 Y21.8904
G1 X158.9762 Y21.9468
G1 X158.9259 Y22.0237
G1 Y22.0238
G1 X157.9871 Y23.4611
G1 X157.9645 Y23.5502
G1 X157.5432 Y25.2143
G1 X157.5508 Y25.3059
G1 X157.6925 Y27.0161
G1 X157.7294 Y27.1003
G1 X158.4189 Y28.6722
G1 X158.4811 Y28.7398
G1 X159.6435 Y30.0023
G1 X161.1531 Y30.8192
G1 X161.2339 Y30.8629
G1 X162.9268 Y31.1455
G1 X163.0175 Y31.1606
G1 F300.0 Z-3.6
G1 F1200.0 X164.7104 Y30.8781
G1 X164.8011 Y30.8629
G1 X166.3106 Y30.046
G1 X166.3915 Y30.0023
G1 X166.4537 Y29.9347
G1 X167.6161 Y28.6722
G1 X167.653 Y28.5881
G1 X168.3425 Y27.0161
G1 X168.3501 Y26.9245
G1 X168.4918 Y25.2143
G1 X168.4692 Y25.1252
G1 X168.0479 Y23.4611
G1 X167.9976 Y23.3841
G1 X167.0588 Y21.9468
G1 X165.7045 Y20.8928
G1 X165.632 Y20.8363
G1 X164.0087 Y20.2793
G1 X164.0086
G1 X164.0087
G1 X163.9217 Y20.2495
G1 X162.2052
G1 X162.1133
G1 X160.4899 Y20.8065
G1 X160.403 Y20.8363
G1 X159.0486 Y21.8904
G1 X158.9762 Y21.9468
G1 X158.9259 Y22.0237
G1 Y22.0238
G1 X157.9871 Y23.4611
G1 X157.9645 Y23.5502
G1 X157.5432 Y25.2143
G1 X157.5508 Y25.3059
G1 X157.6925 Y27.0161
G1 X157.7294 Y27.1003
G1 X158.4189 Y28.6722
G1 X158.4811 Y28.7398
G1 X159.6435 Y30.0023
G1 X161.1531 Y30.8192
G1 X161.2339 Y30.8629
G1 X162.9268 Y31.1455
G1 X163.0175 Y31.1606
G1 F300.0 Z-4.0
G1 F1200.0 X164.7104 Y30.8781
G1 X164.8011 Y30.8629
G1 X166.3106 Y30.046
G1 X166.3915 Y30.0023
G1 X166.4537 Y29.9347
G1 X167.6161 Y28.6722
G1 X167.653 Y28.5881
G1 X168.3425 Y27.0161
G1 X168.3501 Y26.9245
G1 X168.4918 Y25.2143
G1 X168.4692 Y25.1252
G1 X168.0479 Y23.4611
G1 X167.9976 Y23.3841
G1 X167.0588 Y21.9468
G1 X165.7045 Y20.8928
G1 X165.632 Y20.8363
G1 X164.0087 Y20.2793
G1 X164.0086
G1 X164.0087
G1 X163.9217 Y20.2495
G1 X162.2052
G1 X162.1133
G1 X160.4899 Y20.8065
G1 X160.403 Y20.8363
G1 X159.0486 Y21.8904
G1 X158.9762 Y21.9468
G1 X158.9259 Y22.0237
G1 Y22.0238
G1 X157.9871 Y23.4611
G1 X157.9645 Y23.5502
G1 X157.5432 Y25.2143
G1 X157.5508 Y25.3059
G1 X157.6925 Y27.0161
G1 X157.7294 Y27.1003
G1 X158.4189 Y28.6722
G1 X158.4811 Y28.7398
G1 X159.6435 Y30.0023
G1 X161.1531 Y30.8192
G1 X161.2339 Y30.8629
G1 X162.9268 Y31.1455
G1 X163.0175 Y31.1606
G0 Z3.0
M5
M30
