( Made using CamBam - http://www.cambam.co.uk )
( tournevis2 7/21/2017 7:03:14 PM )
G0 Z3.0
M3 S1000
G0 X252.5769 Y164.5175
G0 Z1.0
G1 F300.0 Z-0.6
G1 F1600.0 X252.6871
G1 X252.7638
G1 X252.8174
G1 X253.1925
G3 X253.6925 Y165.0175 I0.0 J0.5
G1 Y165.5824
G1 Y171.4593
G3 X253.6913 Y171.4936 I-0.5 J0.0
G1 X253.681 Y171.6436
G3 X253.1822 Y172.1093 I-0.4988 J-0.0343
G1 X225.8195
G1 Y173.8553
G1 X253.1822
G3 X253.681 Y174.3211 I0.0 J0.5
G1 X253.6913 Y174.4711
G3 X253.6925 Y174.5053 I-0.4988 J0.0343
G1 Y186.6142
G3 X253.6913 Y186.6485 I-0.5 J0.0
G1 X253.681 Y186.7985
G3 X253.1822 Y187.2642 I-0.4988 J-0.0343
G1 X225.8195
G1 Y189.0102
G1 X229.1822
G3 X229.681 Y189.476 I0.0 J0.5
G1 X229.6913 Y189.626
G3 X229.6925 Y189.6602 I-0.4988 J0.0343
G1 Y202.6773
G3 X229.6913 Y202.7116 I-0.5 J0.0
G1 X229.681 Y202.8616
G3 X229.1822 Y203.3273 I-0.4988 J-0.0343
G1 X209.8195
G1 Y205.0733
G1 X229.1822
G3 X229.681 Y205.5391 I0.0 J0.5
G1 X229.6913 Y205.6891
G3 X229.6925 Y205.7233 I-0.4988 J0.0343
G1 Y208.0175
G3 X229.1925 Y208.5175 I-0.5 J0.0
G1 X228.8768
G1 X228.7278
G1 X228.7086
G1 X228.0708
G1 X228.0123
G1 X225.6624
G1 X225.4187
G1 X224.844
G1 X223.8731
G1 X222.5162
G1 X220.9581
G1 X219.5901
G1 X205.6652
G1 X204.3327
G1 X203.2286
G1 X201.915
G1 X197.1925
G1 X193.216
G1 X189.1925
G3 X188.6925 Y208.0175 I0.0 J-0.5
G1 Y203.994
G1 Y200.0175
G3 X189.1925 Y199.5175 I0.5 J0.0
G1 X192.1749
G1 X195.1925
G3 X195.6925 Y200.0175 I0.0 J0.5
G1 Y202.0293
G1 Y203.5175
G1 X196.1866
G1 X196.6925
G1 Y201.9518
G1 Y199.728
G1 Y199.609
G1 Y199.3802
G1 Y199.3464
G1 Y199.261
G1 Y199.0175
G1 Y197.6908
G1 Y197.5993
G1 Y197.1018
G1 Y196.905
G1 Y195.5722
G1 Y194.8788
G1 Y181.9253
G1 Y170.3925
G1 X193.216
G1 X189.1925
G3 X188.6925 Y169.8925 I0.0 J-0.5
G1 Y165.869
G1 Y161.8925
G3 X189.1925 Y161.3925 I0.5 J0.0
G1 X192.1749
G1 X195.1925
G3 X195.6925 Y161.8925 I0.0 J0.5
G1 Y163.9042
G1 Y165.3925
G1 X196.1866
G1 X196.6925
G1 Y163.8268
G1 Y161.603
G1 Y161.484
G1 Y161.2552
G1 Y161.2214
G1 Y161.136
G1 Y160.8925
G1 Y160.5895
G1 Y148.0175
G3 X197.1925 Y147.5175 I0.5 J0.0
G1 X201.0983
G1 X201.1925
G3 X201.6925 Y148.0175 I0.0 J0.5
G1 Y148.4176
G1 Y164.5175
G1 X201.7035
G1 X201.7395
G1 X202.9117
G1 X203.208
G1 X203.8471
G1 X204.8602
G1 X206.1445
G1 X207.4058
G1 X208.2761
G1 X231.8284
G1 X246.1089
G1 X246.9792
G1 X248.2405
G1 X249.5248
G1 X250.5379
G1 X251.177
G1 X251.4733
G1 X252.1013
G1 X252.4054
G1 X252.5769
G1 F300.0 Z-1.2
G1 F1600.0 X252.6871
G1 X252.7638
G1 X252.8174
G1 X253.1925
G3 X253.6925 Y165.0175 I0.0 J0.5
G1 Y165.5824
G1 Y171.4593
G3 X253.6913 Y171.4936 I-0.5 J0.0
G1 X253.681 Y171.6436
G3 X253.1822 Y172.1093 I-0.4988 J-0.0343
G1 X225.8195
G1 Y173.8553
G1 X253.1822
G3 X253.681 Y174.3211 I0.0 J0.5
G1 X253.6913 Y174.4711
G3 X253.6925 Y174.5053 I-0.4988 J0.0343
G1 Y186.6142
G3 X253.6913 Y186.6485 I-0.5 J0.0
G1 X253.681 Y186.7985
G3 X253.1822 Y187.2642 I-0.4988 J-0.0343
G1 X225.8195
G1 Y189.0102
G1 X229.1822
G3 X229.681 Y189.476 I0.0 J0.5
G1 X229.6913 Y189.626
G3 X229.6925 Y189.6602 I-0.4988 J0.0343
G1 Y202.6773
G3 X229.6913 Y202.7116 I-0.5 J0.0
G1 X229.681 Y202.8616
G3 X229.1822 Y203.3273 I-0.4988 J-0.0343
G1 X209.8195
G1 Y205.0733
G1 X229.1822
G3 X229.681 Y205.5391 I0.0 J0.5
G1 X229.6913 Y205.6891
G3 X229.6925 Y205.7233 I-0.4988 J0.0343
G1 Y208.0175
G3 X229.1925 Y208.5175 I-0.5 J0.0
G1 X228.8768
G1 X228.7278
G1 X228.7086
G1 X228.0708
G1 X228.0123
G1 X225.6624
G1 X225.4187
G1 X224.844
G1 X223.8731
G1 X222.5162
G1 X220.9581
G1 X219.5901
G1 X205.6652
G1 X204.3327
G1 X203.2286
G1 X201.915
G1 X197.1925
G1 X193.216
G1 X189.1925
G3 X188.6925 Y208.0175 I0.0 J-0.5
G1 Y203.994
G1 Y200.0175
G3 X189.1925 Y199.5175 I0.5 J0.0
G1 X192.1749
G1 X195.1925
G3 X195.6925 Y200.0175 I0.0 J0.5
G1 Y202.0293
G1 Y203.5175
G1 X196.1866
G1 X196.6925
G1 Y201.9518
G1 Y199.728
G1 Y199.609
G1 Y199.3802
G1 Y199.3464
G1 Y199.261
G1 Y199.0175
G1 Y197.6908
G1 Y197.5993
G1 Y197.1018
G1 Y196.905
G1 Y195.5722
G1 Y194.8788
G1 Y181.9253
G1 Y170.3925
G1 X193.216
G1 X189.1925
G3 X188.6925 Y169.8925 I0.0 J-0.5
G1 Y165.869
G1 Y161.8925
G3 X189.1925 Y161.3925 I0.5 J0.0
G1 X192.1749
G1 X195.1925
G3 X195.6925 Y161.8925 I0.0 J0.5
G1 Y163.9042
G1 Y165.3925
G1 X196.1866
G1 X196.6925
G1 Y163.8268
G1 Y161.603
G1 Y161.484
G1 Y161.2552
G1 Y161.2214
G1 Y161.136
G1 Y160.8925
G1 Y160.5895
G1 Y148.0175
G3 X197.1925 Y147.5175 I0.5 J0.0
G1 X201.0983
G1 X201.1925
G3 X201.6925 Y148.0175 I0.0 J0.5
G1 Y148.4176
G1 Y164.5175
G1 X201.7035
G1 X201.7395
G1 X202.9117
G1 X203.208
G1 X203.8471
G1 X204.8602
G1 X206.1445
G1 X207.4058
G1 X208.2761
G1 X231.8284
G1 X246.1089
G1 X246.9792
G1 X248.2405
G1 X249.5248
G1 X250.5379
G1 X251.177
G1 X251.4733
G1 X252.1013
G1 X252.4054
G1 X252.5769
G1 F300.0 Z-1.8
G1 F1600.0 X252.6871
G1 X252.7638
G1 X252.8174
G1 X253.1925
G3 X253.6925 Y165.0175 I0.0 J0.5
G1 Y165.5824
G1 Y171.4593
G3 X253.6913 Y171.4936 I-0.5 J0.0
G1 X253.681 Y171.6436
G3 X253.1822 Y172.1093 I-0.4988 J-0.0343
G1 X225.8195
G1 Y173.8553
G1 X253.1822
G3 X253.681 Y174.3211 I0.0 J0.5
G1 X253.6913 Y174.4711
G3 X253.6925 Y174.5053 I-0.4988 J0.0343
G1 Y186.6142
G3 X253.6913 Y186.6485 I-0.5 J0.0
G1 X253.681 Y186.7985
G3 X253.1822 Y187.2642 I-0.4988 J-0.0343
G1 X225.8195
G1 Y189.0102
G1 X229.1822
G3 X229.681 Y189.476 I0.0 J0.5
G1 X229.6913 Y189.626
G3 X229.6925 Y189.6602 I-0.4988 J0.0343
G1 Y202.6773
G3 X229.6913 Y202.7116 I-0.5 J0.0
G1 X229.681 Y202.8616
G3 X229.1822 Y203.3273 I-0.4988 J-0.0343
G1 X209.8195
G1 Y205.0733
G1 X229.1822
G3 X229.681 Y205.5391 I0.0 J0.5
G1 X229.6913 Y205.6891
G3 X229.6925 Y205.7233 I-0.4988 J0.0343
G1 Y208.0175
G3 X229.1925 Y208.5175 I-0.5 J0.0
G1 X228.8768
G1 X228.7278
G1 X228.7086
G1 X228.0708
G1 X228.0123
G1 X225.6624
G1 X225.4187
G1 X224.844
G1 X223.8731
G1 X222.5162
G1 X220.9581
G1 X219.5901
G1 X205.6652
G1 X204.3327
G1 X203.2286
G1 X201.915
G1 X197.1925
G1 X193.216
G1 X189.1925
G3 X188.6925 Y208.0175 I0.0 J-0.5
G1 Y203.994
G1 Y200.0175
G3 X189.1925 Y199.5175 I0.5 J0.0
G1 X192.1749
G1 X195.1925
G3 X195.6925 Y200.0175 I0.0 J0.5
G1 Y202.0293
G1 Y203.5175
G1 X196.1866
G1 X196.6925
G1 Y201.9518
G1 Y199.728
G1 Y199.609
G1 Y199.3802
G1 Y199.3464
G1 Y199.261
G1 Y199.0175
G1 Y197.6908
G1 Y197.5993
G1 Y197.1018
G1 Y196.905
G1 Y195.5722
G1 Y194.8788
G1 Y181.9253
G1 Y170.3925
G1 X193.216
G1 X189.1925
G3 X188.6925 Y169.8925 I0.0 J-0.5
G1 Y165.869
G1 Y161.8925
G3 X189.1925 Y161.3925 I0.5 J0.0
G1 X192.1749
G1 X195.1925
G3 X195.6925 Y161.8925 I0.0 J0.5
G1 Y163.9042
G1 Y165.3925
G1 X196.1866
G1 X196.6925
G1 Y163.8268
G1 Y161.603
G1 Y161.484
G1 Y161.2552
G1 Y161.2214
G1 Y161.136
G1 Y160.8925
G1 Y160.5895
G1 Y148.0175
G3 X197.1925 Y147.5175 I0.5 J0.0
G1 X201.0983
G1 X201.1925
G3 X201.6925 Y148.0175 I0.0 J0.5
G1 Y148.4176
G1 Y164.5175
G1 X201.7035
G1 X201.7395
G1 X202.9117
G1 X203.208
G1 X203.8471
G1 X204.8602
G1 X206.1445
G1 X207.4058
G1 X208.2761
G1 X231.8284
G1 X246.1089
G1 X246.9792
G1 X248.2405
G1 X249.5248
G1 X250.5379
G1 X251.177
G1 X251.4733
G1 X252.1013
G1 X252.4054
G1 X252.5769
G1 F300.0 Z-2.4
G1 F1600.0 X252.6871
G1 X252.7638
G1 X252.8174
G1 X253.1925
G3 X253.6925 Y165.0175 I0.0 J0.5
G1 Y165.5
G1 Y165.5824 Z-2.3671
G1 Y166.5 Z-2.0
G1 Y167.5
G1 Y168.5 Z-2.4
G1 Y171.4593
G3 X253.6913 Y171.4936 I-0.5 J0.0
G1 X253.681 Y171.6436
G3 X253.1822 Y172.1093 I-0.4988 J-0.0343
G1 X225.8195
G1 Y173.8553
G1 X253.1822
G3 X253.681 Y174.3211 I0.0 J0.5
G1 X253.6913 Y174.4711
G3 X253.6925 Y174.5053 I-0.4988 J0.0343
G1 Y180.5
G1 Y181.5 Z-2.0
G1 Y182.5
G1 Y183.5 Z-2.4
G1 Y186.6142
G3 X253.6913 Y186.6485 I-0.5 J0.0
G1 X253.681 Y186.7985
G3 X253.1822 Y187.2642 I-0.4988 J-0.0343
G1 X225.8195
G1 Y189.0102
G1 X229.1822
G3 X229.681 Y189.476 I0.0 J0.5
G1 X229.6913 Y189.626
G3 X229.6925 Y189.6602 I-0.4988 J0.0343
G1 Y202.6773
G3 X229.6913 Y202.7116 I-0.5 J0.0
G1 X229.681 Y202.8616
G3 X229.1822 Y203.3273 I-0.4988 J-0.0343
G1 X209.8195
G1 Y205.0733
G1 X229.1822
G3 X229.681 Y205.5391 I0.0 J0.5
G1 X229.6913 Y205.6891
G3 X229.6925 Y205.7233 I-0.4988 J0.0343
G1 Y208.0175
G3 X229.1925 Y208.5175 I-0.5 J0.0
G1 X228.8768
G1 X228.7278
G1 X228.7086
G1 X228.0708
G1 X228.0123
G1 X225.6624
G1 X225.4187
G1 X224.844
G1 X223.8731
G1 X222.5162
G1 X221.0901
G1 X220.9581 Z-2.3472
G1 X220.0901 Z-2.0
G1 X219.5901
G1 X219.0901
G1 X218.0901 Z-2.4
G1 X205.6652
G1 X204.3327
G1 X203.2286
G1 X201.915
G1 X197.1925
G1 X193.216
G1 X189.1925
G3 X188.6925 Y208.0175 I0.0 J-0.5
G1 Y204.5
G1 Y203.994 Z-2.1976
G1 Y203.5 Z-2.0
G1 Y202.5
G1 Y201.5 Z-2.4
G1 Y200.0175
G3 X189.1925 Y199.5175 I0.5 J0.0
G1 X192.1749
G1 X195.1925
G3 X195.6925 Y200.0175 I0.0 J0.5
G1 Y202.0293
G1 Y203.5175
G1 X196.1866
G1 X196.6925
G1 Y201.9518
G1 Y199.728
G1 Y199.609
G1 Y199.3802
G1 Y199.3464
G1 Y199.261
G1 Y199.0175
G1 Y197.6908
G1 Y197.5993
G1 Y197.1018
G1 Y196.905
G1 Y195.5722
G1 Y194.8788
G1 Y181.9253
G1 Y170.3925
G1 X193.216
G1 X189.1925
G3 X188.6925 Y169.8925 I0.0 J-0.5
G1 Y167.369
G1 Y166.369 Z-2.0
G1 Y165.869
G1 Y165.369
G1 Y164.369 Z-2.4
G1 Y161.8925
G3 X189.1925 Y161.3925 I0.5 J0.0
G1 X192.1749
G1 X195.1925
G3 X195.6925 Y161.8925 I0.0 J0.5
G1 Y163.9042
G1 Y165.3925
G1 X196.1866
G1 X196.6925
G1 Y163.8268
G1 Y161.603
G1 Y161.484
G1 Y161.2552
G1 Y161.2214
G1 Y161.136
G1 Y160.8925
G1 Y160.5895
G1 Y148.0175
G3 X197.1925 Y147.5175 I0.5 J0.0
G1 X201.0983
G1 X201.1925
G3 X201.6925 Y148.0175 I0.0 J0.5
G1 Y148.4176
G1 Y164.5175
G1 X201.7035
G1 X201.7395
G1 X202.9117
G1 X203.208
G1 X203.8471
G1 X204.8602
G1 X206.1445
G1 X207.4058
G1 X208.2761
G1 X219.1454
G1 X220.1454 Z-2.0
G1 X221.1454
G1 X222.1454 Z-2.4
G1 X231.8284
G1 X246.1089
G1 X246.9792
G1 X248.2405
G1 X249.5248
G1 X250.5379
G1 X251.177
G1 X251.4733
G1 X252.1013
G1 X252.4054
G1 X252.5769
G1 F300.0 Z-3.0
G1 F1600.0 X252.6871
G1 X252.7638
G1 X252.8174
G1 X253.1925
G3 X253.6925 Y165.0175 I0.0 J0.5
G1 Y165.5
G1 Y165.5824 Z-2.9176
G1 Y166.5 Z-2.0
G1 Y167.5
G1 Y168.5 Z-3.0
G1 Y171.4593
G3 X253.6913 Y171.4936 I-0.5 J0.0
G1 X253.681 Y171.6436
G3 X253.1822 Y172.1093 I-0.4988 J-0.0343
G1 X225.8195
G1 Y173.8553
G1 X253.1822
G3 X253.681 Y174.3211 I0.0 J0.5
G1 X253.6913 Y174.4711
G3 X253.6925 Y174.5053 I-0.4988 J0.0343
G1 Y180.5
G1 Y181.5 Z-2.0
G1 Y182.5
G1 Y183.5 Z-3.0
G1 Y186.6142
G3 X253.6913 Y186.6485 I-0.5 J0.0
G1 X253.681 Y186.7985
G3 X253.1822 Y187.2642 I-0.4988 J-0.0343
G1 X225.8195
G1 Y189.0102
G1 X229.1822
G3 X229.681 Y189.476 I0.0 J0.5
G1 X229.6913 Y189.626
G3 X229.6925 Y189.6602 I-0.4988 J0.0343
G1 Y202.6773
G3 X229.6913 Y202.7116 I-0.5 J0.0
G1 X229.681 Y202.8616
G3 X229.1822 Y203.3273 I-0.4988 J-0.0343
G1 X209.8195
G1 Y205.0733
G1 X229.1822
G3 X229.681 Y205.5391 I0.0 J0.5
G1 X229.6913 Y205.6891
G3 X229.6925 Y205.7233 I-0.4988 J0.0343
G1 Y208.0175
G3 X229.1925 Y208.5175 I-0.5 J0.0
G1 X228.8768
G1 X228.7278
G1 X228.7086
G1 X228.0708
G1 X228.0123
G1 X225.6624
G1 X225.4187
G1 X224.844
G1 X223.8731
G1 X222.5162
G1 X221.0901
G1 X220.9581 Z-2.8681
G1 X220.0901 Z-2.0
G1 X219.5901
G1 X219.0901
G1 X218.0901 Z-3.0
G1 X205.6652
G1 X204.3327
G1 X203.2286
G1 X201.915
G1 X197.1925
G1 X193.216
G1 X189.1925
G3 X188.6925 Y208.0175 I0.0 J-0.5
G1 Y204.5
G1 Y203.994 Z-2.494
G1 Y203.5 Z-2.0
G1 Y202.5
G1 Y201.5 Z-3.0
G1 Y200.0175
G3 X189.1925 Y199.5175 I0.5 J0.0
G1 X192.1749
G1 X195.1925
G3 X195.6925 Y200.0175 I0.0 J0.5
G1 Y202.0293
G1 Y203.5175
G1 X196.1866
G1 X196.6925
G1 Y201.9518
G1 Y199.728
G1 Y199.609
G1 Y199.3802
G1 Y199.3464
G1 Y199.261
G1 Y199.0175
G1 Y197.6908
G1 Y197.5993
G1 Y197.1018
G1 Y196.905
G1 Y195.5722
G1 Y194.8788
G1 Y181.9253
G1 Y170.3925
G1 X193.216
G1 X189.1925
G3 X188.6925 Y169.8925 I0.0 J-0.5
G1 Y167.369
G1 Y166.369 Z-2.0
G1 Y165.869
G1 Y165.369
G1 Y164.369 Z-3.0
G1 Y161.8925
G3 X189.1925 Y161.3925 I0.5 J0.0
G1 X192.1749
G1 X195.1925
G3 X195.6925 Y161.8925 I0.0 J0.5
G1 Y163.9042
G1 Y165.3925
G1 X196.1866
G1 X196.6925
G1 Y163.8268
G1 Y161.603
G1 Y161.484
G1 Y161.2552
G1 Y161.2214
G1 Y161.136
G1 Y160.8925
G1 Y160.5895
G1 Y148.0175
G3 X197.1925 Y147.5175 I0.5 J0.0
G1 X201.0983
G1 X201.1925
G3 X201.6925 Y148.0175 I0.0 J0.5
G1 Y148.4176
G1 Y164.5175
G1 X201.7035
G1 X201.7395
G1 X202.9117
G1 X203.208
G1 X203.8471
G1 X204.8602
G1 X206.1445
G1 X207.4058
G1 X208.2761
G1 X219.1454
G1 X220.1454 Z-2.0
G1 X221.1454
G1 X222.1454 Z-3.0
G1 X231.8284
G1 X246.1089
G1 X246.9792
G1 X248.2405
G1 X249.5248
G1 X250.5379
G1 X251.177
G1 X251.4733
G1 X252.1013
G1 X252.4054
G1 X252.5769
G1 F300.0 Z-3.6
G1 F1600.0 X252.6871
G1 X252.7638
G1 X252.8174
G1 X253.1925
G3 X253.6925 Y165.0175 I0.0 J0.5
G1 Y165.5
G1 Y165.5824 Z-3.4682
G1 Y166.5 Z-2.0
G1 Y167.5
G1 Y168.5 Z-3.6
G1 Y171.4593
G3 X253.6913 Y171.4936 I-0.5 J0.0
G1 X253.681 Y171.6436
G3 X253.1822 Y172.1093 I-0.4988 J-0.0343
G1 X225.8195
G1 Y173.8553
G1 X253.1822
G3 X253.681 Y174.3211 I0.0 J0.5
G1 X253.6913 Y174.4711
G3 X253.6925 Y174.5053 I-0.4988 J0.0343
G1 Y180.5
G1 Y181.5 Z-2.0
G1 Y182.5
G1 Y183.5 Z-3.6
G1 Y186.6142
G3 X253.6913 Y186.6485 I-0.5 J0.0
G1 X253.681 Y186.7985
G3 X253.1822 Y187.2642 I-0.4988 J-0.0343
G1 X225.8195
G1 Y189.0102
G1 X229.1822
G3 X229.681 Y189.476 I0.0 J0.5
G1 X229.6913 Y189.626
G3 X229.6925 Y189.6602 I-0.4988 J0.0343
G1 Y202.6773
G3 X229.6913 Y202.7116 I-0.5 J0.0
G1 X229.681 Y202.8616
G3 X229.1822 Y203.3273 I-0.4988 J-0.0343
G1 X209.8195
G1 Y205.0733
G1 X229.1822
G3 X229.681 Y205.5391 I0.0 J0.5
G1 X229.6913 Y205.6891
G3 X229.6925 Y205.7233 I-0.4988 J0.0343
G1 Y208.0175
G3 X229.1925 Y208.5175 I-0.5 J0.0
G1 X228.8768
G1 X228.7278
G1 X228.7086
G1 X228.0708
G1 X228.0123
G1 X225.6624
G1 X225.4187
G1 X224.844
G1 X223.8731
G1 X222.5162
G1 X221.0901
G1 X220.9581 Z-3.3889
G1 X220.0901 Z-2.0
G1 X219.5901
G1 X219.0901
G1 X218.0901 Z-3.6
G1 X205.6652
G1 X204.3327
G1 X203.2286
G1 X201.915
G1 X197.1925
G1 X193.216
G1 X189.1925
G3 X188.6925 Y208.0175 I0.0 J-0.5
G1 Y204.5
G1 Y203.994 Z-2.7904
G1 Y203.5 Z-2.0
G1 Y202.5
G1 Y201.5 Z-3.6
G1 Y200.0175
G3 X189.1925 Y199.5175 I0.5 J0.0
G1 X192.1749
G1 X195.1925
G3 X195.6925 Y200.0175 I0.0 J0.5
G1 Y202.0293
G1 Y203.5175
G1 X196.1866
G1 X196.6925
G1 Y201.9518
G1 Y199.728
G1 Y199.609
G1 Y199.3802
G1 Y199.3464
G1 Y199.261
G1 Y199.0175
G1 Y197.6908
G1 Y197.5993
G1 Y197.1018
G1 Y196.905
G1 Y195.5722
G1 Y194.8788
G1 Y181.9253
G1 Y170.3925
G1 X193.216
G1 X189.1925
G3 X188.6925 Y169.8925 I0.0 J-0.5
G1 Y167.369
G1 Y166.369 Z-2.0
G1 Y165.869
G1 Y165.369
G1 Y164.369 Z-3.6
G1 Y161.8925
G3 X189.1925 Y161.3925 I0.5 J0.0
G1 X192.1749
G1 X195.1925
G3 X195.6925 Y161.8925 I0.0 J0.5
G1 Y163.9042
G1 Y165.3925
G1 X196.1866
G1 X196.6925
G1 Y163.8268
G1 Y161.603
G1 Y161.484
G1 Y161.2552
G1 Y161.2214
G1 Y161.136
G1 Y160.8925
G1 Y160.5895
G1 Y148.0175
G3 X197.1925 Y147.5175 I0.5 J0.0
G1 X201.0983
G1 X201.1925
G3 X201.6925 Y148.0175 I0.0 J0.5
G1 Y148.4176
G1 Y164.5175
G1 X201.7035
G1 X201.7395
G1 X202.9117
G1 X203.208
G1 X203.8471
G1 X204.8602
G1 X206.1445
G1 X207.4058
G1 X208.2761
G1 X219.1454
G1 X220.1454 Z-2.0
G1 X221.1454
G1 X222.1454 Z-3.6
G1 X231.8284
G1 X246.1089
G1 X246.9792
G1 X248.2405
G1 X249.5248
G1 X250.5379
G1 X251.177
G1 X251.4733
G1 X252.1013
G1 X252.4054
G1 X252.5769
G1 F300.0 Z-4.0
G1 F1600.0 X252.6871
G1 X252.7638
G1 X252.8174
G1 X253.1925
G3 X253.6925 Y165.0175 I0.0 J0.5
G1 Y165.5
G1 Y165.5824 Z-3.8353
G1 Y166.5 Z-2.0
G1 Y167.5
G1 Y168.5 Z-4.0
G1 Y171.4593
G3 X253.6913 Y171.4936 I-0.5 J0.0
G1 X253.681 Y171.6436
G3 X253.1822 Y172.1093 I-0.4988 J-0.0343
G1 X225.8195
G1 Y173.8553
G1 X253.1822
G3 X253.681 Y174.3211 I0.0 J0.5
G1 X253.6913 Y174.4711
G3 X253.6925 Y174.5053 I-0.4988 J0.0343
G1 Y180.5
G1 Y181.5 Z-2.0
G1 Y182.5
G1 Y183.5 Z-4.0
G1 Y186.6142
G3 X253.6913 Y186.6485 I-0.5 J0.0
G1 X253.681 Y186.7985
G3 X253.1822 Y187.2642 I-0.4988 J-0.0343
G1 X225.8195
G1 Y189.0102
G1 X229.1822
G3 X229.681 Y189.476 I0.0 J0.5
G1 X229.6913 Y189.626
G3 X229.6925 Y189.6602 I-0.4988 J0.0343
G1 Y202.6773
G3 X229.6913 Y202.7116 I-0.5 J0.0
G1 X229.681 Y202.8616
G3 X229.1822 Y203.3273 I-0.4988 J-0.0343
G1 X209.8195
G1 Y205.0733
G1 X229.1822
G3 X229.681 Y205.5391 I0.0 J0.5
G1 X229.6913 Y205.6891
G3 X229.6925 Y205.7233 I-0.4988 J0.0343
G1 Y208.0175
G3 X229.1925 Y208.5175 I-0.5 J0.0
G1 X228.8768
G1 X228.7278
G1 X228.7086
G1 X228.0708
G1 X228.0123
G1 X225.6624
G1 X225.4187
G1 X224.844
G1 X223.8731
G1 X222.5162
G1 X221.0901
G1 X220.9581 Z-3.7361
G1 X220.0901 Z-2.0
G1 X219.5901
G1 X219.0901
G1 X218.0901 Z-4.0
G1 X205.6652
G1 X204.3327
G1 X203.2286
G1 X201.915
G1 X197.1925
G1 X193.216
G1 X189.1925
G3 X188.6925 Y208.0175 I0.0 J-0.5
G1 Y204.5
G1 Y203.994 Z-2.988
G1 Y203.5 Z-2.0
G1 Y202.5
G1 Y201.5 Z-4.0
G1 Y200.0175
G3 X189.1925 Y199.5175 I0.5 J0.0
G1 X192.1749
G1 X195.1925
G3 X195.6925 Y200.0175 I0.0 J0.5
G1 Y202.0293
G1 Y203.5175
G1 X196.1866
G1 X196.6925
G1 Y201.9518
G1 Y199.728
G1 Y199.609
G1 Y199.3802
G1 Y199.3464
G1 Y199.261
G1 Y199.0175
G1 Y197.6908
G1 Y197.5993
G1 Y197.1018
G1 Y196.905
G1 Y195.5722
G1 Y194.8788
G1 Y181.9253
G1 Y170.3925
G1 X193.216
G1 X189.1925
G3 X188.6925 Y169.8925 I0.0 J-0.5
G1 Y167.369
G1 Y166.369 Z-2.0
G1 Y165.869
G1 Y165.369
G1 Y164.369 Z-4.0
G1 Y161.8925
G3 X189.1925 Y161.3925 I0.5 J0.0
G1 X192.1749
G1 X195.1925
G3 X195.6925 Y161.8925 I0.0 J0.5
G1 Y163.9042
G1 Y165.3925
G1 X196.1866
G1 X196.6925
G1 Y163.8268
G1 Y161.603
G1 Y161.484
G1 Y161.2552
G1 Y161.2214
G1 Y161.136
G1 Y160.8925
G1 Y160.5895
G1 Y148.0175
G3 X197.1925 Y147.5175 I0.5 J0.0
G1 X201.0983
G1 X201.1925
G3 X201.6925 Y148.0175 I0.0 J0.5
G1 Y148.4176
G1 Y164.5175
G1 X201.7035
G1 X201.7395
G1 X202.9117
G1 X203.208
G1 X203.8471
G1 X204.8602
G1 X206.1445
G1 X207.4058
G1 X208.2761
G1 X219.1454
G1 X220.1454 Z-2.0
G1 X221.1454
G1 X222.1454 Z-4.0
G1 X231.8284
G1 X246.1089
G1 X246.9792
G1 X248.2405
G1 X249.5248
G1 X250.5379
G1 X251.177
G1 X251.4733
G1 X252.1013
G1 X252.4054
G1 X252.5769
G0 Z3.0
G0 X261.8675
G0 Z1.0
G1 F300.0 Z-0.6
G1 F1600.0 Y161.8925
G3 X262.3675 Y161.3925 I0.5 J0.0
G1 X264.661
G1 X268.3675
G3 X268.8675 Y161.8925 I0.0 J0.5
G1 Y164.3635
G1 Y165.3925
G1 X269.132
G1 X269.8675
G1 Y164.4622
G1 Y160.8925
G1 Y156.4497
G1 Y148.0175
G3 X270.3675 Y147.5175 I0.5 J0.0
G1 X272.9872
G1 X274.3675
G3 X274.8675 Y148.0175 I0.0 J0.5
G1 Y153.8837
G1 Y164.5175
G1 X276.609
G1 X279.388
G1 X279.4228
G1 X281.3395
G1 X281.5468
G1 X281.658
G1 X282.3021
G1 X282.5923
G1 X283.621
G1 X284.0411
G1 X285.3485
G1 X285.8486
G1 X287.2828
G1 X287.8201
G1 X289.2075
G1 X289.7423
G1 X304.7151
G1 X305.8389
G1 X308.3426
G1 X309.1826
G1 X313.5997
G1 X314.023
G1 X315.3675
G1 X316.7119
G1 X317.1353
G1 X317.6359
G1 X317.8675
G1 X318.9575
G1 X320.0823
G1 X320.8679
G1 X326.3675
G3 X326.8675 Y165.0175 I0.0 J0.5
G1 Y171.4593
G3 X326.8663 Y171.4936 I-0.5 J0.0
G1 X326.856 Y171.6436
G3 X326.3572 Y172.1093 I-0.4988 J-0.0343
G1 X298.9945
G1 Y173.8553
G1 X326.3572
G3 X326.856 Y174.3211 I0.0 J0.5
G1 X326.8663 Y174.4711
G3 X326.8675 Y174.5053 I-0.4988 J0.0343
G1 Y186.6142
G3 X326.8663 Y186.6485 I-0.5 J0.0
G1 X326.856 Y186.7985
G3 X326.3572 Y187.2642 I-0.4988 J-0.0343
G1 X298.9945
G1 Y189.0102
G1 X302.3572
G3 X302.856 Y189.476 I0.0 J0.5
G1 X302.8663 Y189.626
G3 X302.8675 Y189.6602 I-0.4988 J0.0343
G1 Y195.5739
G1 Y202.6773
G3 X302.8663 Y202.7116 I-0.5 J0.0
G1 X302.856 Y202.8616
G3 X302.3572 Y203.3273 I-0.4988 J-0.0343
G1 X282.9945
G1 Y205.0733
G1 X302.3572
G3 X302.856 Y205.5391 I0.0 J0.5
G1 X302.8663 Y205.6891
G3 X302.8675 Y205.7233 I-0.4988 J0.0343
G1 Y208.0175
G3 X302.3675 Y208.5175 I-0.5 J0.0
G1 X297.7385
G1 X295.5545
G1 X295.2727
G1 X293.2832
G1 X293.0762
G1 X292.6313
G1 X292.2553
G1 X291.4065
G1 X290.9217
G1 X289.7423
G1 X289.2075
G1 X287.8201
G1 X277.145
G1 X276.2654
G1 X270.3675
G1 X267.3095
G1 X262.3675
G3 X261.8675 Y208.0175 I0.0 J-0.5
G1 Y203.0755
G1 Y200.0175
G3 X262.3675 Y199.5175 I0.5 J0.0
G1 X264.661
G1 X268.3675
G3 X268.8675 Y200.0175 I0.0 J0.5
G1 Y202.4885
G1 Y203.5175
G1 X269.132
G1 X269.8675
G1 Y202.5872
G1 Y199.0175
G1 Y179.5655
G1 Y178.224
G1 Y170.9297
G1 Y170.3925
G1 X267.3095
G1 X262.3675
G3 X261.8675 Y169.8925 I0.0 J-0.5
G1 Y164.9505
G1 Y164.5175
G1 F300.0 Z-1.2
G1 F1600.0 Y161.8925
G3 X262.3675 Y161.3925 I0.5 J0.0
G1 X264.661
G1 X268.3675
G3 X268.8675 Y161.8925 I0.0 J0.5
G1 Y164.3635
G1 Y165.3925
G1 X269.132
G1 X269.8675
G1 Y164.4622
G1 Y160.8925
G1 Y156.4497
G1 Y148.0175
G3 X270.3675 Y147.5175 I0.5 J0.0
G1 X272.9872
G1 X274.3675
G3 X274.8675 Y148.0175 I0.0 J0.5
G1 Y153.8837
G1 Y164.5175
G1 X276.609
G1 X279.388
G1 X279.4228
G1 X281.3395
G1 X281.5468
G1 X281.658
G1 X282.3021
G1 X282.5923
G1 X283.621
G1 X284.0411
G1 X285.3485
G1 X285.8486
G1 X287.2828
G1 X287.8201
G1 X289.2075
G1 X289.7423
G1 X304.7151
G1 X305.8389
G1 X308.3426
G1 X309.1826
G1 X313.5997
G1 X314.023
G1 X315.3675
G1 X316.7119
G1 X317.1353
G1 X317.6359
G1 X317.8675
G1 X318.9575
G1 X320.0823
G1 X320.8679
G1 X326.3675
G3 X326.8675 Y165.0175 I0.0 J0.5
G1 Y171.4593
G3 X326.8663 Y171.4936 I-0.5 J0.0
G1 X326.856 Y171.6436
G3 X326.3572 Y172.1093 I-0.4988 J-0.0343
G1 X298.9945
G1 Y173.8553
G1 X326.3572
G3 X326.856 Y174.3211 I0.0 J0.5
G1 X326.8663 Y174.4711
G3 X326.8675 Y174.5053 I-0.4988 J0.0343
G1 Y186.6142
G3 X326.8663 Y186.6485 I-0.5 J0.0
G1 X326.856 Y186.7985
G3 X326.3572 Y187.2642 I-0.4988 J-0.0343
G1 X298.9945
G1 Y189.0102
G1 X302.3572
G3 X302.856 Y189.476 I0.0 J0.5
G1 X302.8663 Y189.626
G3 X302.8675 Y189.6602 I-0.4988 J0.0343
G1 Y195.5739
G1 Y202.6773
G3 X302.8663 Y202.7116 I-0.5 J0.0
G1 X302.856 Y202.8616
G3 X302.3572 Y203.3273 I-0.4988 J-0.0343
G1 X282.9945
G1 Y205.0733
G1 X302.3572
G3 X302.856 Y205.5391 I0.0 J0.5
G1 X302.8663 Y205.6891
G3 X302.8675 Y205.7233 I-0.4988 J0.0343
G1 Y208.0175
G3 X302.3675 Y208.5175 I-0.5 J0.0
G1 X297.7385
G1 X295.5545
G1 X295.2727
G1 X293.2832
G1 X293.0762
G1 X292.6313
G1 X292.2553
G1 X291.4065
G1 X290.9217
G1 X289.7423
G1 X289.2075
G1 X287.8201
G1 X277.145
G1 X276.2654
G1 X270.3675
G1 X267.3095
G1 X262.3675
G3 X261.8675 Y208.0175 I0.0 J-0.5
G1 Y203.0755
G1 Y200.0175
G3 X262.3675 Y199.5175 I0.5 J0.0
G1 X264.661
G1 X268.3675
G3 X268.8675 Y200.0175 I0.0 J0.5
G1 Y202.4885
G1 Y203.5175
G1 X269.132
G1 X269.8675
G1 Y202.5872
G1 Y199.0175
G1 Y179.5655
G1 Y178.224
G1 Y170.9297
G1 Y170.3925
G1 X267.3095
G1 X262.3675
G3 X261.8675 Y169.8925 I0.0 J-0.5
G1 Y164.9505
G1 Y164.5175
G1 F300.0 Z-1.8
G1 F1600.0 Y161.8925
G3 X262.3675 Y161.3925 I0.5 J0.0
G1 X264.661
G1 X268.3675
G3 X268.8675 Y161.8925 I0.0 J0.5
G1 Y164.3635
G1 Y165.3925
G1 X269.132
G1 X269.8675
G1 Y164.4622
G1 Y160.8925
G1 Y156.4497
G1 Y148.0175
G3 X270.3675 Y147.5175 I0.5 J0.0
G1 X272.9872
G1 X274.3675
G3 X274.8675 Y148.0175 I0.0 J0.5
G1 Y153.8837
G1 Y164.5175
G1 X276.609
G1 X279.388
G1 X279.4228
G1 X281.3395
G1 X281.5468
G1 X281.658
G1 X282.3021
G1 X282.5923
G1 X283.621
G1 X284.0411
G1 X285.3485
G1 X285.8486
G1 X287.2828
G1 X287.8201
G1 X289.2075
G1 X289.7423
G1 X304.7151
G1 X305.8389
G1 X308.3426
G1 X309.1826
G1 X313.5997
G1 X314.023
G1 X315.3675
G1 X316.7119
G1 X317.1353
G1 X317.6359
G1 X317.8675
G1 X318.9575
G1 X320.0823
G1 X320.8679
G1 X326.3675
G3 X326.8675 Y165.0175 I0.0 J0.5
G1 Y171.4593
G3 X326.8663 Y171.4936 I-0.5 J0.0
G1 X326.856 Y171.6436
G3 X326.3572 Y172.1093 I-0.4988 J-0.0343
G1 X298.9945
G1 Y173.8553
G1 X326.3572
G3 X326.856 Y174.3211 I0.0 J0.5
G1 X326.8663 Y174.4711
G3 X326.8675 Y174.5053 I-0.4988 J0.0343
G1 Y186.6142
G3 X326.8663 Y186.6485 I-0.5 J0.0
G1 X326.856 Y186.7985
G3 X326.3572 Y187.2642 I-0.4988 J-0.0343
G1 X298.9945
G1 Y189.0102
G1 X302.3572
G3 X302.856 Y189.476 I0.0 J0.5
G1 X302.8663 Y189.626
G3 X302.8675 Y189.6602 I-0.4988 J0.0343
G1 Y195.5739
G1 Y202.6773
G3 X302.8663 Y202.7116 I-0.5 J0.0
G1 X302.856 Y202.8616
G3 X302.3572 Y203.3273 I-0.4988 J-0.0343
G1 X282.9945
G1 Y205.0733
G1 X302.3572
G3 X302.856 Y205.5391 I0.0 J0.5
G1 X302.8663 Y205.6891
G3 X302.8675 Y205.7233 I-0.4988 J0.0343
G1 Y208.0175
G3 X302.3675 Y208.5175 I-0.5 J0.0
G1 X297.7385
G1 X295.5545
G1 X295.2727
G1 X293.2832
G1 X293.0762
G1 X292.6313
G1 X292.2553
G1 X291.4065
G1 X290.9217
G1 X289.7423
G1 X289.2075
G1 X287.8201
G1 X277.145
G1 X276.2654
G1 X270.3675
G1 X267.3095
G1 X262.3675
G3 X261.8675 Y208.0175 I0.0 J-0.5
G1 Y203.0755
G1 Y200.0175
G3 X262.3675 Y199.5175 I0.5 J0.0
G1 X264.661
G1 X268.3675
G3 X268.8675 Y200.0175 I0.0 J0.5
G1 Y202.4885
G1 Y203.5175
G1 X269.132
G1 X269.8675
G1 Y202.5872
G1 Y199.0175
G1 Y179.5655
G1 Y178.224
G1 Y170.9297
G1 Y170.3925
G1 X267.3095
G1 X262.3675
G3 X261.8675 Y169.8925 I0.0 J-0.5
G1 Y164.9505
G1 Y164.5175
G1 F300.0 Z-2.393
G1 F1600.0 Y164.5 Z-2.4
G1 Y161.8925
G3 X262.3675 Y161.3925 I0.5 J0.0
G1 X264.661
G1 X268.3675
G3 X268.8675 Y161.8925 I0.0 J0.5
G1 Y164.3635
G1 Y165.3925
G1 X269.132
G1 X269.8675
G1 Y164.4622
G1 Y160.8925
G1 Y156.4497
G1 Y148.0175
G3 X270.3675 Y147.5175 I0.5 J0.0
G1 X272.9872
G1 X274.3675
G3 X274.8675 Y148.0175 I0.0 J0.5
G1 Y153.8837
G1 Y164.5175
G1 X276.609
G1 X279.388
G1 X279.4228
G1 X281.3395
G1 X281.5468
G1 X281.658
G1 X282.3021
G1 X282.5923
G1 X283.621
G1 X284.0411
G1 X285.3485
G1 X285.8486
G1 X287.2828
G1 X287.8201
G1 X289.2075
G1 X289.7423
G1 X293.6652
G1 X294.6652 Z-2.0
G1 X295.6652
G1 X296.6652 Z-2.4
G1 X304.7151
G1 X305.8389
G1 X308.3426
G1 X309.1826
G1 X313.5997
G1 X314.023
G1 X315.3675
G1 X316.7119
G1 X317.1353
G1 X317.6359
G1 X317.8675
G1 X318.9575
G1 X320.0823
G1 X320.8679
G1 X326.3675
G3 X326.8675 Y165.0175 I0.0 J0.5
G1 Y166.5
G1 Y167.5 Z-2.0
G1 Y168.5
G1 Y169.5 Z-2.4
G1 Y171.4593
G3 X326.8663 Y171.4936 I-0.5 J0.0
G1 X326.856 Y171.6436
G3 X326.3572 Y172.1093 I-0.4988 J-0.0343
G1 X298.9945
G1 Y173.8553
G1 X326.3572
G3 X326.856 Y174.3211 I0.0 J0.5
G1 X326.8663 Y174.4711
G3 X326.8675 Y174.5053 I-0.4988 J0.0343
G1 Y180.5
G1 Y181.5 Z-2.0
G1 Y182.5
G1 Y183.5 Z-2.4
G1 Y186.6142
G3 X326.8663 Y186.6485 I-0.5 J0.0
G1 X326.856 Y186.7985
G3 X326.3572 Y187.2642 I-0.4988 J-0.0343
G1 X298.9945
G1 Y189.0102
G1 X302.3572
G3 X302.856 Y189.476 I0.0 J0.5
G1 X302.8663 Y189.626
G3 X302.8675 Y189.6602 I-0.4988 J0.0343
G1 Y195.5739
G1 Y202.6773
G3 X302.8663 Y202.7116 I-0.5 J0.0
G1 X302.856 Y202.8616
G3 X302.3572 Y203.3273 I-0.4988 J-0.0343
G1 X282.9945
G1 Y205.0733
G1 X302.3572
G3 X302.856 Y205.5391 I0.0 J0.5
G1 X302.8663 Y205.6891
G3 X302.8675 Y205.7233 I-0.4988 J0.0343
G1 Y208.0175
G3 X302.3675 Y208.5175 I-0.5 J0.0
G1 X297.7385
G1 X295.5545
G1 X295.5
G1 X295.2727 Z-2.3091
G1 X294.5 Z-2.0
G1 X293.5
G1 X293.2832 Z-2.0867
G1 X293.0762 Z-2.1695
G1 X292.6313 Z-2.3475
G1 X292.5 Z-2.4
G1 X292.2553
G1 X291.4065
G1 X290.9217
G1 X289.7423
G1 X289.2075
G1 X287.8201
G1 X277.145
G1 X276.2654
G1 X270.3675
G1 X267.3095
G1 X262.3675
G3 X261.8675 Y208.0175 I0.0 J-0.5
G1 Y205.5
G1 Y204.5 Z-2.0
G1 Y203.5
G1 Y203.0755 Z-2.1698
G1 Y202.5 Z-2.4
G1 Y200.0175
G3 X262.3675 Y199.5175 I0.5 J0.0
G1 X264.661
G1 X268.3675
G3 X268.8675 Y200.0175 I0.0 J0.5
G1 Y202.4885
G1 Y203.5175
G1 X269.132
G1 X269.8675
G1 Y202.5872
G1 Y199.0175
G1 Y179.5655
G1 Y178.224
G1 Y170.9297
G1 Y170.3925
G1 X267.3095
G1 X262.3675
G3 X261.8675 Y169.8925 I0.0 J-0.5
G1 Y167.5
G1 Y166.5 Z-2.0
G1 Y165.5
G1 Y164.9505 Z-2.2198
G1 Y164.5175 Z-2.393
G1 F300.0 Z-2.9825
G1 F1600.0 Y164.5 Z-3.0
G1 Y161.8925
G3 X262.3675 Y161.3925 I0.5 J0.0
G1 X264.661
G1 X268.3675
G3 X268.8675 Y161.8925 I0.0 J0.5
G1 Y164.3635
G1 Y165.3925
G1 X269.132
G1 X269.8675
G1 Y164.4622
G1 Y160.8925
G1 Y156.4497
G1 Y148.0175
G3 X270.3675 Y147.5175 I0.5 J0.0
G1 X272.9872
G1 X274.3675
G3 X274.8675 Y148.0175 I0.0 J0.5
G1 Y153.8837
G1 Y164.5175
G1 X276.609
G1 X279.388
G1 X279.4228
G1 X281.3395
G1 X281.5468
G1 X281.658
G1 X282.3021
G1 X282.5923
G1 X283.621
G1 X284.0411
G1 X285.3485
G1 X285.8486
G1 X287.2828
G1 X287.8201
G1 X289.2075
G1 X289.7423
G1 X293.6652
G1 X294.6652 Z-2.0
G1 X295.6652
G1 X296.6652 Z-3.0
G1 X304.7151
G1 X305.8389
G1 X308.3426
G1 X309.1826
G1 X313.5997
G1 X314.023
G1 X315.3675
G1 X316.7119
G1 X317.1353
G1 X317.6359
G1 X317.8675
G1 X318.9575
G1 X320.0823
G1 X320.8679
G1 X326.3675
G3 X326.8675 Y165.0175 I0.0 J0.5
G1 Y166.5
G1 Y167.5 Z-2.0
G1 Y168.5
G1 Y169.5 Z-3.0
G1 Y171.4593
G3 X326.8663 Y171.4936 I-0.5 J0.0
G1 X326.856 Y171.6436
G3 X326.3572 Y172.1093 I-0.4988 J-0.0343
G1 X298.9945
G1 Y173.8553
G1 X326.3572
G3 X326.856 Y174.3211 I0.0 J0.5
G1 X326.8663 Y174.4711
G3 X326.8675 Y174.5053 I-0.4988 J0.0343
G1 Y180.5
G1 Y181.5 Z-2.0
G1 Y182.5
G1 Y183.5 Z-3.0
G1 Y186.6142
G3 X326.8663 Y186.6485 I-0.5 J0.0
G1 X326.856 Y186.7985
G3 X326.3572 Y187.2642 I-0.4988 J-0.0343
G1 X298.9945
G1 Y189.0102
G1 X302.3572
G3 X302.856 Y189.476 I0.0 J0.5
G1 X302.8663 Y189.626
G3 X302.8675 Y189.6602 I-0.4988 J0.0343
G1 Y195.5739
G1 Y202.6773
G3 X302.8663 Y202.7116 I-0.5 J0.0
G1 X302.856 Y202.8616
G3 X302.3572 Y203.3273 I-0.4988 J-0.0343
G1 X282.9945
G1 Y205.0733
G1 X302.3572
G3 X302.856 Y205.5391 I0.0 J0.5
G1 X302.8663 Y205.6891
G3 X302.8675 Y205.7233 I-0.4988 J0.0343
G1 Y208.0175
G3 X302.3675 Y208.5175 I-0.5 J0.0
G1 X297.7385
G1 X295.5545
G1 X295.5
G1 X295.2727 Z-2.7727
G1 X294.5 Z-2.0
G1 X293.5
G1 X293.2832 Z-2.2168
G1 X293.0762 Z-2.4238
G1 X292.6313 Z-2.8687
G1 X292.5 Z-3.0
G1 X292.2553
G1 X291.4065
G1 X290.9217
G1 X289.7423
G1 X289.2075
G1 X287.8201
G1 X277.145
G1 X276.2654
G1 X270.3675
G1 X267.3095
G1 X262.3675
G3 X261.8675 Y208.0175 I0.0 J-0.5
G1 Y205.5
G1 Y204.5 Z-2.0
G1 Y203.5
G1 Y203.0755 Z-2.4245
G1 Y202.5 Z-3.0
G1 Y200.0175
G3 X262.3675 Y199.5175 I0.5 J0.0
G1 X264.661
G1 X268.3675
G3 X268.8675 Y200.0175 I0.0 J0.5
G1 Y202.4885
G1 Y203.5175
G1 X269.132
G1 X269.8675
G1 Y202.5872
G1 Y199.0175
G1 Y179.5655
G1 Y178.224
G1 Y170.9297
G1 Y170.3925
G1 X267.3095
G1 X262.3675
G3 X261.8675 Y169.8925 I0.0 J-0.5
G1 Y167.5
G1 Y166.5 Z-2.0
G1 Y165.5
G1 Y164.9505 Z-2.5495
G1 Y164.5175 Z-2.9825
G1 F300.0 Z-3.572
G1 F1600.0 Y164.5 Z-3.6
G1 Y161.8925
G3 X262.3675 Y161.3925 I0.5 J0.0
G1 X264.661
G1 X268.3675
G3 X268.8675 Y161.8925 I0.0 J0.5
G1 Y164.3635
G1 Y165.3925
G1 X269.132
G1 X269.8675
G1 Y164.4622
G1 Y160.8925
G1 Y156.4497
G1 Y148.0175
G3 X270.3675 Y147.5175 I0.5 J0.0
G1 X272.9872
G1 X274.3675
G3 X274.8675 Y148.0175 I0.0 J0.5
G1 Y153.8837
G1 Y164.5175
G1 X276.609
G1 X279.388
G1 X279.4228
G1 X281.3395
G1 X281.5468
G1 X281.658
G1 X282.3021
G1 X282.5923
G1 X283.621
G1 X284.0411
G1 X285.3485
G1 X285.8486
G1 X287.2828
G1 X287.8201
G1 X289.2075
G1 X289.7423
G1 X293.6652
G1 X294.6652 Z-2.0
G1 X295.6652
G1 X296.6652 Z-3.6
G1 X304.7151
G1 X305.8389
G1 X308.3426
G1 X309.1826
G1 X313.5997
G1 X314.023
G1 X315.3675
G1 X316.7119
G1 X317.1353
G1 X317.6359
G1 X317.8675
G1 X318.9575
G1 X320.0823
G1 X320.8679
G1 X326.3675
G3 X326.8675 Y165.0175 I0.0 J0.5
G1 Y166.5
G1 Y167.5 Z-2.0
G1 Y168.5
G1 Y169.5 Z-3.6
G1 Y171.4593
G3 X326.8663 Y171.4936 I-0.5 J0.0
G1 X326.856 Y171.6436
G3 X326.3572 Y172.1093 I-0.4988 J-0.0343
G1 X298.9945
G1 Y173.8553
G1 X326.3572
G3 X326.856 Y174.3211 I0.0 J0.5
G1 X326.8663 Y174.4711
G3 X326.8675 Y174.5053 I-0.4988 J0.0343
G1 Y180.5
G1 Y181.5 Z-2.0
G1 Y182.5
G1 Y183.5 Z-3.6
G1 Y186.6142
G3 X326.8663 Y186.6485 I-0.5 J0.0
G1 X326.856 Y186.7985
G3 X326.3572 Y187.2642 I-0.4988 J-0.0343
G1 X298.9945
G1 Y189.0102
G1 X302.3572
G3 X302.856 Y189.476 I0.0 J0.5
G1 X302.8663 Y189.626
G3 X302.8675 Y189.6602 I-0.4988 J0.0343
G1 Y195.5739
G1 Y202.6773
G3 X302.8663 Y202.7116 I-0.5 J0.0
G1 X302.856 Y202.8616
G3 X302.3572 Y203.3273 I-0.4988 J-0.0343
G1 X282.9945
G1 Y205.0733
G1 X302.3572
G3 X302.856 Y205.5391 I0.0 J0.5
G1 X302.8663 Y205.6891
G3 X302.8675 Y205.7233 I-0.4988 J0.0343
G1 Y208.0175
G3 X302.3675 Y208.5175 I-0.5 J0.0
G1 X297.7385
G1 X295.5545
G1 X295.5
G1 X295.2727 Z-3.2364
G1 X294.5 Z-2.0
G1 X293.5
G1 X293.2832 Z-2.3469
G1 X293.0762 Z-2.678
G1 X292.6313 Z-3.3898
G1 X292.5 Z-3.6
G1 X292.2553
G1 X291.4065
G1 X290.9217
G1 X289.7423
G1 X289.2075
G1 X287.8201
G1 X277.145
G1 X276.2654
G1 X270.3675
G1 X267.3095
G1 X262.3675
G3 X261.8675 Y208.0175 I0.0 J-0.5
G1 Y205.5
G1 Y204.5 Z-2.0
G1 Y203.5
G1 Y203.0755 Z-2.6791
G1 Y202.5 Z-3.6
G1 Y200.0175
G3 X262.3675 Y199.5175 I0.5 J0.0
G1 X264.661
G1 X268.3675
G3 X268.8675 Y200.0175 I0.0 J0.5
G1 Y202.4885
G1 Y203.5175
G1 X269.132
G1 X269.8675
G1 Y202.5872
G1 Y199.0175
G1 Y179.5655
G1 Y178.224
G1 Y170.9297
G1 Y170.3925
G1 X267.3095
G1 X262.3675
G3 X261.8675 Y169.8925 I0.0 J-0.5
G1 Y167.5
G1 Y166.5 Z-2.0
G1 Y165.5
G1 Y164.9505 Z-2.8791
G1 Y164.5175 Z-3.572
G1 F300.0 Z-3.965
G1 F1600.0 Y164.5 Z-4.0
G1 Y161.8925
G3 X262.3675 Y161.3925 I0.5 J0.0
G1 X264.661
G1 X268.3675
G3 X268.8675 Y161.8925 I0.0 J0.5
G1 Y164.3635
G1 Y165.3925
G1 X269.132
G1 X269.8675
G1 Y164.4622
G1 Y160.8925
G1 Y156.4497
G1 Y148.0175
G3 X270.3675 Y147.5175 I0.5 J0.0
G1 X272.9872
G1 X274.3675
G3 X274.8675 Y148.0175 I0.0 J0.5
G1 Y153.8837
G1 Y164.5175
G1 X276.609
G1 X279.388
G1 X279.4228
G1 X281.3395
G1 X281.5468
G1 X281.658
G1 X282.3021
G1 X282.5923
G1 X283.621
G1 X284.0411
G1 X285.3485
G1 X285.8486
G1 X287.2828
G1 X287.8201
G1 X289.2075
G1 X289.7423
G1 X293.6652
G1 X294.6652 Z-2.0
G1 X295.6652
G1 X296.6652 Z-4.0
G1 X304.7151
G1 X305.8389
G1 X308.3426
G1 X309.1826
G1 X313.5997
G1 X314.023
G1 X315.3675
G1 X316.7119
G1 X317.1353
G1 X317.6359
G1 X317.8675
G1 X318.9575
G1 X320.0823
G1 X320.8679
G1 X326.3675
G3 X326.8675 Y165.0175 I0.0 J0.5
G1 Y166.5
G1 Y167.5 Z-2.0
G1 Y168.5
G1 Y169.5 Z-4.0
G1 Y171.4593
G3 X326.8663 Y171.4936 I-0.5 J0.0
G1 X326.856 Y171.6436
G3 X326.3572 Y172.1093 I-0.4988 J-0.0343
G1 X298.9945
G1 Y173.8553
G1 X326.3572
G3 X326.856 Y174.3211 I0.0 J0.5
G1 X326.8663 Y174.4711
G3 X326.8675 Y174.5053 I-0.4988 J0.0343
G1 Y180.5
G1 Y181.5 Z-2.0
G1 Y182.5
G1 Y183.5 Z-4.0
G1 Y186.6142
G3 X326.8663 Y186.6485 I-0.5 J0.0
G1 X326.856 Y186.7985
G3 X326.3572 Y187.2642 I-0.4988 J-0.0343
G1 X298.9945
G1 Y189.0102
G1 X302.3572
G3 X302.856 Y189.476 I0.0 J0.5
G1 X302.8663 Y189.626
G3 X302.8675 Y189.6602 I-0.4988 J0.0343
G1 Y195.5739
G1 Y202.6773
G3 X302.8663 Y202.7116 I-0.5 J0.0
G1 X302.856 Y202.8616
G3 X302.3572 Y203.3273 I-0.4988 J-0.0343
G1 X282.9945
G1 Y205.0733
G1 X302.3572
G3 X302.856 Y205.5391 I0.0 J0.5
G1 X302.8663 Y205.6891
G3 X302.8675 Y205.7233 I-0.4988 J0.0343
G1 Y208.0175
G3 X302.3675 Y208.5175 I-0.5 J0.0
G1 X297.7385
G1 X295.5545
G1 X295.5
G1 X295.2727 Z-3.5455
G1 X294.5 Z-2.0
G1 X293.5
G1 X293.2832 Z-2.4337
G1 X293.0762 Z-2.8475
G1 X292.6313 Z-3.7373
G1 X292.5 Z-4.0
G1 X292.2553
G1 X291.4065
G1 X290.9217
G1 X289.7423
G1 X289.2075
G1 X287.8201
G1 X277.145
G1 X276.2654
G1 X270.3675
G1 X267.3095
G1 X262.3675
G3 X261.8675 Y208.0175 I0.0 J-0.5
G1 Y205.5
G1 Y204.5 Z-2.0
G1 Y203.5
G1 Y203.0755 Z-2.8489
G1 Y202.5 Z-4.0
G1 Y200.0175
G3 X262.3675 Y199.5175 I0.5 J0.0
G1 X264.661
G1 X268.3675
G3 X268.8675 Y200.0175 I0.0 J0.5
G1 Y202.4885
G1 Y203.5175
G1 X269.132
G1 X269.8675
G1 Y202.5872
G1 Y199.0175
G1 Y179.5655
G1 Y178.224
G1 Y170.9297
G1 Y170.3925
G1 X267.3095
G1 X262.3675
G3 X261.8675 Y169.8925 I0.0 J-0.5
G1 Y167.5
G1 Y166.5 Z-2.0
G1 Y165.5
G1 Y164.9505 Z-3.0989
G1 Y164.5175 Z-3.965
G0 Z3.0
G0 X229.5856 Y139.1514
G0 Z1.0
G1 F300.0 Z-0.6
G3 F1600.0 X229.1925 Y139.3425 I-0.3931 J-0.3089
G1 X228.7294
G1 X228.0659
G1 X227.9735
G1 X225.6262
G1 X225.2322
G1 X224.4753
G1 X223.3174
G1 X221.8429
G1 X220.3432
G1 X206.028
G1 X204.9364
G1 X203.732
G1 X197.1925
G1 X193.2457
G1 X189.1925
G3 X188.6925 Y138.8425 I0.0 J-0.5
G1 Y134.7893
G1 Y130.8425
G3 X189.1925 Y130.3425 I0.5 J0.0
G1 X192.1526
G1 X195.1925
G3 X195.6925 Y130.8425 I0.0 J0.5
G1 Y132.8691
G1 Y134.3425
G1 X196.1792
G1 X196.6925
G1 Y132.737
G1 Y130.5434
G1 Y130.4259
G1 Y130.2002
G1 Y130.1669
G1 Y130.0827
G1 Y130.0672
G1 Y129.8425
G1 Y128.4435
G1 Y127.9528
G1 Y127.7587
G1 Y126.444
G1 Y125.76
G1 Y112.9823
G1 Y101.2175
G1 X193.2457
G1 X189.1925
G3 X188.6925 Y100.7175 I0.0 J-0.5
G1 Y96.6643
G1 Y92.7175
G3 X189.1925 Y92.2175 I0.5 J0.0
G1 X192.1526
G1 X195.1925
G3 X195.6925 Y92.7175 I0.0 J0.5
G1 Y94.7441
G1 Y96.2175
G1 X196.1792
G1 X196.6925
G1 Y94.612
G1 Y92.4184
G1 Y92.3009
G1 Y92.0752
G1 Y92.0419
G1 Y91.9577
G1 Y91.9422
G1 Y91.7175
G1 Y79.1414
G1 Y78.8425
G3 X197.1925 Y78.3425 I0.5 J0.0
G1 X197.2854
G1 X201.1925
G3 X201.6925 Y78.8425 I0.0 J0.5
G1 Y95.3425
G1 X201.7057
G1 X202.8454
G1 X202.9966
G1 X203.4497
G1 X204.2667
G1 X205.4244
G1 X206.7258
G1 X207.8174
G1 X208.3921
G1 X221.0128
G1 X245.9929
G1 X246.5675
G1 X247.6591
G1 X248.9606
G1 X250.1182
G1 X250.9353
G1 X251.3883
G1 X251.5395
G1 X252.1161
G1 X252.4161
G1 X252.5853
G1 X252.694
G1 X252.7696
G1 X253.1925
G3 X253.6925 Y95.8425 I0.0 J0.5
G1 Y102.2843
G3 X253.6913 Y102.3186 I-0.5 J0.0
G1 X253.681 Y102.4686
G3 X253.1822 Y102.9343 I-0.4988 J-0.0343
G1 X225.8195
G1 Y104.6803
G1 X253.1822
G3 X253.681 Y105.1461 I0.0 J0.5
G1 X253.6913 Y105.2961
G3 X253.6925 Y105.3303 I-0.4988 J0.0343
G1 Y117.4392
G3 X253.6913 Y117.4735 I-0.5 J0.0
G1 X253.681 Y117.6235
G3 X253.1822 Y118.0892 I-0.4988 J-0.0343
G1 X225.8195
G1 Y119.8352
G1 X229.1822
G3 X229.681 Y120.301 I0.0 J0.5
G1 X229.6913 Y120.451
G3 X229.6925 Y120.4852 I-0.4988 J0.0343
G1 Y133.5023
G3 X229.6913 Y133.5366 I-0.5 J0.0
G1 X229.681 Y133.6866
G3 X229.1822 Y134.1523 I-0.4988 J-0.0343
G1 X209.8195
G1 Y135.8983
G1 X229.1822
G3 X229.681 Y136.3641 I0.0 J0.5
G1 X229.6913 Y136.5141
G3 X229.6925 Y136.5483 I-0.4988 J0.0343
G1 Y138.4014
G1 Y138.8425
G3 X229.5856 Y139.1514 I-0.5 J0.0
G1 F300.0 Z-1.2
G3 F1600.0 X229.1925 Y139.3425 I-0.3931 J-0.3089
G1 X228.7294
G1 X228.0659
G1 X227.9735
G1 X225.6262
G1 X225.2322
G1 X224.4753
G1 X223.3174
G1 X221.8429
G1 X220.3432
G1 X206.028
G1 X204.9364
G1 X203.732
G1 X197.1925
G1 X193.2457
G1 X189.1925
G3 X188.6925 Y138.8425 I0.0 J-0.5
G1 Y134.7893
G1 Y130.8425
G3 X189.1925 Y130.3425 I0.5 J0.0
G1 X192.1526
G1 X195.1925
G3 X195.6925 Y130.8425 I0.0 J0.5
G1 Y132.8691
G1 Y134.3425
G1 X196.1792
G1 X196.6925
G1 Y132.737
G1 Y130.5434
G1 Y130.4259
G1 Y130.2002
G1 Y130.1669
G1 Y130.0827
G1 Y130.0672
G1 Y129.8425
G1 Y128.4435
G1 Y127.9528
G1 Y127.7587
G1 Y126.444
G1 Y125.76
G1 Y112.9823
G1 Y101.2175
G1 X193.2457
G1 X189.1925
G3 X188.6925 Y100.7175 I0.0 J-0.5
G1 Y96.6643
G1 Y92.7175
G3 X189.1925 Y92.2175 I0.5 J0.0
G1 X192.1526
G1 X195.1925
G3 X195.6925 Y92.7175 I0.0 J0.5
G1 Y94.7441
G1 Y96.2175
G1 X196.1792
G1 X196.6925
G1 Y94.612
G1 Y92.4184
G1 Y92.3009
G1 Y92.0752
G1 Y92.0419
G1 Y91.9577
G1 Y91.9422
G1 Y91.7175
G1 Y79.1414
G1 Y78.8425
G3 X197.1925 Y78.3425 I0.5 J0.0
G1 X197.2854
G1 X201.1925
G3 X201.6925 Y78.8425 I0.0 J0.5
G1 Y95.3425
G1 X201.7057
G1 X202.8454
G1 X202.9966
G1 X203.4497
G1 X204.2667
G1 X205.4244
G1 X206.7258
G1 X207.8174
G1 X208.3921
G1 X221.0128
G1 X245.9929
G1 X246.5675
G1 X247.6591
G1 X248.9606
G1 X250.1182
G1 X250.9353
G1 X251.3883
G1 X251.5395
G1 X252.1161
G1 X252.4161
G1 X252.5853
G1 X252.694
G1 X252.7696
G1 X253.1925
G3 X253.6925 Y95.8425 I0.0 J0.5
G1 Y102.2843
G3 X253.6913 Y102.3186 I-0.5 J0.0
G1 X253.681 Y102.4686
G3 X253.1822 Y102.9343 I-0.4988 J-0.0343
G1 X225.8195
G1 Y104.6803
G1 X253.1822
G3 X253.681 Y105.1461 I0.0 J0.5
G1 X253.6913 Y105.2961
G3 X253.6925 Y105.3303 I-0.4988 J0.0343
G1 Y117.4392
G3 X253.6913 Y117.4735 I-0.5 J0.0
G1 X253.681 Y117.6235
G3 X253.1822 Y118.0892 I-0.4988 J-0.0343
G1 X225.8195
G1 Y119.8352
G1 X229.1822
G3 X229.681 Y120.301 I0.0 J0.5
G1 X229.6913 Y120.451
G3 X229.6925 Y120.4852 I-0.4988 J0.0343
G1 Y133.5023
G3 X229.6913 Y133.5366 I-0.5 J0.0
G1 X229.681 Y133.6866
G3 X229.1822 Y134.1523 I-0.4988 J-0.0343
G1 X209.8195
G1 Y135.8983
G1 X229.1822
G3 X229.681 Y136.3641 I0.0 J0.5
G1 X229.6913 Y136.5141
G3 X229.6925 Y136.5483 I-0.4988 J0.0343
G1 Y138.4014
G1 Y138.8425
G3 X229.5856 Y139.1514 I-0.5 J0.0
G1 F300.0 Z-1.8
G3 F1600.0 X229.1925 Y139.3425 I-0.3931 J-0.3089
G1 X228.7294
G1 X228.0659
G1 X227.9735
G1 X225.6262
G1 X225.2322
G1 X224.4753
G1 X223.3174
G1 X221.8429
G1 X220.3432
G1 X206.028
G1 X204.9364
G1 X203.732
G1 X197.1925
G1 X193.2457
G1 X189.1925
G3 X188.6925 Y138.8425 I0.0 J-0.5
G1 Y134.7893
G1 Y130.8425
G3 X189.1925 Y130.3425 I0.5 J0.0
G1 X192.1526
G1 X195.1925
G3 X195.6925 Y130.8425 I0.0 J0.5
G1 Y132.8691
G1 Y134.3425
G1 X196.1792
G1 X196.6925
G1 Y132.737
G1 Y130.5434
G1 Y130.4259
G1 Y130.2002
G1 Y130.1669
G1 Y130.0827
G1 Y130.0672
G1 Y129.8425
G1 Y128.4435
G1 Y127.9528
G1 Y127.7587
G1 Y126.444
G1 Y125.76
G1 Y112.9823
G1 Y101.2175
G1 X193.2457
G1 X189.1925
G3 X188.6925 Y100.7175 I0.0 J-0.5
G1 Y96.6643
G1 Y92.7175
G3 X189.1925 Y92.2175 I0.5 J0.0
G1 X192.1526
G1 X195.1925
G3 X195.6925 Y92.7175 I0.0 J0.5
G1 Y94.7441
G1 Y96.2175
G1 X196.1792
G1 X196.6925
G1 Y94.612
G1 Y92.4184
G1 Y92.3009
G1 Y92.0752
G1 Y92.0419
G1 Y91.9577
G1 Y91.9422
G1 Y91.7175
G1 Y79.1414
G1 Y78.8425
G3 X197.1925 Y78.3425 I0.5 J0.0
G1 X197.2854
G1 X201.1925
G3 X201.6925 Y78.8425 I0.0 J0.5
G1 Y95.3425
G1 X201.7057
G1 X202.8454
G1 X202.9966
G1 X203.4497
G1 X204.2667
G1 X205.4244
G1 X206.7258
G1 X207.8174
G1 X208.3921
G1 X221.0128
G1 X245.9929
G1 X246.5675
G1 X247.6591
G1 X248.9606
G1 X250.1182
G1 X250.9353
G1 X251.3883
G1 X251.5395
G1 X252.1161
G1 X252.4161
G1 X252.5853
G1 X252.694
G1 X252.7696
G1 X253.1925
G3 X253.6925 Y95.8425 I0.0 J0.5
G1 Y102.2843
G3 X253.6913 Y102.3186 I-0.5 J0.0
G1 X253.681 Y102.4686
G3 X253.1822 Y102.9343 I-0.4988 J-0.0343
G1 X225.8195
G1 Y104.6803
G1 X253.1822
G3 X253.681 Y105.1461 I0.0 J0.5
G1 X253.6913 Y105.2961
G3 X253.6925 Y105.3303 I-0.4988 J0.0343
G1 Y117.4392
G3 X253.6913 Y117.4735 I-0.5 J0.0
G1 X253.681 Y117.6235
G3 X253.1822 Y118.0892 I-0.4988 J-0.0343
G1 X225.8195
G1 Y119.8352
G1 X229.1822
G3 X229.681 Y120.301 I0.0 J0.5
G1 X229.6913 Y120.451
G3 X229.6925 Y120.4852 I-0.4988 J0.0343
G1 Y133.5023
G3 X229.6913 Y133.5366 I-0.5 J0.0
G1 X229.681 Y133.6866
G3 X229.1822 Y134.1523 I-0.4988 J-0.0343
G1 X209.8195
G1 Y135.8983
G1 X229.1822
G3 X229.681 Y136.3641 I0.0 J0.5
G1 X229.6913 Y136.5141
G3 X229.6925 Y136.5483 I-0.4988 J0.0343
G1 Y138.4014
G1 Y138.8425
G3 X229.5856 Y139.1514 I-0.5 J0.0
G1 F300.0 Z-2.4
G3 F1600.0 X229.1925 Y139.3425 I-0.3931 J-0.3089
G1 X228.7294
G1 X228.0659
G1 X227.9735
G1 X225.6262
G1 X225.2322
G1 X224.4753
G1 X223.3174
G1 X221.8429
G1 X220.3432
G1 X218.5
G1 X217.5 Z-2.0
G1 X216.5
G1 X215.5 Z-2.4
G1 X206.028
G1 X204.9364
G1 X203.732
G1 X197.1925
G1 X193.2457
G1 X189.1925
G3 X188.6925 Y138.8425 I0.0 J-0.5
G1 Y136.5
G1 Y135.5 Z-2.0
G1 Y134.7893
G1 Y134.5
G1 Y133.5 Z-2.4
G1 Y130.8425
G3 X189.1925 Y130.3425 I0.5 J0.0
G1 X192.1526
G1 X195.1925
G3 X195.6925 Y130.8425 I0.0 J0.5
G1 Y132.8691
G1 Y134.3425
G1 X196.1792
G1 X196.6925
G1 Y132.737
G1 Y130.5434
G1 Y130.4259
G1 Y130.2002
G1 Y130.1669
G1 Y130.0827
G1 Y130.0672
G1 Y129.8425
G1 Y128.4435
G1 Y127.9528
G1 Y127.7587
G1 Y126.444
G1 Y125.76
G1 Y112.9823
G1 Y101.2175
G1 X193.2457
G1 X189.1925
G3 X188.6925 Y100.7175 I0.0 J-0.5
G1 Y96.6643
G1 Y92.7175
G3 X189.1925 Y92.2175 I0.5 J0.0
G1 X192.1526
G1 X195.1925
G3 X195.6925 Y92.7175 I0.0 J0.5
G1 Y94.7441
G1 Y96.2175
G1 X196.1792
G1 X196.6925
G1 Y94.612
G1 Y92.4184
G1 Y92.3009
G1 Y92.0752
G1 Y92.0419
G1 Y91.9577
G1 Y91.9422
G1 Y91.7175
G1 Y79.1414
G1 Y78.8425
G3 X197.1925 Y78.3425 I0.5 J0.0
G1 X197.2854
G1 X201.1925
G3 X201.6925 Y78.8425 I0.0 J0.5
G1 Y95.3425
G1 X201.7057
G1 X202.8454
G1 X202.9966
G1 X203.4497
G1 X204.2667
G1 X205.4244
G1 X206.7258
G1 X207.8174
G1 X208.3921
G1 X212.5613
G1 X213.5613 Z-2.0
G1 X214.5613
G1 X215.5613 Z-2.4
G1 X221.0128
G1 X245.9929
G1 X246.5675
G1 X247.6591
G1 X248.9606
G1 X250.1182
G1 X250.9353
G1 X251.3883
G1 X251.5395
G1 X252.1161
G1 X252.4161
G1 X252.5853
G1 X252.694
G1 X252.7696
G1 X253.1925
G3 X253.6925 Y95.8425 I0.0 J0.5
G1 Y98.5
G1 Y99.5 Z-2.0
G1 Y100.5
G1 Y101.5 Z-2.4
G1 Y102.2843
G3 X253.6913 Y102.3186 I-0.5 J0.0
G1 X253.681 Y102.4686
G3 X253.1822 Y102.9343 I-0.4988 J-0.0343
G1 X225.8195
G1 Y104.6803
G1 X253.1822
G3 X253.681 Y105.1461 I0.0 J0.5
G1 X253.6913 Y105.2961
G3 X253.6925 Y105.3303 I-0.4988 J0.0343
G1 Y110.5
G1 Y111.5 Z-2.0
G1 Y112.5
G1 Y113.5 Z-2.4
G1 Y117.4392
G3 X253.6913 Y117.4735 I-0.5 J0.0
G1 X253.681 Y117.6235
G3 X253.1822 Y118.0892 I-0.4988 J-0.0343
G1 X225.8195
G1 Y119.8352
G1 X229.1822
G3 X229.681 Y120.301 I0.0 J0.5
G1 X229.6913 Y120.451
G3 X229.6925 Y120.4852 I-0.4988 J0.0343
G1 Y133.5023
G3 X229.6913 Y133.5366 I-0.5 J0.0
G1 X229.681 Y133.6866
G3 X229.1822 Y134.1523 I-0.4988 J-0.0343
G1 X209.8195
G1 Y135.8983
G1 X229.1822
G3 X229.681 Y136.3641 I0.0 J0.5
G1 X229.6913 Y136.5141
G3 X229.6925 Y136.5483 I-0.4988 J0.0343
G1 Y138.4014
G1 Y138.8425
G3 X229.5856 Y139.1514 I-0.5 J0.0
G1 F300.0 Z-3.0
G3 F1600.0 X229.1925 Y139.3425 I-0.3931 J-0.3089
G1 X228.7294
G1 X228.0659
G1 X227.9735
G1 X225.6262
G1 X225.2322
G1 X224.4753
G1 X223.3174
G1 X221.8429
G1 X220.3432
G1 X218.5
G1 X217.5 Z-2.0
G1 X216.5
G1 X215.5 Z-3.0
G1 X206.028
G1 X204.9364
G1 X203.732
G1 X197.1925
G1 X193.2457
G1 X189.1925
G3 X188.6925 Y138.8425 I0.0 J-0.5
G1 Y136.5
G1 Y135.5 Z-2.0
G1 Y134.7893
G1 Y134.5
G1 Y133.5 Z-3.0
G1 Y130.8425
G3 X189.1925 Y130.3425 I0.5 J0.0
G1 X192.1526
G1 X195.1925
G3 X195.6925 Y130.8425 I0.0 J0.5
G1 Y132.8691
G1 Y134.3425
G1 X196.1792
G1 X196.6925
G1 Y132.737
G1 Y130.5434
G1 Y130.4259
G1 Y130.2002
G1 Y130.1669
G1 Y130.0827
G1 Y130.0672
G1 Y129.8425
G1 Y128.4435
G1 Y127.9528
G1 Y127.7587
G1 Y126.444
G1 Y125.76
G1 Y112.9823
G1 Y101.2175
G1 X193.2457
G1 X189.1925
G3 X188.6925 Y100.7175 I0.0 J-0.5
G1 Y96.6643
G1 Y92.7175
G3 X189.1925 Y92.2175 I0.5 J0.0
G1 X192.1526
G1 X195.1925
G3 X195.6925 Y92.7175 I0.0 J0.5
G1 Y94.7441
G1 Y96.2175
G1 X196.1792
G1 X196.6925
G1 Y94.612
G1 Y92.4184
G1 Y92.3009
G1 Y92.0752
G1 Y92.0419
G1 Y91.9577
G1 Y91.9422
G1 Y91.7175
G1 Y79.1414
G1 Y78.8425
G3 X197.1925 Y78.3425 I0.5 J0.0
G1 X197.2854
G1 X201.1925
G3 X201.6925 Y78.8425 I0.0 J0.5
G1 Y95.3425
G1 X201.7057
G1 X202.8454
G1 X202.9966
G1 X203.4497
G1 X204.2667
G1 X205.4244
G1 X206.7258
G1 X207.8174
G1 X208.3921
G1 X212.5613
G1 X213.5613 Z-2.0
G1 X214.5613
G1 X215.5613 Z-3.0
G1 X221.0128
G1 X245.9929
G1 X246.5675
G1 X247.6591
G1 X248.9606
G1 X250.1182
G1 X250.9353
G1 X251.3883
G1 X251.5395
G1 X252.1161
G1 X252.4161
G1 X252.5853
G1 X252.694
G1 X252.7696
G1 X253.1925
G3 X253.6925 Y95.8425 I0.0 J0.5
G1 Y98.5
G1 Y99.5 Z-2.0
G1 Y100.5
G1 Y101.5 Z-3.0
G1 Y102.2843
G3 X253.6913 Y102.3186 I-0.5 J0.0
G1 X253.681 Y102.4686
G3 X253.1822 Y102.9343 I-0.4988 J-0.0343
G1 X225.8195
G1 Y104.6803
G1 X253.1822
G3 X253.681 Y105.1461 I0.0 J0.5
G1 X253.6913 Y105.2961
G3 X253.6925 Y105.3303 I-0.4988 J0.0343
G1 Y110.5
G1 Y111.5 Z-2.0
G1 Y112.5
G1 Y113.5 Z-3.0
G1 Y117.4392
G3 X253.6913 Y117.4735 I-0.5 J0.0
G1 X253.681 Y117.6235
G3 X253.1822 Y118.0892 I-0.4988 J-0.0343
G1 X225.8195
G1 Y119.8352
G1 X229.1822
G3 X229.681 Y120.301 I0.0 J0.5
G1 X229.6913 Y120.451
G3 X229.6925 Y120.4852 I-0.4988 J0.0343
G1 Y133.5023
G3 X229.6913 Y133.5366 I-0.5 J0.0
G1 X229.681 Y133.6866
G3 X229.1822 Y134.1523 I-0.4988 J-0.0343
G1 X209.8195
G1 Y135.8983
G1 X229.1822
G3 X229.681 Y136.3641 I0.0 J0.5
G1 X229.6913 Y136.5141
G3 X229.6925 Y136.5483 I-0.4988 J0.0343
G1 Y138.4014
G1 Y138.8425
G3 X229.5856 Y139.1514 I-0.5 J0.0
G1 F300.0 Z-3.6
G3 F1600.0 X229.1925 Y139.3425 I-0.3931 J-0.3089
G1 X228.7294
G1 X228.0659
G1 X227.9735
G1 X225.6262
G1 X225.2322
G1 X224.4753
G1 X223.3174
G1 X221.8429
G1 X220.3432
G1 X218.5
G1 X217.5 Z-2.0
G1 X216.5
G1 X215.5 Z-3.6
G1 X206.028
G1 X204.9364
G1 X203.732
G1 X197.1925
G1 X193.2457
G1 X189.1925
G3 X188.6925 Y138.8425 I0.0 J-0.5
G1 Y136.5
G1 Y135.5 Z-2.0
G1 Y134.7893
G1 Y134.5
G1 Y133.5 Z-3.6
G1 Y130.8425
G3 X189.1925 Y130.3425 I0.5 J0.0
G1 X192.1526
G1 X195.1925
G3 X195.6925 Y130.8425 I0.0 J0.5
G1 Y132.8691
G1 Y134.3425
G1 X196.1792
G1 X196.6925
G1 Y132.737
G1 Y130.5434
G1 Y130.4259
G1 Y130.2002
G1 Y130.1669
G1 Y130.0827
G1 Y130.0672
G1 Y129.8425
G1 Y128.4435
G1 Y127.9528
G1 Y127.7587
G1 Y126.444
G1 Y125.76
G1 Y112.9823
G1 Y101.2175
G1 X193.2457
G1 X189.1925
G3 X188.6925 Y100.7175 I0.0 J-0.5
G1 Y96.6643
G1 Y92.7175
G3 X189.1925 Y92.2175 I0.5 J0.0
G1 X192.1526
G1 X195.1925
G3 X195.6925 Y92.7175 I0.0 J0.5
G1 Y94.7441
G1 Y96.2175
G1 X196.1792
G1 X196.6925
G1 Y94.612
G1 Y92.4184
G1 Y92.3009
G1 Y92.0752
G1 Y92.0419
G1 Y91.9577
G1 Y91.9422
G1 Y91.7175
G1 Y79.1414
G1 Y78.8425
G3 X197.1925 Y78.3425 I0.5 J0.0
G1 X197.2854
G1 X201.1925
G3 X201.6925 Y78.8425 I0.0 J0.5
G1 Y95.3425
G1 X201.7057
G1 X202.8454
G1 X202.9966
G1 X203.4497
G1 X204.2667
G1 X205.4244
G1 X206.7258
G1 X207.8174
G1 X208.3921
G1 X212.5613
G1 X213.5613 Z-2.0
G1 X214.5613
G1 X215.5613 Z-3.6
G1 X221.0128
G1 X245.9929
G1 X246.5675
G1 X247.6591
G1 X248.9606
G1 X250.1182
G1 X250.9353
G1 X251.3883
G1 X251.5395
G1 X252.1161
G1 X252.4161
G1 X252.5853
G1 X252.694
G1 X252.7696
G1 X253.1925
G3 X253.6925 Y95.8425 I0.0 J0.5
G1 Y98.5
G1 Y99.5 Z-2.0
G1 Y100.5
G1 Y101.5 Z-3.6
G1 Y102.2843
G3 X253.6913 Y102.3186 I-0.5 J0.0
G1 X253.681 Y102.4686
G3 X253.1822 Y102.9343 I-0.4988 J-0.0343
G1 X225.8195
G1 Y104.6803
G1 X253.1822
G3 X253.681 Y105.1461 I0.0 J0.5
G1 X253.6913 Y105.2961
G3 X253.6925 Y105.3303 I-0.4988 J0.0343
G1 Y110.5
G1 Y111.5 Z-2.0
G1 Y112.5
G1 Y113.5 Z-3.6
G1 Y117.4392
G3 X253.6913 Y117.4735 I-0.5 J0.0
G1 X253.681 Y117.6235
G3 X253.1822 Y118.0892 I-0.4988 J-0.0343
G1 X225.8195
G1 Y119.8352
G1 X229.1822
G3 X229.681 Y120.301 I0.0 J0.5
G1 X229.6913 Y120.451
G3 X229.6925 Y120.4852 I-0.4988 J0.0343
G1 Y133.5023
G3 X229.6913 Y133.5366 I-0.5 J0.0
G1 X229.681 Y133.6866
G3 X229.1822 Y134.1523 I-0.4988 J-0.0343
G1 X209.8195
G1 Y135.8983
G1 X229.1822
G3 X229.681 Y136.3641 I0.0 J0.5
G1 X229.6913 Y136.5141
G3 X229.6925 Y136.5483 I-0.4988 J0.0343
G1 Y138.4014
G1 Y138.8425
G3 X229.5856 Y139.1514 I-0.5 J0.0
G1 F300.0 Z-4.0
G3 F1600.0 X229.1925 Y139.3425 I-0.3931 J-0.3089
G1 X228.7294
G1 X228.0659
G1 X227.9735
G1 X225.6262
G1 X225.2322
G1 X224.4753
G1 X223.3174
G1 X221.8429
G1 X220.3432
G1 X218.5
G1 X217.5 Z-2.0
G1 X216.5
G1 X215.5 Z-4.0
G1 X206.028
G1 X204.9364
G1 X203.732
G1 X197.1925
G1 X193.2457
G1 X189.1925
G3 X188.6925 Y138.8425 I0.0 J-0.5
G1 Y136.5
G1 Y135.5 Z-2.0
G1 Y134.7893
G1 Y134.5
G1 Y133.5 Z-4.0
G1 Y130.8425
G3 X189.1925 Y130.3425 I0.5 J0.0
G1 X192.1526
G1 X195.1925
G3 X195.6925 Y130.8425 I0.0 J0.5
G1 Y132.8691
G1 Y134.3425
G1 X196.1792
G1 X196.6925
G1 Y132.737
G1 Y130.5434
G1 Y130.4259
G1 Y130.2002
G1 Y130.1669
G1 Y130.0827
G1 Y130.0672
G1 Y129.8425
G1 Y128.4435
G1 Y127.9528
G1 Y127.7587
G1 Y126.444
G1 Y125.76
G1 Y112.9823
G1 Y101.2175
G1 X193.2457
G1 X189.1925
G3 X188.6925 Y100.7175 I0.0 J-0.5
G1 Y96.6643
G1 Y92.7175
G3 X189.1925 Y92.2175 I0.5 J0.0
G1 X192.1526
G1 X195.1925
G3 X195.6925 Y92.7175 I0.0 J0.5
G1 Y94.7441
G1 Y96.2175
G1 X196.1792
G1 X196.6925
G1 Y94.612
G1 Y92.4184
G1 Y92.3009
G1 Y92.0752
G1 Y92.0419
G1 Y91.9577
G1 Y91.9422
G1 Y91.7175
G1 Y79.1414
G1 Y78.8425
G3 X197.1925 Y78.3425 I0.5 J0.0
G1 X197.2854
G1 X201.1925
G3 X201.6925 Y78.8425 I0.0 J0.5
G1 Y95.3425
G1 X201.7057
G1 X202.8454
G1 X202.9966
G1 X203.4497
G1 X204.2667
G1 X205.4244
G1 X206.7258
G1 X207.8174
G1 X208.3921
G1 X212.5613
G1 X213.5613 Z-2.0
G1 X214.5613
G1 X215.5613 Z-4.0
G1 X221.0128
G1 X245.9929
G1 X246.5675
G1 X247.6591
G1 X248.9606
G1 X250.1182
G1 X250.9353
G1 X251.3883
G1 X251.5395
G1 X252.1161
G1 X252.4161
G1 X252.5853
G1 X252.694
G1 X252.7696
G1 X253.1925
G3 X253.6925 Y95.8425 I0.0 J0.5
G1 Y98.5
G1 Y99.5 Z-2.0
G1 Y100.5
G1 Y101.5 Z-4.0
G1 Y102.2843
G3 X253.6913 Y102.3186 I-0.5 J0.0
G1 X253.681 Y102.4686
G3 X253.1822 Y102.9343 I-0.4988 J-0.0343
G1 X225.8195
G1 Y104.6803
G1 X253.1822
G3 X253.681 Y105.1461 I0.0 J0.5
G1 X253.6913 Y105.2961
G3 X253.6925 Y105.3303 I-0.4988 J0.0343
G1 Y110.5
G1 Y111.5 Z-2.0
G1 Y112.5
G1 Y113.5 Z-4.0
G1 Y117.4392
G3 X253.6913 Y117.4735 I-0.5 J0.0
G1 X253.681 Y117.6235
G3 X253.1822 Y118.0892 I-0.4988 J-0.0343
G1 X225.8195
G1 Y119.8352
G1 X229.1822
G3 X229.681 Y120.301 I0.0 J0.5
G1 X229.6913 Y120.451
G3 X229.6925 Y120.4852 I-0.4988 J0.0343
G1 Y133.5023
G3 X229.6913 Y133.5366 I-0.5 J0.0
G1 X229.681 Y133.6866
G3 X229.1822 Y134.1523 I-0.4988 J-0.0343
G1 X209.8195
G1 Y135.8983
G1 X229.1822
G3 X229.681 Y136.3641 I0.0 J0.5
G1 X229.6913 Y136.5141
G3 X229.6925 Y136.5483 I-0.4988 J0.0343
G1 Y138.4014
G1 Y138.8425
G3 X229.5856 Y139.1514 I-0.5 J0.0
G0 Z3.0
G0 X228.6925 Y69.1675
G0 Z1.0
G1 F300.0 Z-0.6
G1 F1600.0 Y67.7233
G1 X209.3195
G3 X208.8195 Y67.2233 I0.0 J-0.5
G1 Y64.4773
G3 X209.3195 Y63.9773 I0.5 J0.0
G1 X228.6925
G1 Y60.1675
G1 Y51.6602
G1 X225.3195
G3 X224.8195 Y51.1602 I0.0 J-0.5
G1 Y48.4142
G3 X225.3195 Y47.9142 I0.5 J0.0
G1 X252.6925
G1 Y38.6675
G1 Y36.5053
G1 X225.3195
G3 X224.8195 Y36.0053 I0.0 J-0.5
G1 Y33.2593
G3 X225.3195 Y32.7593 I0.5 J0.0
G1 X252.6925
G1 Y27.1675
G1 X245.2237
G1 X244.6925
G1 X244.2809
G1 X243.9603
G1 X243.0212
G1 X242.1925
G1 X241.3638
G1 X240.4247
G1 X234.2648
G1 X232.5686
G1 X216.657
G1 X215.6851
G1 X214.6999
G1 X213.728
G1 X212.7957
G1 X211.9282
G1 X211.1493
G1 X210.48
G1 X209.9388
G1 X209.5406
G1 X209.2964
G1 X209.213
G1 X208.4709
G1 X206.2952
G1 X206.213
G1 X204.4403
G1 X201.1925
G3 X200.6925 Y26.6675 I0.0 J-0.5
G1 Y18.1675
G1 Y10.1675
G1 X199.1925
G1 X197.6925
G1 Y16.105
G1 Y22.5425
G1 Y27.3812
G1 Y27.5425
G3 X197.1925 Y28.0425 I-0.5 J0.0
G1 X196.1925
G1 X195.1925
G3 X194.6925 Y27.5425 I0.0 J-0.5
G1 Y25.5425
G1 Y24.0425
G1 X192.1925
G1 X189.6925
G1 Y27.5425
G1 Y31.0425
G1 X193.1925
G1 X197.1925
G3 X197.6925 Y31.5425 I0.0 J0.5
G1 Y32.482
G1 Y60.6675
G1 Y65.5062
G1 Y65.6675
G3 X197.1925 Y66.1675 I-0.5 J0.0
G1 X196.1925
G1 X195.1925
G3 X194.6925 Y65.6675 I0.0 J-0.5
G1 Y63.6675
G1 Y62.1675
G1 X192.1925
G1 X189.6925
G1 Y65.6675
G1 Y69.1675
G1 X193.1925
G1 X197.1925
G1 X200.6211
G1 X214.6999
G1 X215.1925
G1 X215.6851
G1 X216.657
G1 X217.5893
G1 X218.4567
G1 X219.2357
G1 X219.905
G1 X220.4462
G1 X220.8444
G1 X221.0886
G1 X221.172
G1 X222.4852
G1 X228.6925
G1 F300.0 Z-1.2
G1 F1600.0 Y67.7233
G1 X209.3195
G3 X208.8195 Y67.2233 I0.0 J-0.5
G1 Y64.4773
G3 X209.3195 Y63.9773 I0.5 J0.0
G1 X228.6925
G1 Y60.1675
G1 Y51.6602
G1 X225.3195
G3 X224.8195 Y51.1602 I0.0 J-0.5
G1 Y48.4142
G3 X225.3195 Y47.9142 I0.5 J0.0
G1 X252.6925
G1 Y38.6675
G1 Y36.5053
G1 X225.3195
G3 X224.8195 Y36.0053 I0.0 J-0.5
G1 Y33.2593
G3 X225.3195 Y32.7593 I0.5 J0.0
G1 X252.6925
G1 Y27.1675
G1 X245.2237
G1 X244.6925
G1 X244.2809
G1 X243.9603
G1 X243.0212
G1 X242.1925
G1 X241.3638
G1 X240.4247
G1 X234.2648
G1 X232.5686
G1 X216.657
G1 X215.6851
G1 X214.6999
G1 X213.728
G1 X212.7957
G1 X211.9282
G1 X211.1493
G1 X210.48
G1 X209.9388
G1 X209.5406
G1 X209.2964
G1 X209.213
G1 X208.4709
G1 X206.2952
G1 X206.213
G1 X204.4403
G1 X201.1925
G3 X200.6925 Y26.6675 I0.0 J-0.5
G1 Y18.1675
G1 Y10.1675
G1 X199.1925
G1 X197.6925
G1 Y16.105
G1 Y22.5425
G1 Y27.3812
G1 Y27.5425
G3 X197.1925 Y28.0425 I-0.5 J0.0
G1 X196.1925
G1 X195.1925
G3 X194.6925 Y27.5425 I0.0 J-0.5
G1 Y25.5425
G1 Y24.0425
G1 X192.1925
G1 X189.6925
G1 Y27.5425
G1 Y31.0425
G1 X193.1925
G1 X197.1925
G3 X197.6925 Y31.5425 I0.0 J0.5
G1 Y32.482
G1 Y60.6675
G1 Y65.5062
G1 Y65.6675
G3 X197.1925 Y66.1675 I-0.5 J0.0
G1 X196.1925
G1 X195.1925
G3 X194.6925 Y65.6675 I0.0 J-0.5
G1 Y63.6675
G1 Y62.1675
G1 X192.1925
G1 X189.6925
G1 Y65.6675
G1 Y69.1675
G1 X193.1925
G1 X197.1925
G1 X200.6211
G1 X214.6999
G1 X215.1925
G1 X215.6851
G1 X216.657
G1 X217.5893
G1 X218.4567
G1 X219.2357
G1 X219.905
G1 X220.4462
G1 X220.8444
G1 X221.0886
G1 X221.172
G1 X222.4852
G1 X228.6925
G1 F300.0 Z-1.8
G1 F1600.0 Y67.7233
G1 X209.3195
G3 X208.8195 Y67.2233 I0.0 J-0.5
G1 Y64.4773
G3 X209.3195 Y63.9773 I0.5 J0.0
G1 X228.6925
G1 Y60.1675
G1 Y51.6602
G1 X225.3195
G3 X224.8195 Y51.1602 I0.0 J-0.5
G1 Y48.4142
G3 X225.3195 Y47.9142 I0.5 J0.0
G1 X252.6925
G1 Y38.6675
G1 Y36.5053
G1 X225.3195
G3 X224.8195 Y36.0053 I0.0 J-0.5
G1 Y33.2593
G3 X225.3195 Y32.7593 I0.5 J0.0
G1 X252.6925
G1 Y27.1675
G1 X245.2237
G1 X244.6925
G1 X244.2809
G1 X243.9603
G1 X243.0212
G1 X242.1925
G1 X241.3638
G1 X240.4247
G1 X234.2648
G1 X232.5686
G1 X216.657
G1 X215.6851
G1 X214.6999
G1 X213.728
G1 X212.7957
G1 X211.9282
G1 X211.1493
G1 X210.48
G1 X209.9388
G1 X209.5406
G1 X209.2964
G1 X209.213
G1 X208.4709
G1 X206.2952
G1 X206.213
G1 X204.4403
G1 X201.1925
G3 X200.6925 Y26.6675 I0.0 J-0.5
G1 Y18.1675
G1 Y10.1675
G1 X199.1925
G1 X197.6925
G1 Y16.105
G1 Y22.5425
G1 Y27.3812
G1 Y27.5425
G3 X197.1925 Y28.0425 I-0.5 J0.0
G1 X196.1925
G1 X195.1925
G3 X194.6925 Y27.5425 I0.0 J-0.5
G1 Y25.5425
G1 Y24.0425
G1 X192.1925
G1 X189.6925
G1 Y27.5425
G1 Y31.0425
G1 X193.1925
G1 X197.1925
G3 X197.6925 Y31.5425 I0.0 J0.5
G1 Y32.482
G1 Y60.6675
G1 Y65.5062
G1 Y65.6675
G3 X197.1925 Y66.1675 I-0.5 J0.0
G1 X196.1925
G1 X195.1925
G3 X194.6925 Y65.6675 I0.0 J-0.5
G1 Y63.6675
G1 Y62.1675
G1 X192.1925
G1 X189.6925
G1 Y65.6675
G1 Y69.1675
G1 X193.1925
G1 X197.1925
G1 X200.6211
G1 X214.6999
G1 X215.1925
G1 X215.6851
G1 X216.657
G1 X217.5893
G1 X218.4567
G1 X219.2357
G1 X219.905
G1 X220.4462
G1 X220.8444
G1 X221.0886
G1 X221.172
G1 X222.4852
G1 X228.6925
G1 F300.0 Z-2.4
G1 F1600.0 Y67.7233
G1 X209.3195
G3 X208.8195 Y67.2233 I0.0 J-0.5
G1 Y64.4773
G3 X209.3195 Y63.9773 I0.5 J0.0
G1 X228.6925
G1 Y60.1675
G1 Y51.6602
G1 X225.3195
G3 X224.8195 Y51.1602 I0.0 J-0.5
G1 Y48.4142
G3 X225.3195 Y47.9142 I0.5 J0.0
G1 X252.6925
G1 Y45.5
G1 Y44.5 Z-2.0
G1 Y43.5
G1 Y42.5 Z-2.4
G1 Y38.6675
G1 Y36.5053
G1 X225.3195
G3 X224.8195 Y36.0053 I0.0 J-0.5
G1 Y33.2593
G3 X225.3195 Y32.7593 I0.5 J0.0
G1 X252.6925
G1 Y31.5
G1 Y30.5 Z-2.0
G1 Y29.5
G1 Y28.5 Z-2.4
G1 Y27.1675
G1 X245.2237
G1 X244.6925
G1 X244.2809
G1 X243.9603
G1 X243.0212
G1 X242.1925
G1 X241.3638
G1 X240.4247
G1 X234.2648
G1 X232.5686
G1 X216.657
G1 X215.6851
G1 X215.5554
G1 X214.6999 Z-2.0578
G1 X214.5554 Z-2.0
G1 X213.728
G1 X213.5554
G1 X212.7957 Z-2.3039
G1 X212.5554 Z-2.4
G1 X211.9282
G1 X211.1493
G1 X210.48
G1 X209.9388
G1 X209.5406
G1 X209.2964
G1 X209.213
G1 X208.4709
G1 X206.2952
G1 X206.213
G1 X204.4403
G1 X201.1925
G3 X200.6925 Y26.6675 I0.0 J-0.5
G1 Y18.1675
G1 Y10.1675
G1 X199.1925
G1 X197.6925
G1 Y16.105
G1 Y22.5425
G1 Y27.3812
G1 Y27.5425
G3 X197.1925 Y28.0425 I-0.5 J0.0
G1 X196.1925
G1 X195.1925
G3 X194.6925 Y27.5425 I0.0 J-0.5
G1 Y25.5425
G1 Y24.0425
G1 X192.1925
G1 X189.6925
G1 Y26.0425
G1 Y27.0425 Z-2.0
G1 Y27.5425
G1 Y28.0425
G1 Y29.0425 Z-2.4
G1 Y31.0425
G1 X193.1925
G1 X197.1925
G3 X197.6925 Y31.5425 I0.0 J0.5
G1 Y32.482
G1 Y60.6675
G1 Y65.5062
G1 Y65.6675
G3 X197.1925 Y66.1675 I-0.5 J0.0
G1 X196.1925
G1 X195.1925
G3 X194.6925 Y65.6675 I0.0 J-0.5
G1 Y63.6675
G1 Y62.1675
G1 X192.1925
G1 X189.6925
G1 Y64.1675
G1 Y65.1675 Z-2.0
G1 Y65.6675
G1 Y66.1675
G1 Y67.1675 Z-2.4
G1 Y69.1675
G1 X193.1925
G1 X197.1925
G1 X200.6211
G1 X214.5
G1 X214.6999 Z-2.3201
G1 X215.1925 Z-2.123
G1 X215.5 Z-2.0
G1 X215.6851
G1 X216.5
G1 X216.657 Z-2.0628
G1 X217.5 Z-2.4
G1 X217.5893
G1 X218.4567
G1 X219.2357
G1 X219.905
G1 X220.4462
G1 X220.8444
G1 X221.0886
G1 X221.172
G1 X222.4852
G1 X228.6925
G1 F300.0 Z-3.0
G1 F1600.0 Y67.7233
G1 X209.3195
G3 X208.8195 Y67.2233 I0.0 J-0.5
G1 Y64.4773
G3 X209.3195 Y63.9773 I0.5 J0.0
G1 X228.6925
G1 Y60.1675
G1 Y51.6602
G1 X225.3195
G3 X224.8195 Y51.1602 I0.0 J-0.5
G1 Y48.4142
G3 X225.3195 Y47.9142 I0.5 J0.0
G1 X252.6925
G1 Y45.5
G1 Y44.5 Z-2.0
G1 Y43.5
G1 Y42.5 Z-3.0
G1 Y38.6675
G1 Y36.5053
G1 X225.3195
G3 X224.8195 Y36.0053 I0.0 J-0.5
G1 Y33.2593
G3 X225.3195 Y32.7593 I0.5 J0.0
G1 X252.6925
G1 Y31.5
G1 Y30.5 Z-2.0
G1 Y29.5
G1 Y28.5 Z-3.0
G1 Y27.1675
G1 X245.2237
G1 X244.6925
G1 X244.2809
G1 X243.9603
G1 X243.0212
G1 X242.1925
G1 X241.3638
G1 X240.4247
G1 X234.2648
G1 X232.5686
G1 X216.657
G1 X215.6851
G1 X215.5554
G1 X214.6999 Z-2.1445
G1 X214.5554 Z-2.0
G1 X213.728
G1 X213.5554
G1 X212.7957 Z-2.7597
G1 X212.5554 Z-3.0
G1 X211.9282
G1 X211.1493
G1 X210.48
G1 X209.9388
G1 X209.5406
G1 X209.2964
G1 X209.213
G1 X208.4709
G1 X206.2952
G1 X206.213
G1 X204.4403
G1 X201.1925
G3 X200.6925 Y26.6675 I0.0 J-0.5
G1 Y18.1675
G1 Y10.1675
G1 X199.1925
G1 X197.6925
G1 Y16.105
G1 Y22.5425
G1 Y27.3812
G1 Y27.5425
G3 X197.1925 Y28.0425 I-0.5 J0.0
G1 X196.1925
G1 X195.1925
G3 X194.6925 Y27.5425 I0.0 J-0.5
G1 Y25.5425
G1 Y24.0425
G1 X192.1925
G1 X189.6925
G1 Y26.0425
G1 Y27.0425 Z-2.0
G1 Y27.5425
G1 Y28.0425
G1 Y29.0425 Z-3.0
G1 Y31.0425
G1 X193.1925
G1 X197.1925
G3 X197.6925 Y31.5425 I0.0 J0.5
G1 Y32.482
G1 Y60.6675
G1 Y65.5062
G1 Y65.6675
G3 X197.1925 Y66.1675 I-0.5 J0.0
G1 X196.1925
G1 X195.1925
G3 X194.6925 Y65.6675 I0.0 J-0.5
G1 Y63.6675
G1 Y62.1675
G1 X192.1925
G1 X189.6925
G1 Y64.1675
G1 Y65.1675 Z-2.0
G1 Y65.6675
G1 Y66.1675
G1 Y67.1675 Z-3.0
G1 Y69.1675
G1 X193.1925
G1 X197.1925
G1 X200.6211
G1 X214.5
G1 X214.6999 Z-2.8001
G1 X215.1925 Z-2.3075
G1 X215.5 Z-2.0
G1 X215.6851
G1 X216.5
G1 X216.657 Z-2.157
G1 X217.5 Z-3.0
G1 X217.5893
G1 X218.4567
G1 X219.2357
G1 X219.905
G1 X220.4462
G1 X220.8444
G1 X221.0886
G1 X221.172
G1 X222.4852
G1 X228.6925
G1 F300.0 Z-3.6
G1 F1600.0 Y67.7233
G1 X209.3195
G3 X208.8195 Y67.2233 I0.0 J-0.5
G1 Y64.4773
G3 X209.3195 Y63.9773 I0.5 J0.0
G1 X228.6925
G1 Y60.1675
G1 Y51.6602
G1 X225.3195
G3 X224.8195 Y51.1602 I0.0 J-0.5
G1 Y48.4142
G3 X225.3195 Y47.9142 I0.5 J0.0
G1 X252.6925
G1 Y45.5
G1 Y44.5 Z-2.0
G1 Y43.5
G1 Y42.5 Z-3.6
G1 Y38.6675
G1 Y36.5053
G1 X225.3195
G3 X224.8195 Y36.0053 I0.0 J-0.5
G1 Y33.2593
G3 X225.3195 Y32.7593 I0.5 J0.0
G1 X252.6925
G1 Y31.5
G1 Y30.5 Z-2.0
G1 Y29.5
G1 Y28.5 Z-3.6
G1 Y27.1675
G1 X245.2237
G1 X244.6925
G1 X244.2809
G1 X243.9603
G1 X243.0212
G1 X242.1925
G1 X241.3638
G1 X240.4247
G1 X234.2648
G1 X232.5686
G1 X216.657
G1 X215.6851
G1 X215.5554
G1 X214.6999 Z-2.2312
G1 X214.5554 Z-2.0
G1 X213.728
G1 X213.5554
G1 X212.7957 Z-3.2155
G1 X212.5554 Z-3.6
G1 X211.9282
G1 X211.1493
G1 X210.48
G1 X209.9388
G1 X209.5406
G1 X209.2964
G1 X209.213
G1 X208.4709
G1 X206.2952
G1 X206.213
G1 X204.4403
G1 X201.1925
G3 X200.6925 Y26.6675 I0.0 J-0.5
G1 Y18.1675
G1 Y10.1675
G1 X199.1925
G1 X197.6925
G1 Y16.105
G1 Y22.5425
G1 Y27.3812
G1 Y27.5425
G3 X197.1925 Y28.0425 I-0.5 J0.0
G1 X196.1925
G1 X195.1925
G3 X194.6925 Y27.5425 I0.0 J-0.5
G1 Y25.5425
G1 Y24.0425
G1 X192.1925
G1 X189.6925
G1 Y26.0425
G1 Y27.0425 Z-2.0
G1 Y27.5425
G1 Y28.0425
G1 Y29.0425 Z-3.6
G1 Y31.0425
G1 X193.1925
G1 X197.1925
G3 X197.6925 Y31.5425 I0.0 J0.5
G1 Y32.482
G1 Y60.6675
G1 Y65.5062
G1 Y65.6675
G3 X197.1925 Y66.1675 I-0.5 J0.0
G1 X196.1925
G1 X195.1925
G3 X194.6925 Y65.6675 I0.0 J-0.5
G1 Y63.6675
G1 Y62.1675
G1 X192.1925
G1 X189.6925
G1 Y64.1675
G1 Y65.1675 Z-2.0
G1 Y65.6675
G1 Y66.1675
G1 Y67.1675 Z-3.6
G1 Y69.1675
G1 X193.1925
G1 X197.1925
G1 X200.6211
G1 X214.5
G1 X214.6999 Z-3.2802
G1 X215.1925 Z-2.492
G1 X215.5 Z-2.0
G1 X215.6851
G1 X216.5
G1 X216.657 Z-2.2512
G1 X217.5 Z-3.6
G1 X217.5893
G1 X218.4567
G1 X219.2357
G1 X219.905
G1 X220.4462
G1 X220.8444
G1 X221.0886
G1 X221.172
G1 X222.4852
G1 X228.6925
G1 F300.0 Z-4.0
G1 F1600.0 Y67.7233
G1 X209.3195
G3 X208.8195 Y67.2233 I0.0 J-0.5
G1 Y64.4773
G3 X209.3195 Y63.9773 I0.5 J0.0
G1 X228.6925
G1 Y60.1675
G1 Y51.6602
G1 X225.3195
G3 X224.8195 Y51.1602 I0.0 J-0.5
G1 Y48.4142
G3 X225.3195 Y47.9142 I0.5 J0.0
G1 X252.6925
G1 Y45.5
G1 Y44.5 Z-2.0
G1 Y43.5
G1 Y42.5 Z-4.0
G1 Y38.6675
G1 Y36.5053
G1 X225.3195
G3 X224.8195 Y36.0053 I0.0 J-0.5
G1 Y33.2593
G3 X225.3195 Y32.7593 I0.5 J0.0
G1 X252.6925
G1 Y31.5
G1 Y30.5 Z-2.0
G1 Y29.5
G1 Y28.5 Z-4.0
G1 Y27.1675
G1 X245.2237
G1 X244.6925
G1 X244.2809
G1 X243.9603
G1 X243.0212
G1 X242.1925
G1 X241.3638
G1 X240.4247
G1 X234.2648
G1 X232.5686
G1 X216.657
G1 X215.6851
G1 X215.5554
G1 X214.6999 Z-2.289
G1 X214.5554 Z-2.0
G1 X213.728
G1 X213.5554
G1 X212.7957 Z-3.5193
G1 X212.5554 Z-4.0
G1 X211.9282
G1 X211.1493
G1 X210.48
G1 X209.9388
G1 X209.5406
G1 X209.2964
G1 X209.213
G1 X208.4709
G1 X206.2952
G1 X206.213
G1 X204.4403
G1 X201.1925
G3 X200.6925 Y26.6675 I0.0 J-0.5
G1 Y18.1675
G1 Y10.1675
G1 X199.1925
G1 X197.6925
G1 Y16.105
G1 Y22.5425
G1 Y27.3812
G1 Y27.5425
G3 X197.1925 Y28.0425 I-0.5 J0.0
G1 X196.1925
G1 X195.1925
G3 X194.6925 Y27.5425 I0.0 J-0.5
G1 Y25.5425
G1 Y24.0425
G1 X192.1925
G1 X189.6925
G1 Y26.0425
G1 Y27.0425 Z-2.0
G1 Y27.5425
G1 Y28.0425
G1 Y29.0425 Z-4.0
G1 Y31.0425
G1 X193.1925
G1 X197.1925
G3 X197.6925 Y31.5425 I0.0 J0.5
G1 Y32.482
G1 Y60.6675
G1 Y65.5062
G1 Y65.6675
G3 X197.1925 Y66.1675 I-0.5 J0.0
G1 X196.1925
G1 X195.1925
G3 X194.6925 Y65.6675 I0.0 J-0.5
G1 Y63.6675
G1 Y62.1675
G1 X192.1925
G1 X189.6925
G1 Y64.1675
G1 Y65.1675 Z-2.0
G1 Y65.6675
G1 Y66.1675
G1 Y67.1675 Z-4.0
G1 Y69.1675
G1 X193.1925
G1 X197.1925
G1 X200.6211
G1 X214.5
G1 X214.6999 Z-3.6003
G1 X215.1925 Z-2.615
G1 X215.5 Z-2.0
G1 X215.6851
G1 X216.5
G1 X216.657 Z-2.314
G1 X217.5 Z-4.0
G1 X217.5893
G1 X218.4567
G1 X219.2357
G1 X219.905
G1 X220.4462
G1 X220.8444
G1 X221.0886
G1 X221.172
G1 X222.4852
G1 X228.6925
G0 Z3.0
G0 X261.8675
G0 Z1.0
G1 F300.0 Z-0.6
G1 F1600.0 Y66.9028
G1 Y61.6675
G3 X262.3675 Y61.1675 I0.5 J0.0
G1 X266.294
G1 X268.3675
G3 X268.8675 Y61.6675 I0.0 J0.5
G1 Y63.0498
G1 Y65.1675
G1 X269.6763
G1 X269.8675
G1 Y64.2498
G1 Y64.0187
G1 Y60.6675
G1 Y39.8004
G1 Y32.4802
G1 Y32.0425
G1 X265.1321
G1 X262.3675
G3 X261.8675 Y31.5425 I0.0 J-0.5
G1 Y28.7778
G1 Y23.5425
G3 X262.3675 Y23.0425 I0.5 J0.0
G1 X266.294
G1 X268.3675
G3 X268.8675 Y23.5425 I0.0 J0.5
G1 Y24.9248
G1 Y27.0425
G1 X269.6763
G1 X269.8675
G1 Y26.1248
G1 Y25.8937
G1 Y22.5425
G1 Y14.126
G1 Y9.6675
G3 X270.3675 Y9.1675 I0.5 J0.0
G1 X271.7527
G1 X274.3675
G3 X274.8675 Y9.6675 I0.0 J0.5
G1 Y20.7805
G1 Y26.1675
G1 X278.6138
G1 X279.388
G1 X279.5172
G1 X280.4295
G1 X281.4388
G1 X281.8725
G1 X282.0735
G1 X282.93
G1 X283.2811
G1 X284.4807
G1 X284.9313
G1 X286.3416
G1 X286.8466
G1 X288.2984
G1 X288.8204
G1 X303.6825
G1 X306.437
G1 X308.9507
G1 X309.7519
G1 X310.6268
G1 X315.0051
G1 X315.3675
G1 X315.7299
G1 X317.1353
G1 X317.296
G1 X317.8675
G1 X318.9313
G1 X320.06
G1 X326.3675
G3 X326.8675 Y26.6675 I0.0 J0.5
G1 Y33.1093
G3 X326.8663 Y33.1436 I-0.5 J0.0
G1 X326.856 Y33.2936
G3 X326.3572 Y33.7593 I-0.4988 J-0.0343
G1 X298.9945
G1 Y35.5053
G1 X326.3572
G3 X326.856 Y35.9711 I0.0 J0.5
G1 X326.8663 Y36.1211
G3 X326.8675 Y36.1553 I-0.4988 J0.0343
G1 Y42.3565
G1 Y48.2642
G3 X326.8663 Y48.2985 I-0.5 J0.0
G1 X326.856 Y48.4485
G3 X326.3572 Y48.9142 I-0.4988 J-0.0343
G1 X298.9945
G1 Y50.6602
G1 X302.3572
G3 X302.856 Y51.126 I0.0 J0.5
G1 X302.8663 Y51.276
G3 X302.8675 Y51.3102 I-0.4988 J0.0343
G1 Y63.0879
G1 Y64.3273
G3 X302.8663 Y64.3616 I-0.5 J0.0
G1 X302.856 Y64.5116
G3 X302.3572 Y64.9773 I-0.4988 J-0.0343
G1 X282.9945
G1 Y66.7233
G1 X302.3572
G3 X302.856 Y67.1891 I0.0 J0.5
G1 X302.8663 Y67.3391
G3 X302.8675 Y67.3733 I-0.4988 J0.0343
G1 Y69.6675
G3 X302.3675 Y70.1675 I-0.5 J0.0
G1 X295.4602
G1 X293.3903
G1 X293.2886
G1 X293.0555
G1 X292.7645
G1 X292.1038
G1 X291.6782
G1 X290.6388
G1 X290.1392
G1 X288.8204
G1 X288.2984
G1 X286.8466
G1 X277.1114
G1 X270.3675
G1 X265.1321
G1 X262.3675
G3 X261.8675 Y69.6675 I0.0 J-0.5
G1 Y69.1675
G1 F300.0 Z-1.2
G1 F1600.0 Y66.9028
G1 Y61.6675
G3 X262.3675 Y61.1675 I0.5 J0.0
G1 X266.294
G1 X268.3675
G3 X268.8675 Y61.6675 I0.0 J0.5
G1 Y63.0498
G1 Y65.1675
G1 X269.6763
G1 X269.8675
G1 Y64.2498
G1 Y64.0187
G1 Y60.6675
G1 Y39.8004
G1 Y32.4802
G1 Y32.0425
G1 X265.1321
G1 X262.3675
G3 X261.8675 Y31.5425 I0.0 J-0.5
G1 Y28.7778
G1 Y23.5425
G3 X262.3675 Y23.0425 I0.5 J0.0
G1 X266.294
G1 X268.3675
G3 X268.8675 Y23.5425 I0.0 J0.5
G1 Y24.9248
G1 Y27.0425
G1 X269.6763
G1 X269.8675
G1 Y26.1248
G1 Y25.8937
G1 Y22.5425
G1 Y14.126
G1 Y9.6675
G3 X270.3675 Y9.1675 I0.5 J0.0
G1 X271.7527
G1 X274.3675
G3 X274.8675 Y9.6675 I0.0 J0.5
G1 Y20.7805
G1 Y26.1675
G1 X278.6138
G1 X279.388
G1 X279.5172
G1 X280.4295
G1 X281.4388
G1 X281.8725
G1 X282.0735
G1 X282.93
G1 X283.2811
G1 X284.4807
G1 X284.9313
G1 X286.3416
G1 X286.8466
G1 X288.2984
G1 X288.8204
G1 X303.6825
G1 X306.437
G1 X308.9507
G1 X309.7519
G1 X310.6268
G1 X315.0051
G1 X315.3675
G1 X315.7299
G1 X317.1353
G1 X317.296
G1 X317.8675
G1 X318.9313
G1 X320.06
G1 X326.3675
G3 X326.8675 Y26.6675 I0.0 J0.5
G1 Y33.1093
G3 X326.8663 Y33.1436 I-0.5 J0.0
G1 X326.856 Y33.2936
G3 X326.3572 Y33.7593 I-0.4988 J-0.0343
G1 X298.9945
G1 Y35.5053
G1 X326.3572
G3 X326.856 Y35.9711 I0.0 J0.5
G1 X326.8663 Y36.1211
G3 X326.8675 Y36.1553 I-0.4988 J0.0343
G1 Y42.3565
G1 Y48.2642
G3 X326.8663 Y48.2985 I-0.5 J0.0
G1 X326.856 Y48.4485
G3 X326.3572 Y48.9142 I-0.4988 J-0.0343
G1 X298.9945
G1 Y50.6602
G1 X302.3572
G3 X302.856 Y51.126 I0.0 J0.5
G1 X302.8663 Y51.276
G3 X302.8675 Y51.3102 I-0.4988 J0.0343
G1 Y63.0879
G1 Y64.3273
G3 X302.8663 Y64.3616 I-0.5 J0.0
G1 X302.856 Y64.5116
G3 X302.3572 Y64.9773 I-0.4988 J-0.0343
G1 X282.9945
G1 Y66.7233
G1 X302.3572
G3 X302.856 Y67.1891 I0.0 J0.5
G1 X302.8663 Y67.3391
G3 X302.8675 Y67.3733 I-0.4988 J0.0343
G1 Y69.6675
G3 X302.3675 Y70.1675 I-0.5 J0.0
G1 X295.4602
G1 X293.3903
G1 X293.2886
G1 X293.0555
G1 X292.7645
G1 X292.1038
G1 X291.6782
G1 X290.6388
G1 X290.1392
G1 X288.8204
G1 X288.2984
G1 X286.8466
G1 X277.1114
G1 X270.3675
G1 X265.1321
G1 X262.3675
G3 X261.8675 Y69.6675 I0.0 J-0.5
G1 Y69.1675
G1 F300.0 Z-1.8
G1 F1600.0 Y66.9028
G1 Y61.6675
G3 X262.3675 Y61.1675 I0.5 J0.0
G1 X266.294
G1 X268.3675
G3 X268.8675 Y61.6675 I0.0 J0.5
G1 Y63.0498
G1 Y65.1675
G1 X269.6763
G1 X269.8675
G1 Y64.2498
G1 Y64.0187
G1 Y60.6675
G1 Y39.8004
G1 Y32.4802
G1 Y32.0425
G1 X265.1321
G1 X262.3675
G3 X261.8675 Y31.5425 I0.0 J-0.5
G1 Y28.7778
G1 Y23.5425
G3 X262.3675 Y23.0425 I0.5 J0.0
G1 X266.294
G1 X268.3675
G3 X268.8675 Y23.5425 I0.0 J0.5
G1 Y24.9248
G1 Y27.0425
G1 X269.6763
G1 X269.8675
G1 Y26.1248
G1 Y25.8937
G1 Y22.5425
G1 Y14.126
G1 Y9.6675
G3 X270.3675 Y9.1675 I0.5 J0.0
G1 X271.7527
G1 X274.3675
G3 X274.8675 Y9.6675 I0.0 J0.5
G1 Y20.7805
G1 Y26.1675
G1 X278.6138
G1 X279.388
G1 X279.5172
G1 X280.4295
G1 X281.4388
G1 X281.8725
G1 X282.0735
G1 X282.93
G1 X283.2811
G1 X284.4807
G1 X284.9313
G1 X286.3416
G1 X286.8466
G1 X288.2984
G1 X288.8204
G1 X303.6825
G1 X306.437
G1 X308.9507
G1 X309.7519
G1 X310.6268
G1 X315.0051
G1 X315.3675
G1 X315.7299
G1 X317.1353
G1 X317.296
G1 X317.8675
G1 X318.9313
G1 X320.06
G1 X326.3675
G3 X326.8675 Y26.6675 I0.0 J0.5
G1 Y33.1093
G3 X326.8663 Y33.1436 I-0.5 J0.0
G1 X326.856 Y33.2936
G3 X326.3572 Y33.7593 I-0.4988 J-0.0343
G1 X298.9945
G1 Y35.5053
G1 X326.3572
G3 X326.856 Y35.9711 I0.0 J0.5
G1 X326.8663 Y36.1211
G3 X326.8675 Y36.1553 I-0.4988 J0.0343
G1 Y42.3565
G1 Y48.2642
G3 X326.8663 Y48.2985 I-0.5 J0.0
G1 X326.856 Y48.4485
G3 X326.3572 Y48.9142 I-0.4988 J-0.0343
G1 X298.9945
G1 Y50.6602
G1 X302.3572
G3 X302.856 Y51.126 I0.0 J0.5
G1 X302.8663 Y51.276
G3 X302.8675 Y51.3102 I-0.4988 J0.0343
G1 Y63.0879
G1 Y64.3273
G3 X302.8663 Y64.3616 I-0.5 J0.0
G1 X302.856 Y64.5116
G3 X302.3572 Y64.9773 I-0.4988 J-0.0343
G1 X282.9945
G1 Y66.7233
G1 X302.3572
G3 X302.856 Y67.1891 I0.0 J0.5
G1 X302.8663 Y67.3391
G3 X302.8675 Y67.3733 I-0.4988 J0.0343
G1 Y69.6675
G3 X302.3675 Y70.1675 I-0.5 J0.0
G1 X295.4602
G1 X293.3903
G1 X293.2886
G1 X293.0555
G1 X292.7645
G1 X292.1038
G1 X291.6782
G1 X290.6388
G1 X290.1392
G1 X288.8204
G1 X288.2984
G1 X286.8466
G1 X277.1114
G1 X270.3675
G1 X265.1321
G1 X262.3675
G3 X261.8675 Y69.6675 I0.0 J-0.5
G1 Y69.1675
G1 F300.0 Z-2.4
G1 F1600.0 Y66.9028
G1 Y66.8967
G1 Y65.8967 Z-2.0
G1 Y64.8967
G1 Y63.8967 Z-2.4
G1 Y61.6675
G3 X262.3675 Y61.1675 I0.5 J0.0
G1 X266.294
G1 X268.3675
G3 X268.8675 Y61.6675 I0.0 J0.5
G1 Y63.0498
G1 Y65.1675
G1 X269.6763
G1 X269.8675
G1 Y64.2498
G1 Y64.0187
G1 Y60.6675
G1 Y39.8004
G1 Y32.4802
G1 Y32.0425
G1 X265.1321
G1 X262.3675
G3 X261.8675 Y31.5425 I0.0 J-0.5
G1 Y29.5
G1 Y28.7778 Z-2.1111
G1 Y28.5 Z-2.0
G1 Y27.5
G1 Y26.5 Z-2.4
G1 Y23.5425
G3 X262.3675 Y23.0425 I0.5 J0.0
G1 X266.294
G1 X268.3675
G3 X268.8675 Y23.5425 I0.0 J0.5
G1 Y24.9248
G1 Y27.0425
G1 X269.6763
G1 X269.8675
G1 Y26.1248
G1 Y25.8937
G1 Y22.5425
G1 Y14.126
G1 Y9.6675
G3 X270.3675 Y9.1675 I0.5 J0.0
G1 X271.7527
G1 X274.3675
G3 X274.8675 Y9.6675 I0.0 J0.5
G1 Y20.7805
G1 Y26.1675
G1 X278.6138
G1 X279.388
G1 X279.5172
G1 X280.4295
G1 X281.4388
G1 X281.8725
G1 X282.0735
G1 X282.93
G1 X283.2811
G1 X283.8644
G1 X284.4807 Z-2.1535
G1 X284.8644 Z-2.0
G1 X284.9313
G1 X285.8644
G1 X286.3416 Z-2.1909
G1 X286.8466 Z-2.3929
G1 X286.8644 Z-2.4
G1 X288.2984
G1 X288.8204
G1 X303.6825
G1 X306.437
G1 X308.9507
G1 X309.7519
G1 X310.6268
G1 X315.0051
G1 X315.3675
G1 X315.7299
G1 X317.1353
G1 X317.296
G1 X317.8675
G1 X318.9313
G1 X320.06
G1 X326.3675
G3 X326.8675 Y26.6675 I0.0 J0.5
G1 Y27.5
G1 Y28.5 Z-2.0
G1 Y29.5
G1 Y30.5 Z-2.4
G1 Y33.1093
G3 X326.8663 Y33.1436 I-0.5 J0.0
G1 X326.856 Y33.2936
G3 X326.3572 Y33.7593 I-0.4988 J-0.0343
G1 X298.9945
G1 Y35.5053
G1 X326.3572
G3 X326.856 Y35.9711 I0.0 J0.5
G1 X326.8663 Y36.1211
G3 X326.8675 Y36.1553 I-0.4988 J0.0343
G1 Y42.3565
G1 Y42.5
G1 Y43.5 Z-2.0
G1 Y44.5
G1 Y45.5 Z-2.4
G1 Y48.2642
G3 X326.8663 Y48.2985 I-0.5 J0.0
G1 X326.856 Y48.4485
G3 X326.3572 Y48.9142 I-0.4988 J-0.0343
G1 X298.9945
G1 Y50.6602
G1 X302.3572
G3 X302.856 Y51.126 I0.0 J0.5
G1 X302.8663 Y51.276
G3 X302.8675 Y51.3102 I-0.4988 J0.0343
G1 Y63.0879
G1 Y64.3273
G3 X302.8663 Y64.3616 I-0.5 J0.0
G1 X302.856 Y64.5116
G3 X302.3572 Y64.9773 I-0.4988 J-0.0343
G1 X282.9945
G1 Y66.7233
G1 X302.3572
G3 X302.856 Y67.1891 I0.0 J0.5
G1 X302.8663 Y67.3391
G3 X302.8675 Y67.3733 I-0.4988 J0.0343
G1 Y69.6675
G3 X302.3675 Y70.1675 I-0.5 J0.0
G1 X295.4602
G1 X293.3903
G1 X293.2886
G1 X293.0555
G1 X292.7645
G1 X292.1038
G1 X291.6782
G1 X290.6388
G1 X290.1392
G1 X288.8204
G1 X288.2984
G1 X286.8466
G1 X286.5
G1 X285.5 Z-2.0
G1 X284.5
G1 X283.5 Z-2.4
G1 X277.1114
G1 X270.3675
G1 X265.1321
G1 X262.3675
G3 X261.8675 Y69.6675 I0.0 J-0.5
G1 Y69.1675
G1 F300.0 Z-3.0
G1 F1600.0 Y66.9028
G1 Y66.8967
G1 Y65.8967 Z-2.0
G1 Y64.8967
G1 Y63.8967 Z-3.0
G1 Y61.6675
G3 X262.3675 Y61.1675 I0.5 J0.0
G1 X266.294
G1 X268.3675
G3 X268.8675 Y61.6675 I0.0 J0.5
G1 Y63.0498
G1 Y65.1675
G1 X269.6763
G1 X269.8675
G1 Y64.2498
G1 Y64.0187
G1 Y60.6675
G1 Y39.8004
G1 Y32.4802
G1 Y32.0425
G1 X265.1321
G1 X262.3675
G3 X261.8675 Y31.5425 I0.0 J-0.5
G1 Y29.5
G1 Y28.7778 Z-2.2778
G1 Y28.5 Z-2.0
G1 Y27.5
G1 Y26.5 Z-3.0
G1 Y23.5425
G3 X262.3675 Y23.0425 I0.5 J0.0
G1 X266.294
G1 X268.3675
G3 X268.8675 Y23.5425 I0.0 J0.5
G1 Y24.9248
G1 Y27.0425
G1 X269.6763
G1 X269.8675
G1 Y26.1248
G1 Y25.8937
G1 Y22.5425
G1 Y14.126
G1 Y9.6675
G3 X270.3675 Y9.1675 I0.5 J0.0
G1 X271.7527
G1 X274.3675
G3 X274.8675 Y9.6675 I0.0 J0.5
G1 Y20.7805
G1 Y26.1675
G1 X278.6138
G1 X279.388
G1 X279.5172
G1 X280.4295
G1 X281.4388
G1 X281.8725
G1 X282.0735
G1 X282.93
G1 X283.2811
G1 X283.8644
G1 X284.4807 Z-2.3838
G1 X284.8644 Z-2.0
G1 X284.9313
G1 X285.8644
G1 X286.3416 Z-2.4771
G1 X286.8466 Z-2.9822
G1 X286.8644 Z-3.0
G1 X288.2984
G1 X288.8204
G1 X303.6825
G1 X306.437
G1 X308.9507
G1 X309.7519
G1 X310.6268
G1 X315.0051
G1 X315.3675
G1 X315.7299
G1 X317.1353
G1 X317.296
G1 X317.8675
G1 X318.9313
G1 X320.06
G1 X326.3675
G3 X326.8675 Y26.6675 I0.0 J0.5
G1 Y27.5
G1 Y28.5 Z-2.0
G1 Y29.5
G1 Y30.5 Z-3.0
G1 Y33.1093
G3 X326.8663 Y33.1436 I-0.5 J0.0
G1 X326.856 Y33.2936
G3 X326.3572 Y33.7593 I-0.4988 J-0.0343
G1 X298.9945
G1 Y35.5053
G1 X326.3572
G3 X326.856 Y35.9711 I0.0 J0.5
G1 X326.8663 Y36.1211
G3 X326.8675 Y36.1553 I-0.4988 J0.0343
G1 Y42.3565
G1 Y42.5
G1 Y43.5 Z-2.0
G1 Y44.5
G1 Y45.5 Z-3.0
G1 Y48.2642
G3 X326.8663 Y48.2985 I-0.5 J0.0
G1 X326.856 Y48.4485
G3 X326.3572 Y48.9142 I-0.4988 J-0.0343
G1 X298.9945
G1 Y50.6602
G1 X302.3572
G3 X302.856 Y51.126 I0.0 J0.5
G1 X302.8663 Y51.276
G3 X302.8675 Y51.3102 I-0.4988 J0.0343
G1 Y63.0879
G1 Y64.3273
G3 X302.8663 Y64.3616 I-0.5 J0.0
G1 X302.856 Y64.5116
G3 X302.3572 Y64.9773 I-0.4988 J-0.0343
G1 X282.9945
G1 Y66.7233
G1 X302.3572
G3 X302.856 Y67.1891 I0.0 J0.5
G1 X302.8663 Y67.3391
G3 X302.8675 Y67.3733 I-0.4988 J0.0343
G1 Y69.6675
G3 X302.3675 Y70.1675 I-0.5 J0.0
G1 X295.4602
G1 X293.3903
G1 X293.2886
G1 X293.0555
G1 X292.7645
G1 X292.1038
G1 X291.6782
G1 X290.6388
G1 X290.1392
G1 X288.8204
G1 X288.2984
G1 X286.8466
G1 X286.5
G1 X285.5 Z-2.0
G1 X284.5
G1 X283.5 Z-3.0
G1 X277.1114
G1 X270.3675
G1 X265.1321
G1 X262.3675
G3 X261.8675 Y69.6675 I0.0 J-0.5
G1 Y69.1675
G1 F300.0 Z-3.6
G1 F1600.0 Y66.9028
G1 Y66.8967
G1 Y65.8967 Z-2.0
G1 Y64.8967
G1 Y63.8967 Z-3.6
G1 Y61.6675
G3 X262.3675 Y61.1675 I0.5 J0.0
G1 X266.294
G1 X268.3675
G3 X268.8675 Y61.6675 I0.0 J0.5
G1 Y63.0498
G1 Y65.1675
G1 X269.6763
G1 X269.8675
G1 Y64.2498
G1 Y64.0187
G1 Y60.6675
G1 Y39.8004
G1 Y32.4802
G1 Y32.0425
G1 X265.1321
G1 X262.3675
G3 X261.8675 Y31.5425 I0.0 J-0.5
G1 Y29.5
G1 Y28.7778 Z-2.4445
G1 Y28.5 Z-2.0
G1 Y27.5
G1 Y26.5 Z-3.6
G1 Y23.5425
G3 X262.3675 Y23.0425 I0.5 J0.0
G1 X266.294
G1 X268.3675
G3 X268.8675 Y23.5425 I0.0 J0.5
G1 Y24.9248
G1 Y27.0425
G1 X269.6763
G1 X269.8675
G1 Y26.1248
G1 Y25.8937
G1 Y22.5425
G1 Y14.126
G1 Y9.6675
G3 X270.3675 Y9.1675 I0.5 J0.0
G1 X271.7527
G1 X274.3675
G3 X274.8675 Y9.6675 I0.0 J0.5
G1 Y20.7805
G1 Y26.1675
G1 X278.6138
G1 X279.388
G1 X279.5172
G1 X280.4295
G1 X281.4388
G1 X281.8725
G1 X282.0735
G1 X282.93
G1 X283.2811
G1 X283.8644
G1 X284.4807 Z-2.614
G1 X284.8644 Z-2.0
G1 X284.9313
G1 X285.8644
G1 X286.3416 Z-2.7634
G1 X286.8466 Z-3.5715
G1 X286.8644 Z-3.6
G1 X288.2984
G1 X288.8204
G1 X303.6825
G1 X306.437
G1 X308.9507
G1 X309.7519
G1 X310.6268
G1 X315.0051
G1 X315.3675
G1 X315.7299
G1 X317.1353
G1 X317.296
G1 X317.8675
G1 X318.9313
G1 X320.06
G1 X326.3675
G3 X326.8675 Y26.6675 I0.0 J0.5
G1 Y27.5
G1 Y28.5 Z-2.0
G1 Y29.5
G1 Y30.5 Z-3.6
G1 Y33.1093
G3 X326.8663 Y33.1436 I-0.5 J0.0
G1 X326.856 Y33.2936
G3 X326.3572 Y33.7593 I-0.4988 J-0.0343
G1 X298.9945
G1 Y35.5053
G1 X326.3572
G3 X326.856 Y35.9711 I0.0 J0.5
G1 X326.8663 Y36.1211
G3 X326.8675 Y36.1553 I-0.4988 J0.0343
G1 Y42.3565
G1 Y42.5
G1 Y43.5 Z-2.0
G1 Y44.5
G1 Y45.5 Z-3.6
G1 Y48.2642
G3 X326.8663 Y48.2985 I-0.5 J0.0
G1 X326.856 Y48.4485
G3 X326.3572 Y48.9142 I-0.4988 J-0.0343
G1 X298.9945
G1 Y50.6602
G1 X302.3572
G3 X302.856 Y51.126 I0.0 J0.5
G1 X302.8663 Y51.276
G3 X302.8675 Y51.3102 I-0.4988 J0.0343
G1 Y63.0879
G1 Y64.3273
G3 X302.8663 Y64.3616 I-0.5 J0.0
G1 X302.856 Y64.5116
G3 X302.3572 Y64.9773 I-0.4988 J-0.0343
G1 X282.9945
G1 Y66.7233
G1 X302.3572
G3 X302.856 Y67.1891 I0.0 J0.5
G1 X302.8663 Y67.3391
G3 X302.8675 Y67.3733 I-0.4988 J0.0343
G1 Y69.6675
G3 X302.3675 Y70.1675 I-0.5 J0.0
G1 X295.4602
G1 X293.3903
G1 X293.2886
G1 X293.0555
G1 X292.7645
G1 X292.1038
G1 X291.6782
G1 X290.6388
G1 X290.1392
G1 X288.8204
G1 X288.2984
G1 X286.8466
G1 X286.5
G1 X285.5 Z-2.0
G1 X284.5
G1 X283.5 Z-3.6
G1 X277.1114
G1 X270.3675
G1 X265.1321
G1 X262.3675
G3 X261.8675 Y69.6675 I0.0 J-0.5
G1 Y69.1675
G1 F300.0 Z-4.0
G1 F1600.0 Y66.9028
G1 Y66.8967
G1 Y65.8967 Z-2.0
G1 Y64.8967
G1 Y63.8967 Z-4.0
G1 Y61.6675
G3 X262.3675 Y61.1675 I0.5 J0.0
G1 X266.294
G1 X268.3675
G3 X268.8675 Y61.6675 I0.0 J0.5
G1 Y63.0498
G1 Y65.1675
G1 X269.6763
G1 X269.8675
G1 Y64.2498
G1 Y64.0187
G1 Y60.6675
G1 Y39.8004
G1 Y32.4802
G1 Y32.0425
G1 X265.1321
G1 X262.3675
G3 X261.8675 Y31.5425 I0.0 J-0.5
G1 Y29.5
G1 Y28.7778 Z-2.5557
G1 Y28.5 Z-2.0
G1 Y27.5
G1 Y26.5 Z-4.0
G1 Y23.5425
G3 X262.3675 Y23.0425 I0.5 J0.0
G1 X266.294
G1 X268.3675
G3 X268.8675 Y23.5425 I0.0 J0.5
G1 Y24.9248
G1 Y27.0425
G1 X269.6763
G1 X269.8675
G1 Y26.1248
G1 Y25.8937
G1 Y22.5425
G1 Y14.126
G1 Y9.6675
G3 X270.3675 Y9.1675 I0.5 J0.0
G1 X271.7527
G1 X274.3675
G3 X274.8675 Y9.6675 I0.0 J0.5
G1 Y20.7805
G1 Y26.1675
G1 X278.6138
G1 X279.388
G1 X279.5172
G1 X280.4295
G1 X281.4388
G1 X281.8725
G1 X282.0735
G1 X282.93
G1 X283.2811
G1 X283.8644
G1 X284.4807 Z-2.7675
G1 X284.8644 Z-2.0
G1 X284.9313
G1 X285.8644
G1 X286.3416 Z-2.9543
G1 X286.8466 Z-3.9644
G1 X286.8644 Z-4.0
G1 X288.2984
G1 X288.8204
G1 X303.6825
G1 X306.437
G1 X308.9507
G1 X309.7519
G1 X310.6268
G1 X315.0051
G1 X315.3675
G1 X315.7299
G1 X317.1353
G1 X317.296
G1 X317.8675
G1 X318.9313
G1 X320.06
G1 X326.3675
G3 X326.8675 Y26.6675 I0.0 J0.5
G1 Y27.5
G1 Y28.5 Z-2.0
G1 Y29.5
G1 Y30.5 Z-4.0
G1 Y33.1093
G3 X326.8663 Y33.1436 I-0.5 J0.0
G1 X326.856 Y33.2936
G3 X326.3572 Y33.7593 I-0.4988 J-0.0343
G1 X298.9945
G1 Y35.5053
G1 X326.3572
G3 X326.856 Y35.9711 I0.0 J0.5
G1 X326.8663 Y36.1211
G3 X326.8675 Y36.1553 I-0.4988 J0.0343
G1 Y42.3565
G1 Y42.5
G1 Y43.5 Z-2.0
G1 Y44.5
G1 Y45.5 Z-4.0
G1 Y48.2642
G3 X326.8663 Y48.2985 I-0.5 J0.0
G1 X326.856 Y48.4485
G3 X326.3572 Y48.9142 I-0.4988 J-0.0343
G1 X298.9945
G1 Y50.6602
G1 X302.3572
G3 X302.856 Y51.126 I0.0 J0.5
G1 X302.8663 Y51.276
G3 X302.8675 Y51.3102 I-0.4988 J0.0343
G1 Y63.0879
G1 Y64.3273
G3 X302.8663 Y64.3616 I-0.5 J0.0
G1 X302.856 Y64.5116
G3 X302.3572 Y64.9773 I-0.4988 J-0.0343
G1 X282.9945
G1 Y66.7233
G1 X302.3572
G3 X302.856 Y67.1891 I0.0 J0.5
G1 X302.8663 Y67.3391
G3 X302.8675 Y67.3733 I-0.4988 J0.0343
G1 Y69.6675
G3 X302.3675 Y70.1675 I-0.5 J0.0
G1 X295.4602
G1 X293.3903
G1 X293.2886
G1 X293.0555
G1 X292.7645
G1 X292.1038
G1 X291.6782
G1 X290.6388
G1 X290.1392
G1 X288.8204
G1 X288.2984
G1 X286.8466
G1 X286.5
G1 X285.5 Z-2.0
G1 X284.5
G1 X283.5 Z-4.0
G1 X277.1114
G1 X270.3675
G1 X265.1321
G1 X262.3675
G3 X261.8675 Y69.6675 I0.0 J-0.5
G1 Y69.1675
G0 Z3.0
M5
M30
