( Made using CamBam - http://www.cambam.co.uk )
( tournevis2 7/21/2017 6:29:14 PM )
G0 Z3.0
M3 S1000
G0 X21.5419 Y238.1369
G0 Z1.0
G1 F300.0 Z-0.6
G1 F1200.0 X22.8839 Y238.8631
G1 X23.1624 Y238.9095
G1 X24.6675 Y239.1606
G1 X24.9461 Y239.1141
G1 X26.4511 Y238.8631
G1 X26.6995 Y238.7287
G1 X28.0415 Y238.0025
G1 X29.0749 Y236.88
G1 X29.2661 Y236.6723
G1 X29.879 Y235.2748
G1 X29.9925 Y235.0161
G1 X30.1185 Y233.4957
G1 X30.1418 Y233.2144
G1 X29.7672 Y231.735
G1 X29.6979 Y231.4611
G1 X28.8633 Y230.1836
G1 X28.7088 Y229.9471
G1 X28.486 Y229.7737
G1 X27.2819 Y228.8365
G1 X27.0148 Y228.7448
G1 X25.5717 Y228.2493
G1 X25.2892
G1 X23.7633
G1 X23.4962 Y228.341
G1 X22.0531 Y228.8365
G1 X21.8302 Y229.01
G1 X20.6262 Y229.9471
G1 X19.7916 Y231.2247
G1 X19.6371 Y231.4611
G1 X19.2625 Y232.9405
G1 X19.1932 Y233.2144
G1 X19.3192 Y234.7347
G1 X19.3425 Y235.0161
G1 X19.9554 Y236.4136
G1 X20.0689 Y236.6723
G1 X21.1023 Y237.7947
G1 X21.2935 Y238.0025
G1 X21.5419 Y238.1369
G1 F300.0 Z-1.2
G1 F1200.0 X22.8839 Y238.8631
G1 X23.1624 Y238.9095
G1 X24.6675 Y239.1606
G1 X24.9461 Y239.1141
G1 X26.4511 Y238.8631
G1 X26.6995 Y238.7287
G1 X28.0415 Y238.0025
G1 X29.0749 Y236.88
G1 X29.2661 Y236.6723
G1 X29.879 Y235.2748
G1 X29.9925 Y235.0161
G1 X30.1185 Y233.4957
G1 X30.1418 Y233.2144
G1 X29.7672 Y231.735
G1 X29.6979 Y231.4611
G1 X28.8633 Y230.1836
G1 X28.7088 Y229.9471
G1 X28.486 Y229.7737
G1 X27.2819 Y228.8365
G1 X27.0148 Y228.7448
G1 X25.5717 Y228.2493
G1 X25.2892
G1 X23.7633
G1 X23.4962 Y228.341
G1 X22.0531 Y228.8365
G1 X21.8302 Y229.01
G1 X20.6262 Y229.9471
G1 X19.7916 Y231.2247
G1 X19.6371 Y231.4611
G1 X19.2625 Y232.9405
G1 X19.1932 Y233.2144
G1 X19.3192 Y234.7347
G1 X19.3425 Y235.0161
G1 X19.9554 Y236.4136
G1 X20.0689 Y236.6723
G1 X21.1023 Y237.7947
G1 X21.2935 Y238.0025
G1 X21.5419 Y238.1369
G1 F300.0 Z-1.8
G1 F1200.0 X22.8839 Y238.8631
G1 X23.1624 Y238.9095
G1 X24.6675 Y239.1606
G1 X24.9461 Y239.1141
G1 X26.4511 Y238.8631
G1 X26.6995 Y238.7287
G1 X28.0415 Y238.0025
G1 X29.0749 Y236.88
G1 X29.2661 Y236.6723
G1 X29.879 Y235.2748
G1 X29.9925 Y235.0161
G1 X30.1185 Y233.4957
G1 X30.1418 Y233.2144
G1 X29.7672 Y231.735
G1 X29.6979 Y231.4611
G1 X28.8633 Y230.1836
G1 X28.7088 Y229.9471
G1 X28.486 Y229.7737
G1 X27.2819 Y228.8365
G1 X27.0148 Y228.7448
G1 X25.5717 Y228.2493
G1 X25.2892
G1 X23.7633
G1 X23.4962 Y228.341
G1 X22.0531 Y228.8365
G1 X21.8302 Y229.01
G1 X20.6262 Y229.9471
G1 X19.7916 Y231.2247
G1 X19.6371 Y231.4611
G1 X19.2625 Y232.9405
G1 X19.1932 Y233.2144
G1 X19.3192 Y234.7347
G1 X19.3425 Y235.0161
G1 X19.9554 Y236.4136
G1 X20.0689 Y236.6723
G1 X21.1023 Y237.7947
G1 X21.2935 Y238.0025
G1 X21.5419 Y238.1369
G1 F300.0 Z-2.4
G1 F1200.0 X22.8839 Y238.8631
G1 X23.1624 Y238.9095
G1 X24.6675 Y239.1606
G1 X24.9461 Y239.1141
G1 X26.4511 Y238.8631
G1 X26.6995 Y238.7287
G1 X28.0415 Y238.0025
G1 X29.0749 Y236.88
G1 X29.2661 Y236.6723
G1 X29.879 Y235.2748
G1 X29.9925 Y235.0161
G1 X30.1185 Y233.4957
G1 X30.1418 Y233.2144
G1 X29.7672 Y231.735
G1 X29.6979 Y231.4611
G1 X28.8633 Y230.1836
G1 X28.7088 Y229.9471
G1 X28.486 Y229.7737
G1 X27.2819 Y228.8365
G1 X27.0148 Y228.7448
G1 X25.5717 Y228.2493
G1 X25.2892
G1 X23.7633
G1 X23.4962 Y228.341
G1 X22.0531 Y228.8365
G1 X21.8302 Y229.01
G1 X20.6262 Y229.9471
G1 X19.7916 Y231.2247
G1 X19.6371 Y231.4611
G1 X19.2625 Y232.9405
G1 X19.1932 Y233.2144
G1 X19.3192 Y234.7347
G1 X19.3425 Y235.0161
G1 X19.9554 Y236.4136
G1 X20.0689 Y236.6723
G1 X21.1023 Y237.7947
G1 X21.2935 Y238.0025
G1 X21.5419 Y238.1369
G1 F300.0 Z-3.0
G1 F1200.0 X22.8839 Y238.8631
G1 X23.1624 Y238.9095
G1 X24.6675 Y239.1606
G1 X24.9461 Y239.1141
G1 X26.4511 Y238.8631
G1 X26.6995 Y238.7287
G1 X28.0415 Y238.0025
G1 X29.0749 Y236.88
G1 X29.2661 Y236.6723
G1 X29.879 Y235.2748
G1 X29.9925 Y235.0161
G1 X30.1185 Y233.4957
G1 X30.1418 Y233.2144
G1 X29.7672 Y231.735
G1 X29.6979 Y231.4611
G1 X28.8633 Y230.1836
G1 X28.7088 Y229.9471
G1 X28.486 Y229.7737
G1 X27.2819 Y228.8365
G1 X27.0148 Y228.7448
G1 X25.5717 Y228.2493
G1 X25.2892
G1 X23.7633
G1 X23.4962 Y228.341
G1 X22.0531 Y228.8365
G1 X21.8302 Y229.01
G1 X20.6262 Y229.9471
G1 X19.7916 Y231.2247
G1 X19.6371 Y231.4611
G1 X19.2625 Y232.9405
G1 X19.1932 Y233.2144
G1 X19.3192 Y234.7347
G1 X19.3425 Y235.0161
G1 X19.9554 Y236.4136
G1 X20.0689 Y236.6723
G1 X21.1023 Y237.7947
G1 X21.2935 Y238.0025
G1 X21.5419 Y238.1369
G1 F300.0 Z-3.6
G1 F1200.0 X22.8839 Y238.8631
G1 X23.1624 Y238.9095
G1 X24.6675 Y239.1606
G1 X24.9461 Y239.1141
G1 X26.4511 Y238.8631
G1 X26.6995 Y238.7287
G1 X28.0415 Y238.0025
G1 X29.0749 Y236.88
G1 X29.2661 Y236.6723
G1 X29.879 Y235.2748
G1 X29.9925 Y235.0161
G1 X30.1185 Y233.4957
G1 X30.1418 Y233.2144
G1 X29.7672 Y231.735
G1 X29.6979 Y231.4611
G1 X28.8633 Y230.1836
G1 X28.7088 Y229.9471
G1 X28.486 Y229.7737
G1 X27.2819 Y228.8365
G1 X27.0148 Y228.7448
G1 X25.5717 Y228.2493
G1 X25.2892
G1 X23.7633
G1 X23.4962 Y228.341
G1 X22.0531 Y228.8365
G1 X21.8302 Y229.01
G1 X20.6262 Y229.9471
G1 X19.7916 Y231.2247
G1 X19.6371 Y231.4611
G1 X19.2625 Y232.9405
G1 X19.1932 Y233.2144
G1 X19.3192 Y234.7347
G1 X19.3425 Y235.0161
G1 X19.9554 Y236.4136
G1 X20.0689 Y236.6723
G1 X21.1023 Y237.7947
G1 X21.2935 Y238.0025
G1 X21.5419 Y238.1369
G1 F300.0 Z-4.0
G1 F1200.0 X22.8839 Y238.8631
G1 X23.1624 Y238.9095
G1 X24.6675 Y239.1606
G1 X24.9461 Y239.1141
G1 X26.4511 Y238.8631
G1 X26.6995 Y238.7287
G1 X28.0415 Y238.0025
G1 X29.0749 Y236.88
G1 X29.2661 Y236.6723
G1 X29.879 Y235.2748
G1 X29.9925 Y235.0161
G1 X30.1185 Y233.4957
G1 X30.1418 Y233.2144
G1 X29.7672 Y231.735
G1 X29.6979 Y231.4611
G1 X28.8633 Y230.1836
G1 X28.7088 Y229.9471
G1 X28.486 Y229.7737
G1 X27.2819 Y228.8365
G1 X27.0148 Y228.7448
G1 X25.5717 Y228.2493
G1 X25.2892
G1 X23.7633
G1 X23.4962 Y228.341
G1 X22.0531 Y228.8365
G1 X21.8302 Y229.01
G1 X20.6262 Y229.9471
G1 X19.7916 Y231.2247
G1 X19.6371 Y231.4611
G1 X19.2625 Y232.9405
G1 X19.1932 Y233.2144
G1 X19.3192 Y234.7347
G1 X19.3425 Y235.0161
G1 X19.9554 Y236.4136
G1 X20.0689 Y236.6723
G1 X21.1023 Y237.7947
G1 X21.2935 Y238.0025
G1 X21.5419 Y238.1369
G0 Z3.0
G0 X49.3425 Y235.0161
G0 Z1.0
G1 F300.0 Z-0.6
G1 F1200.0 X49.8391 Y236.1483
G1 X50.0689 Y236.6723
G1 X50.9061 Y237.5816
G1 X51.2935 Y238.0025
G1 X51.7966 Y238.2747
G1 X52.8839 Y238.8631
G1 X53.4481 Y238.9572
G1 X54.6675 Y239.1606
G1 X55.2318 Y239.0665
G1 X56.4511 Y238.8631
G1 X56.9542 Y238.5908
G1 X58.0415 Y238.0025
G1 X58.8787 Y237.0931
G1 X59.2661 Y236.6723
G1 X59.7627 Y235.54
G1 X59.9925 Y235.0161
G1 X60.0946 Y233.7843
G1 X60.1418 Y233.2144
G1 X59.8383 Y232.0158
G1 X59.6979 Y231.4611
G1 X59.0217 Y230.4261
G1 X58.7088 Y229.9471
G1 X58.2574 Y229.5958
G1 X57.2819 Y228.8365
G1 X56.7409 Y228.6508
G1 X55.5716 Y228.2493
G1 X54.9996
G1 X53.7633
G1 X53.2223 Y228.4351
G1 X52.0531 Y228.8365
G1 X51.6017 Y229.1879
G1 X50.6262 Y229.9471
G1 X49.95 Y230.9822
G1 X49.6371 Y231.4611
G1 X49.3336 Y232.6597
G1 X49.1932 Y233.2144
G1 X49.2953 Y234.4461
G1 X49.3425 Y235.0161
G1 F300.0 Z-1.2
G1 F1200.0 X49.8391 Y236.1483
G1 X50.0689 Y236.6723
G1 X50.9061 Y237.5816
G1 X51.2935 Y238.0025
G1 X51.7966 Y238.2747
G1 X52.8839 Y238.8631
G1 X53.4481 Y238.9572
G1 X54.6675 Y239.1606
G1 X55.2318 Y239.0665
G1 X56.4511 Y238.8631
G1 X56.9542 Y238.5908
G1 X58.0415 Y238.0025
G1 X58.8787 Y237.0931
G1 X59.2661 Y236.6723
G1 X59.7627 Y235.54
G1 X59.9925 Y235.0161
G1 X60.0946 Y233.7843
G1 X60.1418 Y233.2144
G1 X59.8383 Y232.0158
G1 X59.6979 Y231.4611
G1 X59.0217 Y230.4261
G1 X58.7088 Y229.9471
G1 X58.2574 Y229.5958
G1 X57.2819 Y228.8365
G1 X56.7409 Y228.6508
G1 X55.5716 Y228.2493
G1 X54.9996
G1 X53.7633
G1 X53.2223 Y228.4351
G1 X52.0531 Y228.8365
G1 X51.6017 Y229.1879
G1 X50.6262 Y229.9471
G1 X49.95 Y230.9822
G1 X49.6371 Y231.4611
G1 X49.3336 Y232.6597
G1 X49.1932 Y233.2144
G1 X49.2953 Y234.4461
G1 X49.3425 Y235.0161
G1 F300.0 Z-1.8
G1 F1200.0 X49.8391 Y236.1483
G1 X50.0689 Y236.6723
G1 X50.9061 Y237.5816
G1 X51.2935 Y238.0025
G1 X51.7966 Y238.2747
G1 X52.8839 Y238.8631
G1 X53.4481 Y238.9572
G1 X54.6675 Y239.1606
G1 X55.2318 Y239.0665
G1 X56.4511 Y238.8631
G1 X56.9542 Y238.5908
G1 X58.0415 Y238.0025
G1 X58.8787 Y237.0931
G1 X59.2661 Y236.6723
G1 X59.7627 Y235.54
G1 X59.9925 Y235.0161
G1 X60.0946 Y233.7843
G1 X60.1418 Y233.2144
G1 X59.8383 Y232.0158
G1 X59.6979 Y231.4611
G1 X59.0217 Y230.4261
G1 X58.7088 Y229.9471
G1 X58.2574 Y229.5958
G1 X57.2819 Y228.8365
G1 X56.7409 Y228.6508
G1 X55.5716 Y228.2493
G1 X54.9996
G1 X53.7633
G1 X53.2223 Y228.4351
G1 X52.0531 Y228.8365
G1 X51.6017 Y229.1879
G1 X50.6262 Y229.9471
G1 X49.95 Y230.9822
G1 X49.6371 Y231.4611
G1 X49.3336 Y232.6597
G1 X49.1932 Y233.2144
G1 X49.2953 Y234.4461
G1 X49.3425 Y235.0161
G1 F300.0 Z-2.4
G1 F1200.0 X49.8391 Y236.1483
G1 X50.0689 Y236.6723
G1 X50.9061 Y237.5816
G1 X51.2935 Y238.0025
G1 X51.7966 Y238.2747
G1 X52.8839 Y238.8631
G1 X53.4481 Y238.9572
G1 X54.6675 Y239.1606
G1 X55.2318 Y239.0665
G1 X56.4511 Y238.8631
G1 X56.9542 Y238.5908
G1 X58.0415 Y238.0025
G1 X58.8787 Y237.0931
G1 X59.2661 Y236.6723
G1 X59.7627 Y235.54
G1 X59.9925 Y235.0161
G1 X60.0946 Y233.7843
G1 X60.1418 Y233.2144
G1 X59.8383 Y232.0158
G1 X59.6979 Y231.4611
G1 X59.0217 Y230.4261
G1 X58.7088 Y229.9471
G1 X58.2574 Y229.5958
G1 X57.2819 Y228.8365
G1 X56.7409 Y228.6508
G1 X55.5716 Y228.2493
G1 X54.9996
G1 X53.7633
G1 X53.2223 Y228.4351
G1 X52.0531 Y228.8365
G1 X51.6017 Y229.1879
G1 X50.6262 Y229.9471
G1 X49.95 Y230.9822
G1 X49.6371 Y231.4611
G1 X49.3336 Y232.6597
G1 X49.1932 Y233.2144
G1 X49.2953 Y234.4461
G1 X49.3425 Y235.0161
G1 F300.0 Z-3.0
G1 F1200.0 X49.8391 Y236.1483
G1 X50.0689 Y236.6723
G1 X50.9061 Y237.5816
G1 X51.2935 Y238.0025
G1 X51.7966 Y238.2747
G1 X52.8839 Y238.8631
G1 X53.4481 Y238.9572
G1 X54.6675 Y239.1606
G1 X55.2318 Y239.0665
G1 X56.4511 Y238.8631
G1 X56.9542 Y238.5908
G1 X58.0415 Y238.0025
G1 X58.8787 Y237.0931
G1 X59.2661 Y236.6723
G1 X59.7627 Y235.54
G1 X59.9925 Y235.0161
G1 X60.0946 Y233.7843
G1 X60.1418 Y233.2144
G1 X59.8383 Y232.0158
G1 X59.6979 Y231.4611
G1 X59.0217 Y230.4261
G1 X58.7088 Y229.9471
G1 X58.2574 Y229.5958
G1 X57.2819 Y228.8365
G1 X56.7409 Y228.6508
G1 X55.5716 Y228.2493
G1 X54.9996
G1 X53.7633
G1 X53.2223 Y228.4351
G1 X52.0531 Y228.8365
G1 X51.6017 Y229.1879
G1 X50.6262 Y229.9471
G1 X49.95 Y230.9822
G1 X49.6371 Y231.4611
G1 X49.3336 Y232.6597
G1 X49.1932 Y233.2144
G1 X49.2953 Y234.4461
G1 X49.3425 Y235.0161
G1 F300.0 Z-3.6
G1 F1200.0 X49.8391 Y236.1483
G1 X50.0689 Y236.6723
G1 X50.9061 Y237.5816
G1 X51.2935 Y238.0025
G1 X51.7966 Y238.2747
G1 X52.8839 Y238.8631
G1 X53.4481 Y238.9572
G1 X54.6675 Y239.1606
G1 X55.2318 Y239.0665
G1 X56.4511 Y238.8631
G1 X56.9542 Y238.5908
G1 X58.0415 Y238.0025
G1 X58.8787 Y237.0931
G1 X59.2661 Y236.6723
G1 X59.7627 Y235.54
G1 X59.9925 Y235.0161
G1 X60.0946 Y233.7843
G1 X60.1418 Y233.2144
G1 X59.8383 Y232.0158
G1 X59.6979 Y231.4611
G1 X59.0217 Y230.4261
G1 X58.7088 Y229.9471
G1 X58.2574 Y229.5958
G1 X57.2819 Y228.8365
G1 X56.7409 Y228.6508
G1 X55.5716 Y228.2493
G1 X54.9996
G1 X53.7633
G1 X53.2223 Y228.4351
G1 X52.0531 Y228.8365
G1 X51.6017 Y229.1879
G1 X50.6262 Y229.9471
G1 X49.95 Y230.9822
G1 X49.6371 Y231.4611
G1 X49.3336 Y232.6597
G1 X49.1932 Y233.2144
G1 X49.2953 Y234.4461
G1 X49.3425 Y235.0161
G1 F300.0 Z-4.0
G1 F1200.0 X49.8391 Y236.1483
G1 X50.0689 Y236.6723
G1 X50.9061 Y237.5816
G1 X51.2935 Y238.0025
G1 X51.7966 Y238.2747
G1 X52.8839 Y238.8631
G1 X53.4481 Y238.9572
G1 X54.6675 Y239.1606
G1 X55.2318 Y239.0665
G1 X56.4511 Y238.8631
G1 X56.9542 Y238.5908
G1 X58.0415 Y238.0025
G1 X58.8787 Y237.0931
G1 X59.2661 Y236.6723
G1 X59.7627 Y235.54
G1 X59.9925 Y235.0161
G1 X60.0946 Y233.7843
G1 X60.1418 Y233.2144
G1 X59.8383 Y232.0158
G1 X59.6979 Y231.4611
G1 X59.0217 Y230.4261
G1 X58.7088 Y229.9471
G1 X58.2574 Y229.5958
G1 X57.2819 Y228.8365
G1 X56.7409 Y228.6508
G1 X55.5716 Y228.2493
G1 X54.9996
G1 X53.7633
G1 X53.2223 Y228.4351
G1 X52.0531 Y228.8365
G1 X51.6017 Y229.1879
G1 X50.6262 Y229.9471
G1 X49.95 Y230.9822
G1 X49.6371 Y231.4611
G1 X49.3336 Y232.6597
G1 X49.1932 Y233.2144
G1 X49.2953 Y234.4461
G1 X49.3425 Y235.0161
G0 Z3.0
G0 X54.6675 Y207.6263
G0 Z1.0
G1 F300.0 Z-0.6
G1 F1200.0 X55.0628 Y207.4626
G1 X56.0526 Y207.0526
G1 X56.4626 Y206.0629
G1 X56.6263 Y205.6675
G1 X56.2163 Y204.6777
G1 X56.0526 Y204.2824
G1 X55.6573 Y204.1187
G1 X54.6675 Y203.7087
G1 X54.2722 Y203.8724
G1 X53.2824 Y204.2824
G1 X52.8724 Y205.2722
G1 X52.7087 Y205.6675
G1 X53.1186 Y206.6573
G1 X53.2824 Y207.0526
G1 X53.6777 Y207.2164
G1 X54.6675 Y207.6263
G1 F300.0 Z-1.2
G1 F1200.0 X55.0628 Y207.4626
G1 X56.0526 Y207.0526
G1 X56.4626 Y206.0629
G1 X56.6263 Y205.6675
G1 X56.2163 Y204.6777
G1 X56.0526 Y204.2824
G1 X55.6573 Y204.1187
G1 X54.6675 Y203.7087
G1 X54.2722 Y203.8724
G1 X53.2824 Y204.2824
G1 X52.8724 Y205.2722
G1 X52.7087 Y205.6675
G1 X53.1186 Y206.6573
G1 X53.2824 Y207.0526
G1 X53.6777 Y207.2164
G1 X54.6675 Y207.6263
G1 F300.0 Z-1.8
G1 F1200.0 X55.0628 Y207.4626
G1 X56.0526 Y207.0526
G1 X56.4626 Y206.0629
G1 X56.6263 Y205.6675
G1 X56.2163 Y204.6777
G1 X56.0526 Y204.2824
G1 X55.6573 Y204.1187
G1 X54.6675 Y203.7087
G1 X54.2722 Y203.8724
G1 X53.2824 Y204.2824
G1 X52.8724 Y205.2722
G1 X52.7087 Y205.6675
G1 X53.1186 Y206.6573
G1 X53.2824 Y207.0526
G1 X53.6777 Y207.2164
G1 X54.6675 Y207.6263
G1 F300.0 Z-2.4
G1 F1200.0 X55.0628 Y207.4626
G1 X56.0526 Y207.0526
G1 X56.4626 Y206.0629
G1 X56.6263 Y205.6675
G1 X56.2163 Y204.6777
G1 X56.0526 Y204.2824
G1 X55.6573 Y204.1187
G1 X54.6675 Y203.7087
G1 X54.2722 Y203.8724
G1 X53.2824 Y204.2824
G1 X52.8724 Y205.2722
G1 X52.7087 Y205.6675
G1 X53.1186 Y206.6573
G1 X53.2824 Y207.0526
G1 X53.6777 Y207.2164
G1 X54.6675 Y207.6263
G1 F300.0 Z-3.0
G1 F1200.0 X55.0628 Y207.4626
G1 X56.0526 Y207.0526
G1 X56.4626 Y206.0629
G1 X56.6263 Y205.6675
G1 X56.2163 Y204.6777
G1 X56.0526 Y204.2824
G1 X55.6573 Y204.1187
G1 X54.6675 Y203.7087
G1 X54.2722 Y203.8724
G1 X53.2824 Y204.2824
G1 X52.8724 Y205.2722
G1 X52.7087 Y205.6675
G1 X53.1186 Y206.6573
G1 X53.2824 Y207.0526
G1 X53.6777 Y207.2164
G1 X54.6675 Y207.6263
G1 F300.0 Z-3.6
G1 F1200.0 X55.0628 Y207.4626
G1 X56.0526 Y207.0526
G1 X56.4626 Y206.0629
G1 X56.6263 Y205.6675
G1 X56.2163 Y204.6777
G1 X56.0526 Y204.2824
G1 X55.6573 Y204.1187
G1 X54.6675 Y203.7087
G1 X54.2722 Y203.8724
G1 X53.2824 Y204.2824
G1 X52.8724 Y205.2722
G1 X52.7087 Y205.6675
G1 X53.1186 Y206.6573
G1 X53.2824 Y207.0526
G1 X53.6777 Y207.2164
G1 X54.6675 Y207.6263
G1 F300.0 Z-4.0
G1 F1200.0 X55.0628 Y207.4626
G1 X56.0526 Y207.0526
G1 X56.4626 Y206.0629
G1 X56.6263 Y205.6675
G1 X56.2163 Y204.6777
G1 X56.0526 Y204.2824
G1 X55.6573 Y204.1187
G1 X54.6675 Y203.7087
G1 X54.2722 Y203.8724
G1 X53.2824 Y204.2824
G1 X52.8724 Y205.2722
G1 X52.7087 Y205.6675
G1 X53.1186 Y206.6573
G1 X53.2824 Y207.0526
G1 X53.6777 Y207.2164
G1 X54.6675 Y207.6263
G0 Z3.0
G0 Y190.6263
G0 Z1.0
G1 F300.0 Z-0.6
G1 F1200.0 X55.0628 Y190.4626
G1 X56.0526 Y190.0526
G1 X56.4626 Y189.0629
G1 X56.6263 Y188.6675
G1 X56.2163 Y187.6777
G1 X56.0526 Y187.2824
G1 X55.6573 Y187.1187
G1 X54.6675 Y186.7087
G1 X54.2722 Y186.8724
G1 X53.2824 Y187.2824
G1 X52.8724 Y188.2722
G1 X52.7087 Y188.6675
G1 X53.1186 Y189.6573
G1 X53.2824 Y190.0526
G1 X53.6777 Y190.2164
G1 X54.6675 Y190.6263
G1 F300.0 Z-1.2
G1 F1200.0 X55.0628 Y190.4626
G1 X56.0526 Y190.0526
G1 X56.4626 Y189.0629
G1 X56.6263 Y188.6675
G1 X56.2163 Y187.6777
G1 X56.0526 Y187.2824
G1 X55.6573 Y187.1187
G1 X54.6675 Y186.7087
G1 X54.2722 Y186.8724
G1 X53.2824 Y187.2824
G1 X52.8724 Y188.2722
G1 X52.7087 Y188.6675
G1 X53.1186 Y189.6573
G1 X53.2824 Y190.0526
G1 X53.6777 Y190.2164
G1 X54.6675 Y190.6263
G1 F300.0 Z-1.8
G1 F1200.0 X55.0628 Y190.4626
G1 X56.0526 Y190.0526
G1 X56.4626 Y189.0629
G1 X56.6263 Y188.6675
G1 X56.2163 Y187.6777
G1 X56.0526 Y187.2824
G1 X55.6573 Y187.1187
G1 X54.6675 Y186.7087
G1 X54.2722 Y186.8724
G1 X53.2824 Y187.2824
G1 X52.8724 Y188.2722
G1 X52.7087 Y188.6675
G1 X53.1186 Y189.6573
G1 X53.2824 Y190.0526
G1 X53.6777 Y190.2164
G1 X54.6675 Y190.6263
G1 F300.0 Z-2.4
G1 F1200.0 X55.0628 Y190.4626
G1 X56.0526 Y190.0526
G1 X56.4626 Y189.0629
G1 X56.6263 Y188.6675
G1 X56.2163 Y187.6777
G1 X56.0526 Y187.2824
G1 X55.6573 Y187.1187
G1 X54.6675 Y186.7087
G1 X54.2722 Y186.8724
G1 X53.2824 Y187.2824
G1 X52.8724 Y188.2722
G1 X52.7087 Y188.6675
G1 X53.1186 Y189.6573
G1 X53.2824 Y190.0526
G1 X53.6777 Y190.2164
G1 X54.6675 Y190.6263
G1 F300.0 Z-3.0
G1 F1200.0 X55.0628 Y190.4626
G1 X56.0526 Y190.0526
G1 X56.4626 Y189.0629
G1 X56.6263 Y188.6675
G1 X56.2163 Y187.6777
G1 X56.0526 Y187.2824
G1 X55.6573 Y187.1187
G1 X54.6675 Y186.7087
G1 X54.2722 Y186.8724
G1 X53.2824 Y187.2824
G1 X52.8724 Y188.2722
G1 X52.7087 Y188.6675
G1 X53.1186 Y189.6573
G1 X53.2824 Y190.0526
G1 X53.6777 Y190.2164
G1 X54.6675 Y190.6263
G1 F300.0 Z-3.6
G1 F1200.0 X55.0628 Y190.4626
G1 X56.0526 Y190.0526
G1 X56.4626 Y189.0629
G1 X56.6263 Y188.6675
G1 X56.2163 Y187.6777
G1 X56.0526 Y187.2824
G1 X55.6573 Y187.1187
G1 X54.6675 Y186.7087
G1 X54.2722 Y186.8724
G1 X53.2824 Y187.2824
G1 X52.8724 Y188.2722
G1 X52.7087 Y188.6675
G1 X53.1186 Y189.6573
G1 X53.2824 Y190.0526
G1 X53.6777 Y190.2164
G1 X54.6675 Y190.6263
G1 F300.0 Z-4.0
G1 F1200.0 X55.0628 Y190.4626
G1 X56.0526 Y190.0526
G1 X56.4626 Y189.0629
G1 X56.6263 Y188.6675
G1 X56.2163 Y187.6777
G1 X56.0526 Y187.2824
G1 X55.6573 Y187.1187
G1 X54.6675 Y186.7087
G1 X54.2722 Y186.8724
G1 X53.2824 Y187.2824
G1 X52.8724 Y188.2722
G1 X52.7087 Y188.6675
G1 X53.1186 Y189.6573
G1 X53.2824 Y190.0526
G1 X53.6777 Y190.2164
G1 X54.6675 Y190.6263
G0 Z3.0
G0 Y173.6263
G0 Z1.0
G1 F300.0 Z-0.6
G1 F1200.0 X55.0628 Y173.4626
G1 X56.0526 Y173.0526
G1 X56.4626 Y172.0629
G1 Y172.0628
G1 X56.6263 Y171.6675
G1 X56.2163 Y170.6777
G1 X56.0526 Y170.2824
G1 X55.6573 Y170.1187
G1 X54.6675 Y169.7087
G1 X54.2722 Y169.8724
G1 X53.2824 Y170.2824
G1 X52.8724 Y171.2722
G1 X52.7087 Y171.6675
G1 X53.1186 Y172.6573
G1 X53.2824 Y173.0526
G1 X53.6777 Y173.2164
G1 X54.6675 Y173.6263
G1 F300.0 Z-1.2
G1 F1200.0 X55.0628 Y173.4626
G1 X56.0526 Y173.0526
G1 X56.4626 Y172.0629
G1 Y172.0628
G1 X56.6263 Y171.6675
G1 X56.2163 Y170.6777
G1 X56.0526 Y170.2824
G1 X55.6573 Y170.1187
G1 X54.6675 Y169.7087
G1 X54.2722 Y169.8724
G1 X53.2824 Y170.2824
G1 X52.8724 Y171.2722
G1 X52.7087 Y171.6675
G1 X53.1186 Y172.6573
G1 X53.2824 Y173.0526
G1 X53.6777 Y173.2164
G1 X54.6675 Y173.6263
G1 F300.0 Z-1.8
G1 F1200.0 X55.0628 Y173.4626
G1 X56.0526 Y173.0526
G1 X56.4626 Y172.0629
G1 Y172.0628
G1 X56.6263 Y171.6675
G1 X56.2163 Y170.6777
G1 X56.0526 Y170.2824
G1 X55.6573 Y170.1187
G1 X54.6675 Y169.7087
G1 X54.2722 Y169.8724
G1 X53.2824 Y170.2824
G1 X52.8724 Y171.2722
G1 X52.7087 Y171.6675
G1 X53.1186 Y172.6573
G1 X53.2824 Y173.0526
G1 X53.6777 Y173.2164
G1 X54.6675 Y173.6263
G1 F300.0 Z-2.4
G1 F1200.0 X55.0628 Y173.4626
G1 X56.0526 Y173.0526
G1 X56.4626 Y172.0629
G1 Y172.0628
G1 X56.6263 Y171.6675
G1 X56.2163 Y170.6777
G1 X56.0526 Y170.2824
G1 X55.6573 Y170.1187
G1 X54.6675 Y169.7087
G1 X54.2722 Y169.8724
G1 X53.2824 Y170.2824
G1 X52.8724 Y171.2722
G1 X52.7087 Y171.6675
G1 X53.1186 Y172.6573
G1 X53.2824 Y173.0526
G1 X53.6777 Y173.2164
G1 X54.6675 Y173.6263
G1 F300.0 Z-3.0
G1 F1200.0 X55.0628 Y173.4626
G1 X56.0526 Y173.0526
G1 X56.4626 Y172.0629
G1 Y172.0628
G1 X56.6263 Y171.6675
G1 X56.2163 Y170.6777
G1 X56.0526 Y170.2824
G1 X55.6573 Y170.1187
G1 X54.6675 Y169.7087
G1 X54.2722 Y169.8724
G1 X53.2824 Y170.2824
G1 X52.8724 Y171.2722
G1 X52.7087 Y171.6675
G1 X53.1186 Y172.6573
G1 X53.2824 Y173.0526
G1 X53.6777 Y173.2164
G1 X54.6675 Y173.6263
G1 F300.0 Z-3.6
G1 F1200.0 X55.0628 Y173.4626
G1 X56.0526 Y173.0526
G1 X56.4626 Y172.0629
G1 Y172.0628
G1 X56.6263 Y171.6675
G1 X56.2163 Y170.6777
G1 X56.0526 Y170.2824
G1 X55.6573 Y170.1187
G1 X54.6675 Y169.7087
G1 X54.2722 Y169.8724
G1 X53.2824 Y170.2824
G1 X52.8724 Y171.2722
G1 X52.7087 Y171.6675
G1 X53.1186 Y172.6573
G1 X53.2824 Y173.0526
G1 X53.6777 Y173.2164
G1 X54.6675 Y173.6263
G1 F300.0 Z-4.0
G1 F1200.0 X55.0628 Y173.4626
G1 X56.0526 Y173.0526
G1 X56.4626 Y172.0629
G1 Y172.0628
G1 X56.6263 Y171.6675
G1 X56.2163 Y170.6777
G1 X56.0526 Y170.2824
G1 X55.6573 Y170.1187
G1 X54.6675 Y169.7087
G1 X54.2722 Y169.8724
G1 X53.2824 Y170.2824
G1 X52.8724 Y171.2722
G1 X52.7087 Y171.6675
G1 X53.1186 Y172.6573
G1 X53.2824 Y173.0526
G1 X53.6777 Y173.2164
G1 X54.6675 Y173.6263
G0 Z3.0
G0 Y156.6263
G0 Z1.0
G1 F300.0 Z-0.6
G1 F1200.0 X55.0628 Y156.4626
G1 X56.0526 Y156.0526
G1 X56.4626 Y155.0628
G1 X56.6263 Y154.6675
G1 X56.2163 Y153.6777
G1 X56.0526 Y153.2824
G1 X55.6573 Y153.1187
G1 X54.6675 Y152.7087
G1 X54.2722 Y152.8724
G1 X53.2824 Y153.2824
G1 X52.8724 Y154.2722
G1 X52.7087 Y154.6675
G1 X53.1186 Y155.6573
G1 X53.2824 Y156.0526
G1 X53.6777 Y156.2164
G1 X54.6675 Y156.6263
G1 F300.0 Z-1.2
G1 F1200.0 X55.0628 Y156.4626
G1 X56.0526 Y156.0526
G1 X56.4626 Y155.0628
G1 X56.6263 Y154.6675
G1 X56.2163 Y153.6777
G1 X56.0526 Y153.2824
G1 X55.6573 Y153.1187
G1 X54.6675 Y152.7087
G1 X54.2722 Y152.8724
G1 X53.2824 Y153.2824
G1 X52.8724 Y154.2722
G1 X52.7087 Y154.6675
G1 X53.1186 Y155.6573
G1 X53.2824 Y156.0526
G1 X53.6777 Y156.2164
G1 X54.6675 Y156.6263
G1 F300.0 Z-1.8
G1 F1200.0 X55.0628 Y156.4626
G1 X56.0526 Y156.0526
G1 X56.4626 Y155.0628
G1 X56.6263 Y154.6675
G1 X56.2163 Y153.6777
G1 X56.0526 Y153.2824
G1 X55.6573 Y153.1187
G1 X54.6675 Y152.7087
G1 X54.2722 Y152.8724
G1 X53.2824 Y153.2824
G1 X52.8724 Y154.2722
G1 X52.7087 Y154.6675
G1 X53.1186 Y155.6573
G1 X53.2824 Y156.0526
G1 X53.6777 Y156.2164
G1 X54.6675 Y156.6263
G1 F300.0 Z-2.4
G1 F1200.0 X55.0628 Y156.4626
G1 X56.0526 Y156.0526
G1 X56.4626 Y155.0628
G1 X56.6263 Y154.6675
G1 X56.2163 Y153.6777
G1 X56.0526 Y153.2824
G1 X55.6573 Y153.1187
G1 X54.6675 Y152.7087
G1 X54.2722 Y152.8724
G1 X53.2824 Y153.2824
G1 X52.8724 Y154.2722
G1 X52.7087 Y154.6675
G1 X53.1186 Y155.6573
G1 X53.2824 Y156.0526
G1 X53.6777 Y156.2164
G1 X54.6675 Y156.6263
G1 F300.0 Z-3.0
G1 F1200.0 X55.0628 Y156.4626
G1 X56.0526 Y156.0526
G1 X56.4626 Y155.0628
G1 X56.6263 Y154.6675
G1 X56.2163 Y153.6777
G1 X56.0526 Y153.2824
G1 X55.6573 Y153.1187
G1 X54.6675 Y152.7087
G1 X54.2722 Y152.8724
G1 X53.2824 Y153.2824
G1 X52.8724 Y154.2722
G1 X52.7087 Y154.6675
G1 X53.1186 Y155.6573
G1 X53.2824 Y156.0526
G1 X53.6777 Y156.2164
G1 X54.6675 Y156.6263
G1 F300.0 Z-3.6
G1 F1200.0 X55.0628 Y156.4626
G1 X56.0526 Y156.0526
G1 X56.4626 Y155.0628
G1 X56.6263 Y154.6675
G1 X56.2163 Y153.6777
G1 X56.0526 Y153.2824
G1 X55.6573 Y153.1187
G1 X54.6675 Y152.7087
G1 X54.2722 Y152.8724
G1 X53.2824 Y153.2824
G1 X52.8724 Y154.2722
G1 X52.7087 Y154.6675
G1 X53.1186 Y155.6573
G1 X53.2824 Y156.0526
G1 X53.6777 Y156.2164
G1 X54.6675 Y156.6263
G1 F300.0 Z-4.0
G1 F1200.0 X55.0628 Y156.4626
G1 X56.0526 Y156.0526
G1 X56.4626 Y155.0628
G1 X56.6263 Y154.6675
G1 X56.2163 Y153.6777
G1 X56.0526 Y153.2824
G1 X55.6573 Y153.1187
G1 X54.6675 Y152.7087
G1 X54.2722 Y152.8724
G1 X53.2824 Y153.2824
G1 X52.8724 Y154.2722
G1 X52.7087 Y154.6675
G1 X53.1186 Y155.6573
G1 X53.2824 Y156.0526
G1 X53.6777 Y156.2164
G1 X54.6675 Y156.6263
G0 Z3.0
G0 Y139.6263
G0 Z1.0
G1 F300.0 Z-0.6
G1 F1200.0 X55.0628 Y139.4626
G1 X56.0526 Y139.0526
G1 X56.4626 Y138.0628
G1 X56.6263 Y137.6675
G1 X56.2163 Y136.6777
G1 X56.0526 Y136.2824
G1 X55.6573 Y136.1187
G1 X54.6675 Y135.7087
G1 X54.2722 Y135.8724
G1 X53.2824 Y136.2824
G1 X52.8724 Y137.2722
G1 X52.7087 Y137.6675
G1 X53.1186 Y138.6573
G1 X53.2824 Y139.0526
G1 X53.6777 Y139.2163
G1 X54.6675 Y139.6263
G1 F300.0 Z-1.2
G1 F1200.0 X55.0628 Y139.4626
G1 X56.0526 Y139.0526
G1 X56.4626 Y138.0628
G1 X56.6263 Y137.6675
G1 X56.2163 Y136.6777
G1 X56.0526 Y136.2824
G1 X55.6573 Y136.1187
G1 X54.6675 Y135.7087
G1 X54.2722 Y135.8724
G1 X53.2824 Y136.2824
G1 X52.8724 Y137.2722
G1 X52.7087 Y137.6675
G1 X53.1186 Y138.6573
G1 X53.2824 Y139.0526
G1 X53.6777 Y139.2163
G1 X54.6675 Y139.6263
G1 F300.0 Z-1.8
G1 F1200.0 X55.0628 Y139.4626
G1 X56.0526 Y139.0526
G1 X56.4626 Y138.0628
G1 X56.6263 Y137.6675
G1 X56.2163 Y136.6777
G1 X56.0526 Y136.2824
G1 X55.6573 Y136.1187
G1 X54.6675 Y135.7087
G1 X54.2722 Y135.8724
G1 X53.2824 Y136.2824
G1 X52.8724 Y137.2722
G1 X52.7087 Y137.6675
G1 X53.1186 Y138.6573
G1 X53.2824 Y139.0526
G1 X53.6777 Y139.2163
G1 X54.6675 Y139.6263
G1 F300.0 Z-2.4
G1 F1200.0 X55.0628 Y139.4626
G1 X56.0526 Y139.0526
G1 X56.4626 Y138.0628
G1 X56.6263 Y137.6675
G1 X56.2163 Y136.6777
G1 X56.0526 Y136.2824
G1 X55.6573 Y136.1187
G1 X54.6675 Y135.7087
G1 X54.2722 Y135.8724
G1 X53.2824 Y136.2824
G1 X52.8724 Y137.2722
G1 X52.7087 Y137.6675
G1 X53.1186 Y138.6573
G1 X53.2824 Y139.0526
G1 X53.6777 Y139.2163
G1 X54.6675 Y139.6263
G1 F300.0 Z-3.0
G1 F1200.0 X55.0628 Y139.4626
G1 X56.0526 Y139.0526
G1 X56.4626 Y138.0628
G1 X56.6263 Y137.6675
G1 X56.2163 Y136.6777
G1 X56.0526 Y136.2824
G1 X55.6573 Y136.1187
G1 X54.6675 Y135.7087
G1 X54.2722 Y135.8724
G1 X53.2824 Y136.2824
G1 X52.8724 Y137.2722
G1 X52.7087 Y137.6675
G1 X53.1186 Y138.6573
G1 X53.2824 Y139.0526
G1 X53.6777 Y139.2163
G1 X54.6675 Y139.6263
G1 F300.0 Z-3.6
G1 F1200.0 X55.0628 Y139.4626
G1 X56.0526 Y139.0526
G1 X56.4626 Y138.0628
G1 X56.6263 Y137.6675
G1 X56.2163 Y136.6777
G1 X56.0526 Y136.2824
G1 X55.6573 Y136.1187
G1 X54.6675 Y135.7087
G1 X54.2722 Y135.8724
G1 X53.2824 Y136.2824
G1 X52.8724 Y137.2722
G1 X52.7087 Y137.6675
G1 X53.1186 Y138.6573
G1 X53.2824 Y139.0526
G1 X53.6777 Y139.2163
G1 X54.6675 Y139.6263
G1 F300.0 Z-4.0
G1 F1200.0 X55.0628 Y139.4626
G1 X56.0526 Y139.0526
G1 X56.4626 Y138.0628
G1 X56.6263 Y137.6675
G1 X56.2163 Y136.6777
G1 X56.0526 Y136.2824
G1 X55.6573 Y136.1187
G1 X54.6675 Y135.7087
G1 X54.2722 Y135.8724
G1 X53.2824 Y136.2824
G1 X52.8724 Y137.2722
G1 X52.7087 Y137.6675
G1 X53.1186 Y138.6573
G1 X53.2824 Y139.0526
G1 X53.6777 Y139.2163
G1 X54.6675 Y139.6263
G0 Z3.0
G0 Y123.6263
G0 Z1.0
G1 F300.0 Z-0.6
G1 F1200.0 X55.0628 Y123.4626
G1 X56.0526 Y123.0526
G1 X56.4626 Y122.0628
G1 X56.6263 Y121.6675
G1 X56.2163 Y120.6777
G1 X56.0526 Y120.2824
G1 X55.6573 Y120.1187
G1 X54.6675 Y119.7087
G1 X54.2722 Y119.8724
G1 X53.2824 Y120.2824
G1 X52.8724 Y121.2722
G1 X52.7087 Y121.6675
G1 X53.1186 Y122.6573
G1 X53.2824 Y123.0526
G1 X53.6777 Y123.2163
G1 X54.6675 Y123.6263
G1 F300.0 Z-1.2
G1 F1200.0 X55.0628 Y123.4626
G1 X56.0526 Y123.0526
G1 X56.4626 Y122.0628
G1 X56.6263 Y121.6675
G1 X56.2163 Y120.6777
G1 X56.0526 Y120.2824
G1 X55.6573 Y120.1187
G1 X54.6675 Y119.7087
G1 X54.2722 Y119.8724
G1 X53.2824 Y120.2824
G1 X52.8724 Y121.2722
G1 X52.7087 Y121.6675
G1 X53.1186 Y122.6573
G1 X53.2824 Y123.0526
G1 X53.6777 Y123.2163
G1 X54.6675 Y123.6263
G1 F300.0 Z-1.8
G1 F1200.0 X55.0628 Y123.4626
G1 X56.0526 Y123.0526
G1 X56.4626 Y122.0628
G1 X56.6263 Y121.6675
G1 X56.2163 Y120.6777
G1 X56.0526 Y120.2824
G1 X55.6573 Y120.1187
G1 X54.6675 Y119.7087
G1 X54.2722 Y119.8724
G1 X53.2824 Y120.2824
G1 X52.8724 Y121.2722
G1 X52.7087 Y121.6675
G1 X53.1186 Y122.6573
G1 X53.2824 Y123.0526
G1 X53.6777 Y123.2163
G1 X54.6675 Y123.6263
G1 F300.0 Z-2.4
G1 F1200.0 X55.0628 Y123.4626
G1 X56.0526 Y123.0526
G1 X56.4626 Y122.0628
G1 X56.6263 Y121.6675
G1 X56.2163 Y120.6777
G1 X56.0526 Y120.2824
G1 X55.6573 Y120.1187
G1 X54.6675 Y119.7087
G1 X54.2722 Y119.8724
G1 X53.2824 Y120.2824
G1 X52.8724 Y121.2722
G1 X52.7087 Y121.6675
G1 X53.1186 Y122.6573
G1 X53.2824 Y123.0526
G1 X53.6777 Y123.2163
G1 X54.6675 Y123.6263
G1 F300.0 Z-3.0
G1 F1200.0 X55.0628 Y123.4626
G1 X56.0526 Y123.0526
G1 X56.4626 Y122.0628
G1 X56.6263 Y121.6675
G1 X56.2163 Y120.6777
G1 X56.0526 Y120.2824
G1 X55.6573 Y120.1187
G1 X54.6675 Y119.7087
G1 X54.2722 Y119.8724
G1 X53.2824 Y120.2824
G1 X52.8724 Y121.2722
G1 X52.7087 Y121.6675
G1 X53.1186 Y122.6573
G1 X53.2824 Y123.0526
G1 X53.6777 Y123.2163
G1 X54.6675 Y123.6263
G1 F300.0 Z-3.6
G1 F1200.0 X55.0628 Y123.4626
G1 X56.0526 Y123.0526
G1 X56.4626 Y122.0628
G1 X56.6263 Y121.6675
G1 X56.2163 Y120.6777
G1 X56.0526 Y120.2824
G1 X55.6573 Y120.1187
G1 X54.6675 Y119.7087
G1 X54.2722 Y119.8724
G1 X53.2824 Y120.2824
G1 X52.8724 Y121.2722
G1 X52.7087 Y121.6675
G1 X53.1186 Y122.6573
G1 X53.2824 Y123.0526
G1 X53.6777 Y123.2163
G1 X54.6675 Y123.6263
G1 F300.0 Z-4.0
G1 F1200.0 X55.0628 Y123.4626
G1 X56.0526 Y123.0526
G1 X56.4626 Y122.0628
G1 X56.6263 Y121.6675
G1 X56.2163 Y120.6777
G1 X56.0526 Y120.2824
G1 X55.6573 Y120.1187
G1 X54.6675 Y119.7087
G1 X54.2722 Y119.8724
G1 X53.2824 Y120.2824
G1 X52.8724 Y121.2722
G1 X52.7087 Y121.6675
G1 X53.1186 Y122.6573
G1 X53.2824 Y123.0526
G1 X53.6777 Y123.2163
G1 X54.6675 Y123.6263
G0 Z3.0
G0 Y106.6263
G0 Z1.0
G1 F300.0 Z-0.6
G1 F1200.0 X55.0628 Y106.4626
G1 X56.0526 Y106.0526
G1 X56.4626 Y105.0628
G1 X56.6263 Y104.6675
G1 X56.2163 Y103.6777
G1 X56.0526 Y103.2824
G1 X55.6573 Y103.1187
G1 X54.6675 Y102.7087
G1 X54.2722 Y102.8724
G1 X53.2824 Y103.2824
G1 X52.8724 Y104.2722
G1 X52.7087 Y104.6675
G1 X53.1186 Y105.6573
G1 X53.2824 Y106.0526
G1 X53.6777 Y106.2164
G1 X54.6675 Y106.6263
G1 F300.0 Z-1.2
G1 F1200.0 X55.0628 Y106.4626
G1 X56.0526 Y106.0526
G1 X56.4626 Y105.0628
G1 X56.6263 Y104.6675
G1 X56.2163 Y103.6777
G1 X56.0526 Y103.2824
G1 X55.6573 Y103.1187
G1 X54.6675 Y102.7087
G1 X54.2722 Y102.8724
G1 X53.2824 Y103.2824
G1 X52.8724 Y104.2722
G1 X52.7087 Y104.6675
G1 X53.1186 Y105.6573
G1 X53.2824 Y106.0526
G1 X53.6777 Y106.2164
G1 X54.6675 Y106.6263
G1 F300.0 Z-1.8
G1 F1200.0 X55.0628 Y106.4626
G1 X56.0526 Y106.0526
G1 X56.4626 Y105.0628
G1 X56.6263 Y104.6675
G1 X56.2163 Y103.6777
G1 X56.0526 Y103.2824
G1 X55.6573 Y103.1187
G1 X54.6675 Y102.7087
G1 X54.2722 Y102.8724
G1 X53.2824 Y103.2824
G1 X52.8724 Y104.2722
G1 X52.7087 Y104.6675
G1 X53.1186 Y105.6573
G1 X53.2824 Y106.0526
G1 X53.6777 Y106.2164
G1 X54.6675 Y106.6263
G1 F300.0 Z-2.4
G1 F1200.0 X55.0628 Y106.4626
G1 X56.0526 Y106.0526
G1 X56.4626 Y105.0628
G1 X56.6263 Y104.6675
G1 X56.2163 Y103.6777
G1 X56.0526 Y103.2824
G1 X55.6573 Y103.1187
G1 X54.6675 Y102.7087
G1 X54.2722 Y102.8724
G1 X53.2824 Y103.2824
G1 X52.8724 Y104.2722
G1 X52.7087 Y104.6675
G1 X53.1186 Y105.6573
G1 X53.2824 Y106.0526
G1 X53.6777 Y106.2164
G1 X54.6675 Y106.6263
G1 F300.0 Z-3.0
G1 F1200.0 X55.0628 Y106.4626
G1 X56.0526 Y106.0526
G1 X56.4626 Y105.0628
G1 X56.6263 Y104.6675
G1 X56.2163 Y103.6777
G1 X56.0526 Y103.2824
G1 X55.6573 Y103.1187
G1 X54.6675 Y102.7087
G1 X54.2722 Y102.8724
G1 X53.2824 Y103.2824
G1 X52.8724 Y104.2722
G1 X52.7087 Y104.6675
G1 X53.1186 Y105.6573
G1 X53.2824 Y106.0526
G1 X53.6777 Y106.2164
G1 X54.6675 Y106.6263
G1 F300.0 Z-3.6
G1 F1200.0 X55.0628 Y106.4626
G1 X56.0526 Y106.0526
G1 X56.4626 Y105.0628
G1 X56.6263 Y104.6675
G1 X56.2163 Y103.6777
G1 X56.0526 Y103.2824
G1 X55.6573 Y103.1187
G1 X54.6675 Y102.7087
G1 X54.2722 Y102.8724
G1 X53.2824 Y103.2824
G1 X52.8724 Y104.2722
G1 X52.7087 Y104.6675
G1 X53.1186 Y105.6573
G1 X53.2824 Y106.0526
G1 X53.6777 Y106.2164
G1 X54.6675 Y106.6263
G1 F300.0 Z-4.0
G1 F1200.0 X55.0628 Y106.4626
G1 X56.0526 Y106.0526
G1 X56.4626 Y105.0628
G1 X56.6263 Y104.6675
G1 X56.2163 Y103.6777
G1 X56.0526 Y103.2824
G1 X55.6573 Y103.1187
G1 X54.6675 Y102.7087
G1 X54.2722 Y102.8724
G1 X53.2824 Y103.2824
G1 X52.8724 Y104.2722
G1 X52.7087 Y104.6675
G1 X53.1186 Y105.6573
G1 X53.2824 Y106.0526
G1 X53.6777 Y106.2164
G1 X54.6675 Y106.6263
G0 Z3.0
G0 Y89.6263
G0 Z1.0
G1 F300.0 Z-0.6
G1 F1200.0 X55.0628 Y89.4626
G1 X56.0526 Y89.0526
G1 X56.4626 Y88.0628
G1 X56.6263 Y87.6675
G1 X56.2163 Y86.6777
G1 X56.0526 Y86.2824
G1 X55.6573 Y86.1187
G1 X54.6675 Y85.7087
G1 X54.2722 Y85.8724
G1 X53.2824 Y86.2824
G1 X52.8724 Y87.2722
G1 X52.7087 Y87.6675
G1 X53.1186 Y88.6573
G1 X53.2824 Y89.0526
G1 X53.6777 Y89.2163
G1 X54.6675 Y89.6263
G1 F300.0 Z-1.2
G1 F1200.0 X55.0628 Y89.4626
G1 X56.0526 Y89.0526
G1 X56.4626 Y88.0628
G1 X56.6263 Y87.6675
G1 X56.2163 Y86.6777
G1 X56.0526 Y86.2824
G1 X55.6573 Y86.1187
G1 X54.6675 Y85.7087
G1 X54.2722 Y85.8724
G1 X53.2824 Y86.2824
G1 X52.8724 Y87.2722
G1 X52.7087 Y87.6675
G1 X53.1186 Y88.6573
G1 X53.2824 Y89.0526
G1 X53.6777 Y89.2163
G1 X54.6675 Y89.6263
G1 F300.0 Z-1.8
G1 F1200.0 X55.0628 Y89.4626
G1 X56.0526 Y89.0526
G1 X56.4626 Y88.0628
G1 X56.6263 Y87.6675
G1 X56.2163 Y86.6777
G1 X56.0526 Y86.2824
G1 X55.6573 Y86.1187
G1 X54.6675 Y85.7087
G1 X54.2722 Y85.8724
G1 X53.2824 Y86.2824
G1 X52.8724 Y87.2722
G1 X52.7087 Y87.6675
G1 X53.1186 Y88.6573
G1 X53.2824 Y89.0526
G1 X53.6777 Y89.2163
G1 X54.6675 Y89.6263
G1 F300.0 Z-2.4
G1 F1200.0 X55.0628 Y89.4626
G1 X56.0526 Y89.0526
G1 X56.4626 Y88.0628
G1 X56.6263 Y87.6675
G1 X56.2163 Y86.6777
G1 X56.0526 Y86.2824
G1 X55.6573 Y86.1187
G1 X54.6675 Y85.7087
G1 X54.2722 Y85.8724
G1 X53.2824 Y86.2824
G1 X52.8724 Y87.2722
G1 X52.7087 Y87.6675
G1 X53.1186 Y88.6573
G1 X53.2824 Y89.0526
G1 X53.6777 Y89.2163
G1 X54.6675 Y89.6263
G1 F300.0 Z-3.0
G1 F1200.0 X55.0628 Y89.4626
G1 X56.0526 Y89.0526
G1 X56.4626 Y88.0628
G1 X56.6263 Y87.6675
G1 X56.2163 Y86.6777
G1 X56.0526 Y86.2824
G1 X55.6573 Y86.1187
G1 X54.6675 Y85.7087
G1 X54.2722 Y85.8724
G1 X53.2824 Y86.2824
G1 X52.8724 Y87.2722
G1 X52.7087 Y87.6675
G1 X53.1186 Y88.6573
G1 X53.2824 Y89.0526
G1 X53.6777 Y89.2163
G1 X54.6675 Y89.6263
G1 F300.0 Z-3.6
G1 F1200.0 X55.0628 Y89.4626
G1 X56.0526 Y89.0526
G1 X56.4626 Y88.0628
G1 X56.6263 Y87.6675
G1 X56.2163 Y86.6777
G1 X56.0526 Y86.2824
G1 X55.6573 Y86.1187
G1 X54.6675 Y85.7087
G1 X54.2722 Y85.8724
G1 X53.2824 Y86.2824
G1 X52.8724 Y87.2722
G1 X52.7087 Y87.6675
G1 X53.1186 Y88.6573
G1 X53.2824 Y89.0526
G1 X53.6777 Y89.2163
G1 X54.6675 Y89.6263
G1 F300.0 Z-4.0
G1 F1200.0 X55.0628 Y89.4626
G1 X56.0526 Y89.0526
G1 X56.4626 Y88.0628
G1 X56.6263 Y87.6675
G1 X56.2163 Y86.6777
G1 X56.0526 Y86.2824
G1 X55.6573 Y86.1187
G1 X54.6675 Y85.7087
G1 X54.2722 Y85.8724
G1 X53.2824 Y86.2824
G1 X52.8724 Y87.2722
G1 X52.7087 Y87.6675
G1 X53.1186 Y88.6573
G1 X53.2824 Y89.0526
G1 X53.6777 Y89.2163
G1 X54.6675 Y89.6263
G0 Z3.0
G0 Y72.6263
G0 Z1.0
G1 F300.0 Z-0.6
G1 F1200.0 X55.0628 Y72.4626
G1 X56.0526 Y72.0526
G1 X56.4626 Y71.0628
G1 X56.6263 Y70.6675
G1 X56.2163 Y69.6777
G1 X56.0526 Y69.2824
G1 X55.6573 Y69.1186
G1 X54.6675 Y68.7087
G1 X54.2722 Y68.8724
G1 X53.2824 Y69.2824
G1 X52.8724 Y70.2722
G1 X52.7087 Y70.6675
G1 X53.1186 Y71.6573
G1 X53.2824 Y72.0526
G1 X53.6777 Y72.2163
G1 X54.6675 Y72.6263
G1 F300.0 Z-1.2
G1 F1200.0 X55.0628 Y72.4626
G1 X56.0526 Y72.0526
G1 X56.4626 Y71.0628
G1 X56.6263 Y70.6675
G1 X56.2163 Y69.6777
G1 X56.0526 Y69.2824
G1 X55.6573 Y69.1186
G1 X54.6675 Y68.7087
G1 X54.2722 Y68.8724
G1 X53.2824 Y69.2824
G1 X52.8724 Y70.2722
G1 X52.7087 Y70.6675
G1 X53.1186 Y71.6573
G1 X53.2824 Y72.0526
G1 X53.6777 Y72.2163
G1 X54.6675 Y72.6263
G1 F300.0 Z-1.8
G1 F1200.0 X55.0628 Y72.4626
G1 X56.0526 Y72.0526
G1 X56.4626 Y71.0628
G1 X56.6263 Y70.6675
G1 X56.2163 Y69.6777
G1 X56.0526 Y69.2824
G1 X55.6573 Y69.1186
G1 X54.6675 Y68.7087
G1 X54.2722 Y68.8724
G1 X53.2824 Y69.2824
G1 X52.8724 Y70.2722
G1 X52.7087 Y70.6675
G1 X53.1186 Y71.6573
G1 X53.2824 Y72.0526
G1 X53.6777 Y72.2163
G1 X54.6675 Y72.6263
G1 F300.0 Z-2.4
G1 F1200.0 X55.0628 Y72.4626
G1 X56.0526 Y72.0526
G1 X56.4626 Y71.0628
G1 X56.6263 Y70.6675
G1 X56.2163 Y69.6777
G1 X56.0526 Y69.2824
G1 X55.6573 Y69.1186
G1 X54.6675 Y68.7087
G1 X54.2722 Y68.8724
G1 X53.2824 Y69.2824
G1 X52.8724 Y70.2722
G1 X52.7087 Y70.6675
G1 X53.1186 Y71.6573
G1 X53.2824 Y72.0526
G1 X53.6777 Y72.2163
G1 X54.6675 Y72.6263
G1 F300.0 Z-3.0
G1 F1200.0 X55.0628 Y72.4626
G1 X56.0526 Y72.0526
G1 X56.4626 Y71.0628
G1 X56.6263 Y70.6675
G1 X56.2163 Y69.6777
G1 X56.0526 Y69.2824
G1 X55.6573 Y69.1186
G1 X54.6675 Y68.7087
G1 X54.2722 Y68.8724
G1 X53.2824 Y69.2824
G1 X52.8724 Y70.2722
G1 X52.7087 Y70.6675
G1 X53.1186 Y71.6573
G1 X53.2824 Y72.0526
G1 X53.6777 Y72.2163
G1 X54.6675 Y72.6263
G1 F300.0 Z-3.6
G1 F1200.0 X55.0628 Y72.4626
G1 X56.0526 Y72.0526
G1 X56.4626 Y71.0628
G1 X56.6263 Y70.6675
G1 X56.2163 Y69.6777
G1 X56.0526 Y69.2824
G1 X55.6573 Y69.1186
G1 X54.6675 Y68.7087
G1 X54.2722 Y68.8724
G1 X53.2824 Y69.2824
G1 X52.8724 Y70.2722
G1 X52.7087 Y70.6675
G1 X53.1186 Y71.6573
G1 X53.2824 Y72.0526
G1 X53.6777 Y72.2163
G1 X54.6675 Y72.6263
G1 F300.0 Z-4.0
G1 F1200.0 X55.0628 Y72.4626
G1 X56.0526 Y72.0526
G1 X56.4626 Y71.0628
G1 X56.6263 Y70.6675
G1 X56.2163 Y69.6777
G1 X56.0526 Y69.2824
G1 X55.6573 Y69.1186
G1 X54.6675 Y68.7087
G1 X54.2722 Y68.8724
G1 X53.2824 Y69.2824
G1 X52.8724 Y70.2722
G1 X52.7087 Y70.6675
G1 X53.1186 Y71.6573
G1 X53.2824 Y72.0526
G1 X53.6777 Y72.2163
G1 X54.6675 Y72.6263
G0 Z3.0
G0 Y55.6263
G0 Z1.0
G1 F300.0 Z-0.6
G1 F1200.0 X55.0628 Y55.4626
G1 X56.0526 Y55.0526
G1 X56.4626 Y54.0628
G1 X56.6263 Y53.6675
G1 X56.2163 Y52.6777
G1 X56.0526 Y52.2824
G1 X55.6573 Y52.1186
G1 X54.6675 Y51.7087
G1 X54.2722 Y51.8724
G1 X53.2824 Y52.2824
G1 X52.8724 Y53.2722
G1 X52.7087 Y53.6675
G1 X53.1186 Y54.6573
G1 X53.2824 Y55.0526
G1 X53.6777 Y55.2163
G1 X54.6675 Y55.6263
G1 F300.0 Z-1.2
G1 F1200.0 X55.0628 Y55.4626
G1 X56.0526 Y55.0526
G1 X56.4626 Y54.0628
G1 X56.6263 Y53.6675
G1 X56.2163 Y52.6777
G1 X56.0526 Y52.2824
G1 X55.6573 Y52.1186
G1 X54.6675 Y51.7087
G1 X54.2722 Y51.8724
G1 X53.2824 Y52.2824
G1 X52.8724 Y53.2722
G1 X52.7087 Y53.6675
G1 X53.1186 Y54.6573
G1 X53.2824 Y55.0526
G1 X53.6777 Y55.2163
G1 X54.6675 Y55.6263
G1 F300.0 Z-1.8
G1 F1200.0 X55.0628 Y55.4626
G1 X56.0526 Y55.0526
G1 X56.4626 Y54.0628
G1 X56.6263 Y53.6675
G1 X56.2163 Y52.6777
G1 X56.0526 Y52.2824
G1 X55.6573 Y52.1186
G1 X54.6675 Y51.7087
G1 X54.2722 Y51.8724
G1 X53.2824 Y52.2824
G1 X52.8724 Y53.2722
G1 X52.7087 Y53.6675
G1 X53.1186 Y54.6573
G1 X53.2824 Y55.0526
G1 X53.6777 Y55.2163
G1 X54.6675 Y55.6263
G1 F300.0 Z-2.4
G1 F1200.0 X55.0628 Y55.4626
G1 X56.0526 Y55.0526
G1 X56.4626 Y54.0628
G1 X56.6263 Y53.6675
G1 X56.2163 Y52.6777
G1 X56.0526 Y52.2824
G1 X55.6573 Y52.1186
G1 X54.6675 Y51.7087
G1 X54.2722 Y51.8724
G1 X53.2824 Y52.2824
G1 X52.8724 Y53.2722
G1 X52.7087 Y53.6675
G1 X53.1186 Y54.6573
G1 X53.2824 Y55.0526
G1 X53.6777 Y55.2163
G1 X54.6675 Y55.6263
G1 F300.0 Z-3.0
G1 F1200.0 X55.0628 Y55.4626
G1 X56.0526 Y55.0526
G1 X56.4626 Y54.0628
G1 X56.6263 Y53.6675
G1 X56.2163 Y52.6777
G1 X56.0526 Y52.2824
G1 X55.6573 Y52.1186
G1 X54.6675 Y51.7087
G1 X54.2722 Y51.8724
G1 X53.2824 Y52.2824
G1 X52.8724 Y53.2722
G1 X52.7087 Y53.6675
G1 X53.1186 Y54.6573
G1 X53.2824 Y55.0526
G1 X53.6777 Y55.2163
G1 X54.6675 Y55.6263
G1 F300.0 Z-3.6
G1 F1200.0 X55.0628 Y55.4626
G1 X56.0526 Y55.0526
G1 X56.4626 Y54.0628
G1 X56.6263 Y53.6675
G1 X56.2163 Y52.6777
G1 X56.0526 Y52.2824
G1 X55.6573 Y52.1186
G1 X54.6675 Y51.7087
G1 X54.2722 Y51.8724
G1 X53.2824 Y52.2824
G1 X52.8724 Y53.2722
G1 X52.7087 Y53.6675
G1 X53.1186 Y54.6573
G1 X53.2824 Y55.0526
G1 X53.6777 Y55.2163
G1 X54.6675 Y55.6263
G1 F300.0 Z-4.0
G1 F1200.0 X55.0628 Y55.4626
G1 X56.0526 Y55.0526
G1 X56.4626 Y54.0628
G1 X56.6263 Y53.6675
G1 X56.2163 Y52.6777
G1 X56.0526 Y52.2824
G1 X55.6573 Y52.1186
G1 X54.6675 Y51.7087
G1 X54.2722 Y51.8724
G1 X53.2824 Y52.2824
G1 X52.8724 Y53.2722
G1 X52.7087 Y53.6675
G1 X53.1186 Y54.6573
G1 X53.2824 Y55.0526
G1 X53.6777 Y55.2163
G1 X54.6675 Y55.6263
G0 Z3.0
G0 Y31.1606
G0 Z1.0
G1 F300.0 Z-0.6
G1 F1200.0 X55.2317 Y31.0664
G1 X56.4511 Y30.8629
G1 X56.9542 Y30.5907
G1 X58.0415 Y30.0023
G1 X58.8787 Y29.093
G1 X59.2661 Y28.6722
G1 X59.7627 Y27.54
G1 X59.9925 Y27.0161
G1 X60.0946 Y25.7843
G1 X60.1418 Y25.2143
G1 X59.8383 Y24.0157
G1 X59.6979 Y23.4611
G1 X59.0217 Y22.4258
G1 X58.7088 Y21.9468
G1 X58.2575 Y21.5955
G1 X57.282 Y20.8363
G1 X56.741 Y20.6507
G1 X55.5717 Y20.2495
G1 X54.9996
G1 X53.7633
G1 X53.2222 Y20.4352
G1 X52.053 Y20.8363
G1 X51.6016 Y21.1876
G1 X50.6262 Y21.9468
G1 X49.95 Y22.982
G1 X49.6371 Y23.4611
G1 X49.3336 Y24.6597
G1 X49.1932 Y25.2143
G1 X49.2953 Y26.4461
G1 X49.3425 Y27.0161
G1 X49.8391 Y28.1483
G1 X50.0689 Y28.6722
G1 X50.9061 Y29.5815
G1 X51.2935 Y30.0023
G1 X51.7967 Y30.2745
G1 X52.8839 Y30.8629
G1 X53.4481 Y30.9571
G1 X54.6675 Y31.1606
G1 F300.0 Z-1.2
G1 F1200.0 X55.2317 Y31.0664
G1 X56.4511 Y30.8629
G1 X56.9542 Y30.5907
G1 X58.0415 Y30.0023
G1 X58.8787 Y29.093
G1 X59.2661 Y28.6722
G1 X59.7627 Y27.54
G1 X59.9925 Y27.0161
G1 X60.0946 Y25.7843
G1 X60.1418 Y25.2143
G1 X59.8383 Y24.0157
G1 X59.6979 Y23.4611
G1 X59.0217 Y22.4258
G1 X58.7088 Y21.9468
G1 X58.2575 Y21.5955
G1 X57.282 Y20.8363
G1 X56.741 Y20.6507
G1 X55.5717 Y20.2495
G1 X54.9996
G1 X53.7633
G1 X53.2222 Y20.4352
G1 X52.053 Y20.8363
G1 X51.6016 Y21.1876
G1 X50.6262 Y21.9468
G1 X49.95 Y22.982
G1 X49.6371 Y23.4611
G1 X49.3336 Y24.6597
G1 X49.1932 Y25.2143
G1 X49.2953 Y26.4461
G1 X49.3425 Y27.0161
G1 X49.8391 Y28.1483
G1 X50.0689 Y28.6722
G1 X50.9061 Y29.5815
G1 X51.2935 Y30.0023
G1 X51.7967 Y30.2745
G1 X52.8839 Y30.8629
G1 X53.4481 Y30.9571
G1 X54.6675 Y31.1606
G1 F300.0 Z-1.8
G1 F1200.0 X55.2317 Y31.0664
G1 X56.4511 Y30.8629
G1 X56.9542 Y30.5907
G1 X58.0415 Y30.0023
G1 X58.8787 Y29.093
G1 X59.2661 Y28.6722
G1 X59.7627 Y27.54
G1 X59.9925 Y27.0161
G1 X60.0946 Y25.7843
G1 X60.1418 Y25.2143
G1 X59.8383 Y24.0157
G1 X59.6979 Y23.4611
G1 X59.0217 Y22.4258
G1 X58.7088 Y21.9468
G1 X58.2575 Y21.5955
G1 X57.282 Y20.8363
G1 X56.741 Y20.6507
G1 X55.5717 Y20.2495
G1 X54.9996
G1 X53.7633
G1 X53.2222 Y20.4352
G1 X52.053 Y20.8363
G1 X51.6016 Y21.1876
G1 X50.6262 Y21.9468
G1 X49.95 Y22.982
G1 X49.6371 Y23.4611
G1 X49.3336 Y24.6597
G1 X49.1932 Y25.2143
G1 X49.2953 Y26.4461
G1 X49.3425 Y27.0161
G1 X49.8391 Y28.1483
G1 X50.0689 Y28.6722
G1 X50.9061 Y29.5815
G1 X51.2935 Y30.0023
G1 X51.7967 Y30.2745
G1 X52.8839 Y30.8629
G1 X53.4481 Y30.9571
G1 X54.6675 Y31.1606
G1 F300.0 Z-2.4
G1 F1200.0 X55.2317 Y31.0664
G1 X56.4511 Y30.8629
G1 X56.9542 Y30.5907
G1 X58.0415 Y30.0023
G1 X58.8787 Y29.093
G1 X59.2661 Y28.6722
G1 X59.7627 Y27.54
G1 X59.9925 Y27.0161
G1 X60.0946 Y25.7843
G1 X60.1418 Y25.2143
G1 X59.8383 Y24.0157
G1 X59.6979 Y23.4611
G1 X59.0217 Y22.4258
G1 X58.7088 Y21.9468
G1 X58.2575 Y21.5955
G1 X57.282 Y20.8363
G1 X56.741 Y20.6507
G1 X55.5717 Y20.2495
G1 X54.9996
G1 X53.7633
G1 X53.2222 Y20.4352
G1 X52.053 Y20.8363
G1 X51.6016 Y21.1876
G1 X50.6262 Y21.9468
G1 X49.95 Y22.982
G1 X49.6371 Y23.4611
G1 X49.3336 Y24.6597
G1 X49.1932 Y25.2143
G1 X49.2953 Y26.4461
G1 X49.3425 Y27.0161
G1 X49.8391 Y28.1483
G1 X50.0689 Y28.6722
G1 X50.9061 Y29.5815
G1 X51.2935 Y30.0023
G1 X51.7967 Y30.2745
G1 X52.8839 Y30.8629
G1 X53.4481 Y30.9571
G1 X54.6675 Y31.1606
G1 F300.0 Z-3.0
G1 F1200.0 X55.2317 Y31.0664
G1 X56.4511 Y30.8629
G1 X56.9542 Y30.5907
G1 X58.0415 Y30.0023
G1 X58.8787 Y29.093
G1 X59.2661 Y28.6722
G1 X59.7627 Y27.54
G1 X59.9925 Y27.0161
G1 X60.0946 Y25.7843
G1 X60.1418 Y25.2143
G1 X59.8383 Y24.0157
G1 X59.6979 Y23.4611
G1 X59.0217 Y22.4258
G1 X58.7088 Y21.9468
G1 X58.2575 Y21.5955
G1 X57.282 Y20.8363
G1 X56.741 Y20.6507
G1 X55.5717 Y20.2495
G1 X54.9996
G1 X53.7633
G1 X53.2222 Y20.4352
G1 X52.053 Y20.8363
G1 X51.6016 Y21.1876
G1 X50.6262 Y21.9468
G1 X49.95 Y22.982
G1 X49.6371 Y23.4611
G1 X49.3336 Y24.6597
G1 X49.1932 Y25.2143
G1 X49.2953 Y26.4461
G1 X49.3425 Y27.0161
G1 X49.8391 Y28.1483
G1 X50.0689 Y28.6722
G1 X50.9061 Y29.5815
G1 X51.2935 Y30.0023
G1 X51.7967 Y30.2745
G1 X52.8839 Y30.8629
G1 X53.4481 Y30.9571
G1 X54.6675 Y31.1606
G1 F300.0 Z-3.6
G1 F1200.0 X55.2317 Y31.0664
G1 X56.4511 Y30.8629
G1 X56.9542 Y30.5907
G1 X58.0415 Y30.0023
G1 X58.8787 Y29.093
G1 X59.2661 Y28.6722
G1 X59.7627 Y27.54
G1 X59.9925 Y27.0161
G1 X60.0946 Y25.7843
G1 X60.1418 Y25.2143
G1 X59.8383 Y24.0157
G1 X59.6979 Y23.4611
G1 X59.0217 Y22.4258
G1 X58.7088 Y21.9468
G1 X58.2575 Y21.5955
G1 X57.282 Y20.8363
G1 X56.741 Y20.6507
G1 X55.5717 Y20.2495
G1 X54.9996
G1 X53.7633
G1 X53.2222 Y20.4352
G1 X52.053 Y20.8363
G1 X51.6016 Y21.1876
G1 X50.6262 Y21.9468
G1 X49.95 Y22.982
G1 X49.6371 Y23.4611
G1 X49.3336 Y24.6597
G1 X49.1932 Y25.2143
G1 X49.2953 Y26.4461
G1 X49.3425 Y27.0161
G1 X49.8391 Y28.1483
G1 X50.0689 Y28.6722
G1 X50.9061 Y29.5815
G1 X51.2935 Y30.0023
G1 X51.7967 Y30.2745
G1 X52.8839 Y30.8629
G1 X53.4481 Y30.9571
G1 X54.6675 Y31.1606
G1 F300.0 Z-4.0
G1 F1200.0 X55.2317 Y31.0664
G1 X56.4511 Y30.8629
G1 X56.9542 Y30.5907
G1 X58.0415 Y30.0023
G1 X58.8787 Y29.093
G1 X59.2661 Y28.6722
G1 X59.7627 Y27.54
G1 X59.9925 Y27.0161
G1 X60.0946 Y25.7843
G1 X60.1418 Y25.2143
G1 X59.8383 Y24.0157
G1 X59.6979 Y23.4611
G1 X59.0217 Y22.4258
G1 X58.7088 Y21.9468
G1 X58.2575 Y21.5955
G1 X57.282 Y20.8363
G1 X56.741 Y20.6507
G1 X55.5717 Y20.2495
G1 X54.9996
G1 X53.7633
G1 X53.2222 Y20.4352
G1 X52.053 Y20.8363
G1 X51.6016 Y21.1876
G1 X50.6262 Y21.9468
G1 X49.95 Y22.982
G1 X49.6371 Y23.4611
G1 X49.3336 Y24.6597
G1 X49.1932 Y25.2143
G1 X49.2953 Y26.4461
G1 X49.3425 Y27.0161
G1 X49.8391 Y28.1483
G1 X50.0689 Y28.6722
G1 X50.9061 Y29.5815
G1 X51.2935 Y30.0023
G1 X51.7967 Y30.2745
G1 X52.8839 Y30.8629
G1 X53.4481 Y30.9571
G1 X54.6675 Y31.1606
G0 Z3.0
G0 X29.9925 Y27.0161
G0 Z1.0
G1 F300.0 Z-0.6
G1 F1200.0 X30.1185 Y25.4957
G1 X30.1418 Y25.2143
G1 X29.7672 Y23.7349
G1 X29.6979 Y23.4611
G1 X28.8633 Y22.1833
G1 X28.7088 Y21.9468
G1 X28.486 Y21.7734
G1 X27.282 Y20.8363
G1 X27.0149 Y20.7447
G1 X25.5717 Y20.2495
G1 X25.2892
G1 X23.7633
G1 X23.4962 Y20.3412
G1 X22.053 Y20.8363
G1 X21.8302 Y21.0098
G1 X20.6262 Y21.9468
G1 X19.7916 Y23.2245
G1 X19.6371 Y23.4611
G1 X19.2625 Y24.9405
G1 X19.1932 Y25.2143
G1 X19.3192 Y26.7347
G1 X19.3425 Y27.0161
G1 X19.9554 Y28.4136
G1 X20.0689 Y28.6722
G1 X21.1022 Y29.7945
G1 X21.2935 Y30.0023
G1 X21.5419 Y30.1367
G1 X22.8839 Y30.8629
G1 X23.1625 Y30.9094
G1 X24.6675 Y31.1606
G1 X24.9461 Y31.1141
G1 X26.4511 Y30.8629
G1 X26.6995 Y30.7285
G1 X28.0415 Y30.0023
G1 X29.0749 Y28.8799
G1 X29.2661 Y28.6722
G1 X29.879 Y27.2747
G1 X29.9925 Y27.0161
G1 F300.0 Z-1.2
G1 F1200.0 X30.1185 Y25.4957
G1 X30.1418 Y25.2143
G1 X29.7672 Y23.7349
G1 X29.6979 Y23.4611
G1 X28.8633 Y22.1833
G1 X28.7088 Y21.9468
G1 X28.486 Y21.7734
G1 X27.282 Y20.8363
G1 X27.0149 Y20.7447
G1 X25.5717 Y20.2495
G1 X25.2892
G1 X23.7633
G1 X23.4962 Y20.3412
G1 X22.053 Y20.8363
G1 X21.8302 Y21.0098
G1 X20.6262 Y21.9468
G1 X19.7916 Y23.2245
G1 X19.6371 Y23.4611
G1 X19.2625 Y24.9405
G1 X19.1932 Y25.2143
G1 X19.3192 Y26.7347
G1 X19.3425 Y27.0161
G1 X19.9554 Y28.4136
G1 X20.0689 Y28.6722
G1 X21.1022 Y29.7945
G1 X21.2935 Y30.0023
G1 X21.5419 Y30.1367
G1 X22.8839 Y30.8629
G1 X23.1625 Y30.9094
G1 X24.6675 Y31.1606
G1 X24.9461 Y31.1141
G1 X26.4511 Y30.8629
G1 X26.6995 Y30.7285
G1 X28.0415 Y30.0023
G1 X29.0749 Y28.8799
G1 X29.2661 Y28.6722
G1 X29.879 Y27.2747
G1 X29.9925 Y27.0161
G1 F300.0 Z-1.8
G1 F1200.0 X30.1185 Y25.4957
G1 X30.1418 Y25.2143
G1 X29.7672 Y23.7349
G1 X29.6979 Y23.4611
G1 X28.8633 Y22.1833
G1 X28.7088 Y21.9468
G1 X28.486 Y21.7734
G1 X27.282 Y20.8363
G1 X27.0149 Y20.7447
G1 X25.5717 Y20.2495
G1 X25.2892
G1 X23.7633
G1 X23.4962 Y20.3412
G1 X22.053 Y20.8363
G1 X21.8302 Y21.0098
G1 X20.6262 Y21.9468
G1 X19.7916 Y23.2245
G1 X19.6371 Y23.4611
G1 X19.2625 Y24.9405
G1 X19.1932 Y25.2143
G1 X19.3192 Y26.7347
G1 X19.3425 Y27.0161
G1 X19.9554 Y28.4136
G1 X20.0689 Y28.6722
G1 X21.1022 Y29.7945
G1 X21.2935 Y30.0023
G1 X21.5419 Y30.1367
G1 X22.8839 Y30.8629
G1 X23.1625 Y30.9094
G1 X24.6675 Y31.1606
G1 X24.9461 Y31.1141
G1 X26.4511 Y30.8629
G1 X26.6995 Y30.7285
G1 X28.0415 Y30.0023
G1 X29.0749 Y28.8799
G1 X29.2661 Y28.6722
G1 X29.879 Y27.2747
G1 X29.9925 Y27.0161
G1 F300.0 Z-2.4
G1 F1200.0 X30.1185 Y25.4957
G1 X30.1418 Y25.2143
G1 X29.7672 Y23.7349
G1 X29.6979 Y23.4611
G1 X28.8633 Y22.1833
G1 X28.7088 Y21.9468
G1 X28.486 Y21.7734
G1 X27.282 Y20.8363
G1 X27.0149 Y20.7447
G1 X25.5717 Y20.2495
G1 X25.2892
G1 X23.7633
G1 X23.4962 Y20.3412
G1 X22.053 Y20.8363
G1 X21.8302 Y21.0098
G1 X20.6262 Y21.9468
G1 X19.7916 Y23.2245
G1 X19.6371 Y23.4611
G1 X19.2625 Y24.9405
G1 X19.1932 Y25.2143
G1 X19.3192 Y26.7347
G1 X19.3425 Y27.0161
G1 X19.9554 Y28.4136
G1 X20.0689 Y28.6722
G1 X21.1022 Y29.7945
G1 X21.2935 Y30.0023
G1 X21.5419 Y30.1367
G1 X22.8839 Y30.8629
G1 X23.1625 Y30.9094
G1 X24.6675 Y31.1606
G1 X24.9461 Y31.1141
G1 X26.4511 Y30.8629
G1 X26.6995 Y30.7285
G1 X28.0415 Y30.0023
G1 X29.0749 Y28.8799
G1 X29.2661 Y28.6722
G1 X29.879 Y27.2747
G1 X29.9925 Y27.0161
G1 F300.0 Z-3.0
G1 F1200.0 X30.1185 Y25.4957
G1 X30.1418 Y25.2143
G1 X29.7672 Y23.7349
G1 X29.6979 Y23.4611
G1 X28.8633 Y22.1833
G1 X28.7088 Y21.9468
G1 X28.486 Y21.7734
G1 X27.282 Y20.8363
G1 X27.0149 Y20.7447
G1 X25.5717 Y20.2495
G1 X25.2892
G1 X23.7633
G1 X23.4962 Y20.3412
G1 X22.053 Y20.8363
G1 X21.8302 Y21.0098
G1 X20.6262 Y21.9468
G1 X19.7916 Y23.2245
G1 X19.6371 Y23.4611
G1 X19.2625 Y24.9405
G1 X19.1932 Y25.2143
G1 X19.3192 Y26.7347
G1 X19.3425 Y27.0161
G1 X19.9554 Y28.4136
G1 X20.0689 Y28.6722
G1 X21.1022 Y29.7945
G1 X21.2935 Y30.0023
G1 X21.5419 Y30.1367
G1 X22.8839 Y30.8629
G1 X23.1625 Y30.9094
G1 X24.6675 Y31.1606
G1 X24.9461 Y31.1141
G1 X26.4511 Y30.8629
G1 X26.6995 Y30.7285
G1 X28.0415 Y30.0023
G1 X29.0749 Y28.8799
G1 X29.2661 Y28.6722
G1 X29.879 Y27.2747
G1 X29.9925 Y27.0161
G1 F300.0 Z-3.6
G1 F1200.0 X30.1185 Y25.4957
G1 X30.1418 Y25.2143
G1 X29.7672 Y23.7349
G1 X29.6979 Y23.4611
G1 X28.8633 Y22.1833
G1 X28.7088 Y21.9468
G1 X28.486 Y21.7734
G1 X27.282 Y20.8363
G1 X27.0149 Y20.7447
G1 X25.5717 Y20.2495
G1 X25.2892
G1 X23.7633
G1 X23.4962 Y20.3412
G1 X22.053 Y20.8363
G1 X21.8302 Y21.0098
G1 X20.6262 Y21.9468
G1 X19.7916 Y23.2245
G1 X19.6371 Y23.4611
G1 X19.2625 Y24.9405
G1 X19.1932 Y25.2143
G1 X19.3192 Y26.7347
G1 X19.3425 Y27.0161
G1 X19.9554 Y28.4136
G1 X20.0689 Y28.6722
G1 X21.1022 Y29.7945
G1 X21.2935 Y30.0023
G1 X21.5419 Y30.1367
G1 X22.8839 Y30.8629
G1 X23.1625 Y30.9094
G1 X24.6675 Y31.1606
G1 X24.9461 Y31.1141
G1 X26.4511 Y30.8629
G1 X26.6995 Y30.7285
G1 X28.0415 Y30.0023
G1 X29.0749 Y28.8799
G1 X29.2661 Y28.6722
G1 X29.879 Y27.2747
G1 X29.9925 Y27.0161
G1 F300.0 Z-4.0
G1 F1200.0 X30.1185 Y25.4957
G1 X30.1418 Y25.2143
G1 X29.7672 Y23.7349
G1 X29.6979 Y23.4611
G1 X28.8633 Y22.1833
G1 X28.7088 Y21.9468
G1 X28.486 Y21.7734
G1 X27.282 Y20.8363
G1 X27.0149 Y20.7447
G1 X25.5717 Y20.2495
G1 X25.2892
G1 X23.7633
G1 X23.4962 Y20.3412
G1 X22.053 Y20.8363
G1 X21.8302 Y21.0098
G1 X20.6262 Y21.9468
G1 X19.7916 Y23.2245
G1 X19.6371 Y23.4611
G1 X19.2625 Y24.9405
G1 X19.1932 Y25.2143
G1 X19.3192 Y26.7347
G1 X19.3425 Y27.0161
G1 X19.9554 Y28.4136
G1 X20.0689 Y28.6722
G1 X21.1022 Y29.7945
G1 X21.2935 Y30.0023
G1 X21.5419 Y30.1367
G1 X22.8839 Y30.8629
G1 X23.1625 Y30.9094
G1 X24.6675 Y31.1606
G1 X24.9461 Y31.1141
G1 X26.4511 Y30.8629
G1 X26.6995 Y30.7285
G1 X28.0415 Y30.0023
G1 X29.0749 Y28.8799
G1 X29.2661 Y28.6722
G1 X29.879 Y27.2747
G1 X29.9925 Y27.0161
G0 Z3.0
G0 X25.5717 Y59.2493
G0 Z1.0
G1 F300.0 Z-0.6
G1 F1200.0 X25.2892
G1 X23.7633
G1 X23.4962 Y59.341
G1 X22.0531 Y59.8365
G1 X21.8302 Y60.01
G1 X20.6261 Y60.9471
G1 X19.7915 Y62.2245
G1 X19.6371 Y62.4609
G1 X19.2625 Y63.9401
G1 X19.1932 Y64.2139
G1 X19.3192 Y65.7345
G1 X19.3425 Y66.016
G1 X19.9554 Y67.4133
G1 X20.0689 Y67.6719
G1 X21.1023 Y68.7945
G1 X21.2936 Y69.0023
G1 X21.5419 Y69.1367
G1 X22.8839 Y69.863
G1 X23.1625 Y69.9094
G1 X24.6675 Y70.1606
G1 X24.9461 Y70.1141
G1 X26.4511 Y69.863
G1 X26.6995 Y69.7285
G1 X28.0414 Y69.0023
G1 X29.0749 Y67.8797
G1 X29.2661 Y67.6719
G1 X29.879 Y66.2746
G1 X29.8791
G1 X29.9925 Y66.016
G1 X30.1185 Y64.4953
G1 X30.1418 Y64.2139
G1 X29.7672 Y62.7347
G1 X29.6979 Y62.4609
G1 X28.8633 Y61.1836
G1 X28.7089 Y60.9471
G1 X28.486 Y60.7737
G1 X27.2819 Y59.8365
G1 X27.0148 Y59.7448
G1 X25.5717 Y59.2493
G1 F300.0 Z-1.2
G1 F1200.0 X25.2892
G1 X23.7633
G1 X23.4962 Y59.341
G1 X22.0531 Y59.8365
G1 X21.8302 Y60.01
G1 X20.6261 Y60.9471
G1 X19.7915 Y62.2245
G1 X19.6371 Y62.4609
G1 X19.2625 Y63.9401
G1 X19.1932 Y64.2139
G1 X19.3192 Y65.7345
G1 X19.3425 Y66.016
G1 X19.9554 Y67.4133
G1 X20.0689 Y67.6719
G1 X21.1023 Y68.7945
G1 X21.2936 Y69.0023
G1 X21.5419 Y69.1367
G1 X22.8839 Y69.863
G1 X23.1625 Y69.9094
G1 X24.6675 Y70.1606
G1 X24.9461 Y70.1141
G1 X26.4511 Y69.863
G1 X26.6995 Y69.7285
G1 X28.0414 Y69.0023
G1 X29.0749 Y67.8797
G1 X29.2661 Y67.6719
G1 X29.879 Y66.2746
G1 X29.8791
G1 X29.9925 Y66.016
G1 X30.1185 Y64.4953
G1 X30.1418 Y64.2139
G1 X29.7672 Y62.7347
G1 X29.6979 Y62.4609
G1 X28.8633 Y61.1836
G1 X28.7089 Y60.9471
G1 X28.486 Y60.7737
G1 X27.2819 Y59.8365
G1 X27.0148 Y59.7448
G1 X25.5717 Y59.2493
G1 F300.0 Z-1.8
G1 F1200.0 X25.2892
G1 X23.7633
G1 X23.4962 Y59.341
G1 X22.0531 Y59.8365
G1 X21.8302 Y60.01
G1 X20.6261 Y60.9471
G1 X19.7915 Y62.2245
G1 X19.6371 Y62.4609
G1 X19.2625 Y63.9401
G1 X19.1932 Y64.2139
G1 X19.3192 Y65.7345
G1 X19.3425 Y66.016
G1 X19.9554 Y67.4133
G1 X20.0689 Y67.6719
G1 X21.1023 Y68.7945
G1 X21.2936 Y69.0023
G1 X21.5419 Y69.1367
G1 X22.8839 Y69.863
G1 X23.1625 Y69.9094
G1 X24.6675 Y70.1606
G1 X24.9461 Y70.1141
G1 X26.4511 Y69.863
G1 X26.6995 Y69.7285
G1 X28.0414 Y69.0023
G1 X29.0749 Y67.8797
G1 X29.2661 Y67.6719
G1 X29.879 Y66.2746
G1 X29.8791
G1 X29.9925 Y66.016
G1 X30.1185 Y64.4953
G1 X30.1418 Y64.2139
G1 X29.7672 Y62.7347
G1 X29.6979 Y62.4609
G1 X28.8633 Y61.1836
G1 X28.7089 Y60.9471
G1 X28.486 Y60.7737
G1 X27.2819 Y59.8365
G1 X27.0148 Y59.7448
G1 X25.5717 Y59.2493
G1 F300.0 Z-2.4
G1 F1200.0 X25.2892
G1 X23.7633
G1 X23.4962 Y59.341
G1 X22.0531 Y59.8365
G1 X21.8302 Y60.01
G1 X20.6261 Y60.9471
G1 X19.7915 Y62.2245
G1 X19.6371 Y62.4609
G1 X19.2625 Y63.9401
G1 X19.1932 Y64.2139
G1 X19.3192 Y65.7345
G1 X19.3425 Y66.016
G1 X19.9554 Y67.4133
G1 X20.0689 Y67.6719
G1 X21.1023 Y68.7945
G1 X21.2936 Y69.0023
G1 X21.5419 Y69.1367
G1 X22.8839 Y69.863
G1 X23.1625 Y69.9094
G1 X24.6675 Y70.1606
G1 X24.9461 Y70.1141
G1 X26.4511 Y69.863
G1 X26.6995 Y69.7285
G1 X28.0414 Y69.0023
G1 X29.0749 Y67.8797
G1 X29.2661 Y67.6719
G1 X29.879 Y66.2746
G1 X29.8791
G1 X29.9925 Y66.016
G1 X30.1185 Y64.4953
G1 X30.1418 Y64.2139
G1 X29.7672 Y62.7347
G1 X29.6979 Y62.4609
G1 X28.8633 Y61.1836
G1 X28.7089 Y60.9471
G1 X28.486 Y60.7737
G1 X27.2819 Y59.8365
G1 X27.0148 Y59.7448
G1 X25.5717 Y59.2493
G1 F300.0 Z-3.0
G1 F1200.0 X25.2892
G1 X23.7633
G1 X23.4962 Y59.341
G1 X22.0531 Y59.8365
G1 X21.8302 Y60.01
G1 X20.6261 Y60.9471
G1 X19.7915 Y62.2245
G1 X19.6371 Y62.4609
G1 X19.2625 Y63.9401
G1 X19.1932 Y64.2139
G1 X19.3192 Y65.7345
G1 X19.3425 Y66.016
G1 X19.9554 Y67.4133
G1 X20.0689 Y67.6719
G1 X21.1023 Y68.7945
G1 X21.2936 Y69.0023
G1 X21.5419 Y69.1367
G1 X22.8839 Y69.863
G1 X23.1625 Y69.9094
G1 X24.6675 Y70.1606
G1 X24.9461 Y70.1141
G1 X26.4511 Y69.863
G1 X26.6995 Y69.7285
G1 X28.0414 Y69.0023
G1 X29.0749 Y67.8797
G1 X29.2661 Y67.6719
G1 X29.879 Y66.2746
G1 X29.8791
G1 X29.9925 Y66.016
G1 X30.1185 Y64.4953
G1 X30.1418 Y64.2139
G1 X29.7672 Y62.7347
G1 X29.6979 Y62.4609
G1 X28.8633 Y61.1836
G1 X28.7089 Y60.9471
G1 X28.486 Y60.7737
G1 X27.2819 Y59.8365
G1 X27.0148 Y59.7448
G1 X25.5717 Y59.2493
G1 F300.0 Z-3.6
G1 F1200.0 X25.2892
G1 X23.7633
G1 X23.4962 Y59.341
G1 X22.0531 Y59.8365
G1 X21.8302 Y60.01
G1 X20.6261 Y60.9471
G1 X19.7915 Y62.2245
G1 X19.6371 Y62.4609
G1 X19.2625 Y63.9401
G1 X19.1932 Y64.2139
G1 X19.3192 Y65.7345
G1 X19.3425 Y66.016
G1 X19.9554 Y67.4133
G1 X20.0689 Y67.6719
G1 X21.1023 Y68.7945
G1 X21.2936 Y69.0023
G1 X21.5419 Y69.1367
G1 X22.8839 Y69.863
G1 X23.1625 Y69.9094
G1 X24.6675 Y70.1606
G1 X24.9461 Y70.1141
G1 X26.4511 Y69.863
G1 X26.6995 Y69.7285
G1 X28.0414 Y69.0023
G1 X29.0749 Y67.8797
G1 X29.2661 Y67.6719
G1 X29.879 Y66.2746
G1 X29.8791
G1 X29.9925 Y66.016
G1 X30.1185 Y64.4953
G1 X30.1418 Y64.2139
G1 X29.7672 Y62.7347
G1 X29.6979 Y62.4609
G1 X28.8633 Y61.1836
G1 X28.7089 Y60.9471
G1 X28.486 Y60.7737
G1 X27.2819 Y59.8365
G1 X27.0148 Y59.7448
G1 X25.5717 Y59.2493
G1 F300.0 Z-4.0
G1 F1200.0 X25.2892
G1 X23.7633
G1 X23.4962 Y59.341
G1 X22.0531 Y59.8365
G1 X21.8302 Y60.01
G1 X20.6261 Y60.9471
G1 X19.7915 Y62.2245
G1 X19.6371 Y62.4609
G1 X19.2625 Y63.9401
G1 X19.1932 Y64.2139
G1 X19.3192 Y65.7345
G1 X19.3425 Y66.016
G1 X19.9554 Y67.4133
G1 X20.0689 Y67.6719
G1 X21.1023 Y68.7945
G1 X21.2936 Y69.0023
G1 X21.5419 Y69.1367
G1 X22.8839 Y69.863
G1 X23.1625 Y69.9094
G1 X24.6675 Y70.1606
G1 X24.9461 Y70.1141
G1 X26.4511 Y69.863
G1 X26.6995 Y69.7285
G1 X28.0414 Y69.0023
G1 X29.0749 Y67.8797
G1 X29.2661 Y67.6719
G1 X29.879 Y66.2746
G1 X29.8791
G1 X29.9925 Y66.016
G1 X30.1185 Y64.4953
G1 X30.1418 Y64.2139
G1 X29.7672 Y62.7347
G1 X29.6979 Y62.4609
G1 X28.8633 Y61.1836
G1 X28.7089 Y60.9471
G1 X28.486 Y60.7737
G1 X27.2819 Y59.8365
G1 X27.0148 Y59.7448
G1 X25.5717 Y59.2493
G0 Z3.0
G0 X26.7633 Y101.2493
G0 Z1.0
G1 F300.0 Z-0.6
G1 F1200.0 X26.4962 Y101.341
G1 X25.0531 Y101.8365
G1 X24.8302 Y102.01
G1 X23.6261 Y102.9471
G1 X22.7916 Y104.2245
G1 X22.6371 Y104.4609
G1 X22.2625 Y105.9401
G1 X22.1932 Y106.2139
G1 X22.3192 Y107.7345
G1 X22.3425 Y108.016
G1 X22.9554 Y109.4133
G1 X23.0689 Y109.6719
G1 X24.1023 Y110.7945
G1 X24.2936 Y111.0023
G1 X24.5419 Y111.1367
G1 X25.8839 Y111.863
G1 X26.1625 Y111.9094
G1 X27.6675 Y112.1606
G1 X27.9461 Y112.1141
G1 X29.4511 Y111.863
G1 X29.6995 Y111.7285
G1 X31.0414 Y111.0023
G1 X32.0749 Y109.8797
G1 X32.2661 Y109.6719
G1 X32.8791 Y108.2746
G1 X32.879
G1 X32.9925 Y108.016
G1 X33.1185 Y106.4953
G1 X33.1418 Y106.2139
G1 X32.7672 Y104.7347
G1 X32.6979 Y104.4609
G1 X31.8633 Y103.1836
G1 X31.7089 Y102.9471
G1 X31.486 Y102.7737
G1 X30.2819 Y101.8365
G1 X30.0148 Y101.7448
G1 X28.5717 Y101.2493
G1 X28.2892
G1 X26.7633
G1 F300.0 Z-1.2
G1 F1200.0 X26.4962 Y101.341
G1 X25.0531 Y101.8365
G1 X24.8302 Y102.01
G1 X23.6261 Y102.9471
G1 X22.7916 Y104.2245
G1 X22.6371 Y104.4609
G1 X22.2625 Y105.9401
G1 X22.1932 Y106.2139
G1 X22.3192 Y107.7345
G1 X22.3425 Y108.016
G1 X22.9554 Y109.4133
G1 X23.0689 Y109.6719
G1 X24.1023 Y110.7945
G1 X24.2936 Y111.0023
G1 X24.5419 Y111.1367
G1 X25.8839 Y111.863
G1 X26.1625 Y111.9094
G1 X27.6675 Y112.1606
G1 X27.9461 Y112.1141
G1 X29.4511 Y111.863
G1 X29.6995 Y111.7285
G1 X31.0414 Y111.0023
G1 X32.0749 Y109.8797
G1 X32.2661 Y109.6719
G1 X32.8791 Y108.2746
G1 X32.879
G1 X32.9925 Y108.016
G1 X33.1185 Y106.4953
G1 X33.1418 Y106.2139
G1 X32.7672 Y104.7347
G1 X32.6979 Y104.4609
G1 X31.8633 Y103.1836
G1 X31.7089 Y102.9471
G1 X31.486 Y102.7737
G1 X30.2819 Y101.8365
G1 X30.0148 Y101.7448
G1 X28.5717 Y101.2493
G1 X28.2892
G1 X26.7633
G1 F300.0 Z-1.8
G1 F1200.0 X26.4962 Y101.341
G1 X25.0531 Y101.8365
G1 X24.8302 Y102.01
G1 X23.6261 Y102.9471
G1 X22.7916 Y104.2245
G1 X22.6371 Y104.4609
G1 X22.2625 Y105.9401
G1 X22.1932 Y106.2139
G1 X22.3192 Y107.7345
G1 X22.3425 Y108.016
G1 X22.9554 Y109.4133
G1 X23.0689 Y109.6719
G1 X24.1023 Y110.7945
G1 X24.2936 Y111.0023
G1 X24.5419 Y111.1367
G1 X25.8839 Y111.863
G1 X26.1625 Y111.9094
G1 X27.6675 Y112.1606
G1 X27.9461 Y112.1141
G1 X29.4511 Y111.863
G1 X29.6995 Y111.7285
G1 X31.0414 Y111.0023
G1 X32.0749 Y109.8797
G1 X32.2661 Y109.6719
G1 X32.8791 Y108.2746
G1 X32.879
G1 X32.9925 Y108.016
G1 X33.1185 Y106.4953
G1 X33.1418 Y106.2139
G1 X32.7672 Y104.7347
G1 X32.6979 Y104.4609
G1 X31.8633 Y103.1836
G1 X31.7089 Y102.9471
G1 X31.486 Y102.7737
G1 X30.2819 Y101.8365
G1 X30.0148 Y101.7448
G1 X28.5717 Y101.2493
G1 X28.2892
G1 X26.7633
G1 F300.0 Z-2.4
G1 F1200.0 X26.4962 Y101.341
G1 X25.0531 Y101.8365
G1 X24.8302 Y102.01
G1 X23.6261 Y102.9471
G1 X22.7916 Y104.2245
G1 X22.6371 Y104.4609
G1 X22.2625 Y105.9401
G1 X22.1932 Y106.2139
G1 X22.3192 Y107.7345
G1 X22.3425 Y108.016
G1 X22.9554 Y109.4133
G1 X23.0689 Y109.6719
G1 X24.1023 Y110.7945
G1 X24.2936 Y111.0023
G1 X24.5419 Y111.1367
G1 X25.8839 Y111.863
G1 X26.1625 Y111.9094
G1 X27.6675 Y112.1606
G1 X27.9461 Y112.1141
G1 X29.4511 Y111.863
G1 X29.6995 Y111.7285
G1 X31.0414 Y111.0023
G1 X32.0749 Y109.8797
G1 X32.2661 Y109.6719
G1 X32.8791 Y108.2746
G1 X32.879
G1 X32.9925 Y108.016
G1 X33.1185 Y106.4953
G1 X33.1418 Y106.2139
G1 X32.7672 Y104.7347
G1 X32.6979 Y104.4609
G1 X31.8633 Y103.1836
G1 X31.7089 Y102.9471
G1 X31.486 Y102.7737
G1 X30.2819 Y101.8365
G1 X30.0148 Y101.7448
G1 X28.5717 Y101.2493
G1 X28.2892
G1 X26.7633
G1 F300.0 Z-3.0
G1 F1200.0 X26.4962 Y101.341
G1 X25.0531 Y101.8365
G1 X24.8302 Y102.01
G1 X23.6261 Y102.9471
G1 X22.7916 Y104.2245
G1 X22.6371 Y104.4609
G1 X22.2625 Y105.9401
G1 X22.1932 Y106.2139
G1 X22.3192 Y107.7345
G1 X22.3425 Y108.016
G1 X22.9554 Y109.4133
G1 X23.0689 Y109.6719
G1 X24.1023 Y110.7945
G1 X24.2936 Y111.0023
G1 X24.5419 Y111.1367
G1 X25.8839 Y111.863
G1 X26.1625 Y111.9094
G1 X27.6675 Y112.1606
G1 X27.9461 Y112.1141
G1 X29.4511 Y111.863
G1 X29.6995 Y111.7285
G1 X31.0414 Y111.0023
G1 X32.0749 Y109.8797
G1 X32.2661 Y109.6719
G1 X32.8791 Y108.2746
G1 X32.879
G1 X32.9925 Y108.016
G1 X33.1185 Y106.4953
G1 X33.1418 Y106.2139
G1 X32.7672 Y104.7347
G1 X32.6979 Y104.4609
G1 X31.8633 Y103.1836
G1 X31.7089 Y102.9471
G1 X31.486 Y102.7737
G1 X30.2819 Y101.8365
G1 X30.0148 Y101.7448
G1 X28.5717 Y101.2493
G1 X28.2892
G1 X26.7633
G1 F300.0 Z-3.6
G1 F1200.0 X26.4962 Y101.341
G1 X25.0531 Y101.8365
G1 X24.8302 Y102.01
G1 X23.6261 Y102.9471
G1 X22.7916 Y104.2245
G1 X22.6371 Y104.4609
G1 X22.2625 Y105.9401
G1 X22.1932 Y106.2139
G1 X22.3192 Y107.7345
G1 X22.3425 Y108.016
G1 X22.9554 Y109.4133
G1 X23.0689 Y109.6719
G1 X24.1023 Y110.7945
G1 X24.2936 Y111.0023
G1 X24.5419 Y111.1367
G1 X25.8839 Y111.863
G1 X26.1625 Y111.9094
G1 X27.6675 Y112.1606
G1 X27.9461 Y112.1141
G1 X29.4511 Y111.863
G1 X29.6995 Y111.7285
G1 X31.0414 Y111.0023
G1 X32.0749 Y109.8797
G1 X32.2661 Y109.6719
G1 X32.8791 Y108.2746
G1 X32.879
G1 X32.9925 Y108.016
G1 X33.1185 Y106.4953
G1 X33.1418 Y106.2139
G1 X32.7672 Y104.7347
G1 X32.6979 Y104.4609
G1 X31.8633 Y103.1836
G1 X31.7089 Y102.9471
G1 X31.486 Y102.7737
G1 X30.2819 Y101.8365
G1 X30.0148 Y101.7448
G1 X28.5717 Y101.2493
G1 X28.2892
G1 X26.7633
G1 F300.0 Z-4.0
G1 F1200.0 X26.4962 Y101.341
G1 X25.0531 Y101.8365
G1 X24.8302 Y102.01
G1 X23.6261 Y102.9471
G1 X22.7916 Y104.2245
G1 X22.6371 Y104.4609
G1 X22.2625 Y105.9401
G1 X22.1932 Y106.2139
G1 X22.3192 Y107.7345
G1 X22.3425 Y108.016
G1 X22.9554 Y109.4133
G1 X23.0689 Y109.6719
G1 X24.1023 Y110.7945
G1 X24.2936 Y111.0023
G1 X24.5419 Y111.1367
G1 X25.8839 Y111.863
G1 X26.1625 Y111.9094
G1 X27.6675 Y112.1606
G1 X27.9461 Y112.1141
G1 X29.4511 Y111.863
G1 X29.6995 Y111.7285
G1 X31.0414 Y111.0023
G1 X32.0749 Y109.8797
G1 X32.2661 Y109.6719
G1 X32.8791 Y108.2746
G1 X32.879
G1 X32.9925 Y108.016
G1 X33.1185 Y106.4953
G1 X33.1418 Y106.2139
G1 X32.7672 Y104.7347
G1 X32.6979 Y104.4609
G1 X31.8633 Y103.1836
G1 X31.7089 Y102.9471
G1 X31.486 Y102.7737
G1 X30.2819 Y101.8365
G1 X30.0148 Y101.7448
G1 X28.5717 Y101.2493
G1 X28.2892
G1 X26.7633
G0 Z3.0
G0 Y147.2493
G0 Z1.0
G1 F300.0 Z-0.6
G1 F1200.0 X26.4962 Y147.341
G1 X25.0531 Y147.8365
G1 X24.8302 Y148.01
G1 X23.6261 Y148.9471
G1 X22.7916 Y150.2245
G1 X22.6371 Y150.4609
G1 X22.2625 Y151.9401
G1 X22.1932 Y152.2139
G1 X22.3192 Y153.7345
G1 X22.3425 Y154.016
G1 X22.9554 Y155.4133
G1 X23.0689 Y155.6719
G1 X24.1023 Y156.7945
G1 X24.2936 Y157.0023
G1 X24.5419 Y157.1367
G1 X25.8839 Y157.863
G1 X26.1625 Y157.9094
G1 X27.6675 Y158.1606
G1 X27.9461 Y158.1141
G1 X29.4511 Y157.863
G1 X29.6995 Y157.7285
G1 X31.0414 Y157.0023
G1 X32.0749 Y155.8797
G1 X32.2661 Y155.6719
G1 X32.8791 Y154.2746
G1 X32.879
G1 X32.9925 Y154.016
G1 X33.1185 Y152.4953
G1 X33.1418 Y152.2139
G1 X32.7672 Y150.7347
G1 X32.6979 Y150.4609
G1 X31.8633 Y149.1836
G1 X31.7089 Y148.9471
G1 X31.486 Y148.7737
G1 X30.2819 Y147.8365
G1 X30.0148 Y147.7448
G1 X28.5717 Y147.2493
G1 X28.2892
G1 X26.7633
G1 F300.0 Z-1.2
G1 F1200.0 X26.4962 Y147.341
G1 X25.0531 Y147.8365
G1 X24.8302 Y148.01
G1 X23.6261 Y148.9471
G1 X22.7916 Y150.2245
G1 X22.6371 Y150.4609
G1 X22.2625 Y151.9401
G1 X22.1932 Y152.2139
G1 X22.3192 Y153.7345
G1 X22.3425 Y154.016
G1 X22.9554 Y155.4133
G1 X23.0689 Y155.6719
G1 X24.1023 Y156.7945
G1 X24.2936 Y157.0023
G1 X24.5419 Y157.1367
G1 X25.8839 Y157.863
G1 X26.1625 Y157.9094
G1 X27.6675 Y158.1606
G1 X27.9461 Y158.1141
G1 X29.4511 Y157.863
G1 X29.6995 Y157.7285
G1 X31.0414 Y157.0023
G1 X32.0749 Y155.8797
G1 X32.2661 Y155.6719
G1 X32.8791 Y154.2746
G1 X32.879
G1 X32.9925 Y154.016
G1 X33.1185 Y152.4953
G1 X33.1418 Y152.2139
G1 X32.7672 Y150.7347
G1 X32.6979 Y150.4609
G1 X31.8633 Y149.1836
G1 X31.7089 Y148.9471
G1 X31.486 Y148.7737
G1 X30.2819 Y147.8365
G1 X30.0148 Y147.7448
G1 X28.5717 Y147.2493
G1 X28.2892
G1 X26.7633
G1 F300.0 Z-1.8
G1 F1200.0 X26.4962 Y147.341
G1 X25.0531 Y147.8365
G1 X24.8302 Y148.01
G1 X23.6261 Y148.9471
G1 X22.7916 Y150.2245
G1 X22.6371 Y150.4609
G1 X22.2625 Y151.9401
G1 X22.1932 Y152.2139
G1 X22.3192 Y153.7345
G1 X22.3425 Y154.016
G1 X22.9554 Y155.4133
G1 X23.0689 Y155.6719
G1 X24.1023 Y156.7945
G1 X24.2936 Y157.0023
G1 X24.5419 Y157.1367
G1 X25.8839 Y157.863
G1 X26.1625 Y157.9094
G1 X27.6675 Y158.1606
G1 X27.9461 Y158.1141
G1 X29.4511 Y157.863
G1 X29.6995 Y157.7285
G1 X31.0414 Y157.0023
G1 X32.0749 Y155.8797
G1 X32.2661 Y155.6719
G1 X32.8791 Y154.2746
G1 X32.879
G1 X32.9925 Y154.016
G1 X33.1185 Y152.4953
G1 X33.1418 Y152.2139
G1 X32.7672 Y150.7347
G1 X32.6979 Y150.4609
G1 X31.8633 Y149.1836
G1 X31.7089 Y148.9471
G1 X31.486 Y148.7737
G1 X30.2819 Y147.8365
G1 X30.0148 Y147.7448
G1 X28.5717 Y147.2493
G1 X28.2892
G1 X26.7633
G1 F300.0 Z-2.4
G1 F1200.0 X26.4962 Y147.341
G1 X25.0531 Y147.8365
G1 X24.8302 Y148.01
G1 X23.6261 Y148.9471
G1 X22.7916 Y150.2245
G1 X22.6371 Y150.4609
G1 X22.2625 Y151.9401
G1 X22.1932 Y152.2139
G1 X22.3192 Y153.7345
G1 X22.3425 Y154.016
G1 X22.9554 Y155.4133
G1 X23.0689 Y155.6719
G1 X24.1023 Y156.7945
G1 X24.2936 Y157.0023
G1 X24.5419 Y157.1367
G1 X25.8839 Y157.863
G1 X26.1625 Y157.9094
G1 X27.6675 Y158.1606
G1 X27.9461 Y158.1141
G1 X29.4511 Y157.863
G1 X29.6995 Y157.7285
G1 X31.0414 Y157.0023
G1 X32.0749 Y155.8797
G1 X32.2661 Y155.6719
G1 X32.8791 Y154.2746
G1 X32.879
G1 X32.9925 Y154.016
G1 X33.1185 Y152.4953
G1 X33.1418 Y152.2139
G1 X32.7672 Y150.7347
G1 X32.6979 Y150.4609
G1 X31.8633 Y149.1836
G1 X31.7089 Y148.9471
G1 X31.486 Y148.7737
G1 X30.2819 Y147.8365
G1 X30.0148 Y147.7448
G1 X28.5717 Y147.2493
G1 X28.2892
G1 X26.7633
G1 F300.0 Z-3.0
G1 F1200.0 X26.4962 Y147.341
G1 X25.0531 Y147.8365
G1 X24.8302 Y148.01
G1 X23.6261 Y148.9471
G1 X22.7916 Y150.2245
G1 X22.6371 Y150.4609
G1 X22.2625 Y151.9401
G1 X22.1932 Y152.2139
G1 X22.3192 Y153.7345
G1 X22.3425 Y154.016
G1 X22.9554 Y155.4133
G1 X23.0689 Y155.6719
G1 X24.1023 Y156.7945
G1 X24.2936 Y157.0023
G1 X24.5419 Y157.1367
G1 X25.8839 Y157.863
G1 X26.1625 Y157.9094
G1 X27.6675 Y158.1606
G1 X27.9461 Y158.1141
G1 X29.4511 Y157.863
G1 X29.6995 Y157.7285
G1 X31.0414 Y157.0023
G1 X32.0749 Y155.8797
G1 X32.2661 Y155.6719
G1 X32.8791 Y154.2746
G1 X32.879
G1 X32.9925 Y154.016
G1 X33.1185 Y152.4953
G1 X33.1418 Y152.2139
G1 X32.7672 Y150.7347
G1 X32.6979 Y150.4609
G1 X31.8633 Y149.1836
G1 X31.7089 Y148.9471
G1 X31.486 Y148.7737
G1 X30.2819 Y147.8365
G1 X30.0148 Y147.7448
G1 X28.5717 Y147.2493
G1 X28.2892
G1 X26.7633
G1 F300.0 Z-3.6
G1 F1200.0 X26.4962 Y147.341
G1 X25.0531 Y147.8365
G1 X24.8302 Y148.01
G1 X23.6261 Y148.9471
G1 X22.7916 Y150.2245
G1 X22.6371 Y150.4609
G1 X22.2625 Y151.9401
G1 X22.1932 Y152.2139
G1 X22.3192 Y153.7345
G1 X22.3425 Y154.016
G1 X22.9554 Y155.4133
G1 X23.0689 Y155.6719
G1 X24.1023 Y156.7945
G1 X24.2936 Y157.0023
G1 X24.5419 Y157.1367
G1 X25.8839 Y157.863
G1 X26.1625 Y157.9094
G1 X27.6675 Y158.1606
G1 X27.9461 Y158.1141
G1 X29.4511 Y157.863
G1 X29.6995 Y157.7285
G1 X31.0414 Y157.0023
G1 X32.0749 Y155.8797
G1 X32.2661 Y155.6719
G1 X32.8791 Y154.2746
G1 X32.879
G1 X32.9925 Y154.016
G1 X33.1185 Y152.4953
G1 X33.1418 Y152.2139
G1 X32.7672 Y150.7347
G1 X32.6979 Y150.4609
G1 X31.8633 Y149.1836
G1 X31.7089 Y148.9471
G1 X31.486 Y148.7737
G1 X30.2819 Y147.8365
G1 X30.0148 Y147.7448
G1 X28.5717 Y147.2493
G1 X28.2892
G1 X26.7633
G1 F300.0 Z-4.0
G1 F1200.0 X26.4962 Y147.341
G1 X25.0531 Y147.8365
G1 X24.8302 Y148.01
G1 X23.6261 Y148.9471
G1 X22.7916 Y150.2245
G1 X22.6371 Y150.4609
G1 X22.2625 Y151.9401
G1 X22.1932 Y152.2139
G1 X22.3192 Y153.7345
G1 X22.3425 Y154.016
G1 X22.9554 Y155.4133
G1 X23.0689 Y155.6719
G1 X24.1023 Y156.7945
G1 X24.2936 Y157.0023
G1 X24.5419 Y157.1367
G1 X25.8839 Y157.863
G1 X26.1625 Y157.9094
G1 X27.6675 Y158.1606
G1 X27.9461 Y158.1141
G1 X29.4511 Y157.863
G1 X29.6995 Y157.7285
G1 X31.0414 Y157.0023
G1 X32.0749 Y155.8797
G1 X32.2661 Y155.6719
G1 X32.8791 Y154.2746
G1 X32.879
G1 X32.9925 Y154.016
G1 X33.1185 Y152.4953
G1 X33.1418 Y152.2139
G1 X32.7672 Y150.7347
G1 X32.6979 Y150.4609
G1 X31.8633 Y149.1836
G1 X31.7089 Y148.9471
G1 X31.486 Y148.7737
G1 X30.2819 Y147.8365
G1 X30.0148 Y147.7448
G1 X28.5717 Y147.2493
G1 X28.2892
G1 X26.7633
G0 Z3.0
G0 X25.5717 Y189.2493
G0 Z1.0
G1 F300.0 Z-0.6
G1 F1200.0 X25.2892
G1 X23.7633
G1 X23.4962 Y189.341
G1 X22.0531 Y189.8365
G1 X21.8302 Y190.01
G1 X20.6261 Y190.9471
G1 X19.7915 Y192.2245
G1 X19.6371 Y192.4609
G1 X19.2625 Y193.9401
G1 X19.1932 Y194.2139
G1 X19.3192 Y195.7345
G1 X19.3425 Y196.016
G1 X19.9554 Y197.4133
G1 X20.0689 Y197.672
G1 X21.1023 Y198.7945
G1 X21.2936 Y199.0023
G1 X21.5419 Y199.1367
G1 X22.8839 Y199.863
G1 X23.1625 Y199.9094
G1 X24.6675 Y200.1606
G1 X24.9461 Y200.1141
G1 X26.4511 Y199.863
G1 X26.6995 Y199.7285
G1 X28.0414 Y199.0023
G1 X29.0749 Y197.8797
G1 X29.2661 Y197.6719
G1 X29.8791 Y196.2746
G1 X29.9925 Y196.016
G1 X30.1185 Y194.4953
G1 X30.1418 Y194.2139
G1 X29.7672 Y192.7347
G1 X29.6979 Y192.4609
G1 X28.8633 Y191.1836
G1 X28.7089 Y190.9471
G1 X28.486 Y190.7737
G1 X27.2819 Y189.8365
G1 X27.0148 Y189.7448
G1 X25.5717 Y189.2493
G1 F300.0 Z-1.2
G1 F1200.0 X25.2892
G1 X23.7633
G1 X23.4962 Y189.341
G1 X22.0531 Y189.8365
G1 X21.8302 Y190.01
G1 X20.6261 Y190.9471
G1 X19.7915 Y192.2245
G1 X19.6371 Y192.4609
G1 X19.2625 Y193.9401
G1 X19.1932 Y194.2139
G1 X19.3192 Y195.7345
G1 X19.3425 Y196.016
G1 X19.9554 Y197.4133
G1 X20.0689 Y197.672
G1 X21.1023 Y198.7945
G1 X21.2936 Y199.0023
G1 X21.5419 Y199.1367
G1 X22.8839 Y199.863
G1 X23.1625 Y199.9094
G1 X24.6675 Y200.1606
G1 X24.9461 Y200.1141
G1 X26.4511 Y199.863
G1 X26.6995 Y199.7285
G1 X28.0414 Y199.0023
G1 X29.0749 Y197.8797
G1 X29.2661 Y197.6719
G1 X29.8791 Y196.2746
G1 X29.9925 Y196.016
G1 X30.1185 Y194.4953
G1 X30.1418 Y194.2139
G1 X29.7672 Y192.7347
G1 X29.6979 Y192.4609
G1 X28.8633 Y191.1836
G1 X28.7089 Y190.9471
G1 X28.486 Y190.7737
G1 X27.2819 Y189.8365
G1 X27.0148 Y189.7448
G1 X25.5717 Y189.2493
G1 F300.0 Z-1.8
G1 F1200.0 X25.2892
G1 X23.7633
G1 X23.4962 Y189.341
G1 X22.0531 Y189.8365
G1 X21.8302 Y190.01
G1 X20.6261 Y190.9471
G1 X19.7915 Y192.2245
G1 X19.6371 Y192.4609
G1 X19.2625 Y193.9401
G1 X19.1932 Y194.2139
G1 X19.3192 Y195.7345
G1 X19.3425 Y196.016
G1 X19.9554 Y197.4133
G1 X20.0689 Y197.672
G1 X21.1023 Y198.7945
G1 X21.2936 Y199.0023
G1 X21.5419 Y199.1367
G1 X22.8839 Y199.863
G1 X23.1625 Y199.9094
G1 X24.6675 Y200.1606
G1 X24.9461 Y200.1141
G1 X26.4511 Y199.863
G1 X26.6995 Y199.7285
G1 X28.0414 Y199.0023
G1 X29.0749 Y197.8797
G1 X29.2661 Y197.6719
G1 X29.8791 Y196.2746
G1 X29.9925 Y196.016
G1 X30.1185 Y194.4953
G1 X30.1418 Y194.2139
G1 X29.7672 Y192.7347
G1 X29.6979 Y192.4609
G1 X28.8633 Y191.1836
G1 X28.7089 Y190.9471
G1 X28.486 Y190.7737
G1 X27.2819 Y189.8365
G1 X27.0148 Y189.7448
G1 X25.5717 Y189.2493
G1 F300.0 Z-2.4
G1 F1200.0 X25.2892
G1 X23.7633
G1 X23.4962 Y189.341
G1 X22.0531 Y189.8365
G1 X21.8302 Y190.01
G1 X20.6261 Y190.9471
G1 X19.7915 Y192.2245
G1 X19.6371 Y192.4609
G1 X19.2625 Y193.9401
G1 X19.1932 Y194.2139
G1 X19.3192 Y195.7345
G1 X19.3425 Y196.016
G1 X19.9554 Y197.4133
G1 X20.0689 Y197.672
G1 X21.1023 Y198.7945
G1 X21.2936 Y199.0023
G1 X21.5419 Y199.1367
G1 X22.8839 Y199.863
G1 X23.1625 Y199.9094
G1 X24.6675 Y200.1606
G1 X24.9461 Y200.1141
G1 X26.4511 Y199.863
G1 X26.6995 Y199.7285
G1 X28.0414 Y199.0023
G1 X29.0749 Y197.8797
G1 X29.2661 Y197.6719
G1 X29.8791 Y196.2746
G1 X29.9925 Y196.016
G1 X30.1185 Y194.4953
G1 X30.1418 Y194.2139
G1 X29.7672 Y192.7347
G1 X29.6979 Y192.4609
G1 X28.8633 Y191.1836
G1 X28.7089 Y190.9471
G1 X28.486 Y190.7737
G1 X27.2819 Y189.8365
G1 X27.0148 Y189.7448
G1 X25.5717 Y189.2493
G1 F300.0 Z-3.0
G1 F1200.0 X25.2892
G1 X23.7633
G1 X23.4962 Y189.341
G1 X22.0531 Y189.8365
G1 X21.8302 Y190.01
G1 X20.6261 Y190.9471
G1 X19.7915 Y192.2245
G1 X19.6371 Y192.4609
G1 X19.2625 Y193.9401
G1 X19.1932 Y194.2139
G1 X19.3192 Y195.7345
G1 X19.3425 Y196.016
G1 X19.9554 Y197.4133
G1 X20.0689 Y197.672
G1 X21.1023 Y198.7945
G1 X21.2936 Y199.0023
G1 X21.5419 Y199.1367
G1 X22.8839 Y199.863
G1 X23.1625 Y199.9094
G1 X24.6675 Y200.1606
G1 X24.9461 Y200.1141
G1 X26.4511 Y199.863
G1 X26.6995 Y199.7285
G1 X28.0414 Y199.0023
G1 X29.0749 Y197.8797
G1 X29.2661 Y197.6719
G1 X29.8791 Y196.2746
G1 X29.9925 Y196.016
G1 X30.1185 Y194.4953
G1 X30.1418 Y194.2139
G1 X29.7672 Y192.7347
G1 X29.6979 Y192.4609
G1 X28.8633 Y191.1836
G1 X28.7089 Y190.9471
G1 X28.486 Y190.7737
G1 X27.2819 Y189.8365
G1 X27.0148 Y189.7448
G1 X25.5717 Y189.2493
G1 F300.0 Z-3.6
G1 F1200.0 X25.2892
G1 X23.7633
G1 X23.4962 Y189.341
G1 X22.0531 Y189.8365
G1 X21.8302 Y190.01
G1 X20.6261 Y190.9471
G1 X19.7915 Y192.2245
G1 X19.6371 Y192.4609
G1 X19.2625 Y193.9401
G1 X19.1932 Y194.2139
G1 X19.3192 Y195.7345
G1 X19.3425 Y196.016
G1 X19.9554 Y197.4133
G1 X20.0689 Y197.672
G1 X21.1023 Y198.7945
G1 X21.2936 Y199.0023
G1 X21.5419 Y199.1367
G1 X22.8839 Y199.863
G1 X23.1625 Y199.9094
G1 X24.6675 Y200.1606
G1 X24.9461 Y200.1141
G1 X26.4511 Y199.863
G1 X26.6995 Y199.7285
G1 X28.0414 Y199.0023
G1 X29.0749 Y197.8797
G1 X29.2661 Y197.6719
G1 X29.8791 Y196.2746
G1 X29.9925 Y196.016
G1 X30.1185 Y194.4953
G1 X30.1418 Y194.2139
G1 X29.7672 Y192.7347
G1 X29.6979 Y192.4609
G1 X28.8633 Y191.1836
G1 X28.7089 Y190.9471
G1 X28.486 Y190.7737
G1 X27.2819 Y189.8365
G1 X27.0148 Y189.7448
G1 X25.5717 Y189.2493
G1 F300.0 Z-4.0
G1 F1200.0 X25.2892
G1 X23.7633
G1 X23.4962 Y189.341
G1 X22.0531 Y189.8365
G1 X21.8302 Y190.01
G1 X20.6261 Y190.9471
G1 X19.7915 Y192.2245
G1 X19.6371 Y192.4609
G1 X19.2625 Y193.9401
G1 X19.1932 Y194.2139
G1 X19.3192 Y195.7345
G1 X19.3425 Y196.016
G1 X19.9554 Y197.4133
G1 X20.0689 Y197.672
G1 X21.1023 Y198.7945
G1 X21.2936 Y199.0023
G1 X21.5419 Y199.1367
G1 X22.8839 Y199.863
G1 X23.1625 Y199.9094
G1 X24.6675 Y200.1606
G1 X24.9461 Y200.1141
G1 X26.4511 Y199.863
G1 X26.6995 Y199.7285
G1 X28.0414 Y199.0023
G1 X29.0749 Y197.8797
G1 X29.2661 Y197.6719
G1 X29.8791 Y196.2746
G1 X29.9925 Y196.016
G1 X30.1185 Y194.4953
G1 X30.1418 Y194.2139
G1 X29.7672 Y192.7347
G1 X29.6979 Y192.4609
G1 X28.8633 Y191.1836
G1 X28.7089 Y190.9471
G1 X28.486 Y190.7737
G1 X27.2819 Y189.8365
G1 X27.0148 Y189.7448
G1 X25.5717 Y189.2493
G0 Z3.0
M5
M30
