( Made using CamBam - http://www.cambam.co.uk )
( tournevis2 7/21/2017 6:35:54 PM )
G0 Z3.0
M3 S1000
G0 X93.8838 Y229.9471
G0 Z1.0
G1 F300.0 Z-0.6
G1 F1200.0 X93.1117 Y229.3461
G1 X92.4569 Y228.8365
G1 X91.5314 Y228.5188
G1 X90.7467 Y228.2493
G1 X89.7681
G1 X88.9383
G1 X88.0128 Y228.5671
G1 X87.2281 Y228.8365
G1 X86.4559 Y229.4375
G1 X85.8011 Y229.9471
G1 X85.3473 Y230.6418
G1 X84.8121 Y231.4611
G1 X84.6084 Y232.2656
G1 X84.3682 Y233.2144
G1 X84.4367 Y234.0411
G1 X84.5175 Y235.0161
G1 X84.8508 Y235.776
G1 X85.2439 Y236.6723
G1 X85.8058 Y237.2826
G1 X86.4685 Y238.0025
G1 X87.3291 Y238.4682
G1 X88.0589 Y238.8631
G1 X89.0241 Y239.0241
G1 X89.8425 Y239.1606
G1 X90.8077 Y238.9996
G1 X91.6261 Y238.8631
G1 X92.4867 Y238.3974
G1 X93.2165 Y238.0025
G1 X93.7784 Y237.3921
G1 X94.4411 Y236.6723
G1 X94.7744 Y235.9123
G1 X95.1675 Y235.0161
G1 X95.236 Y234.1893
G1 X95.3168 Y233.2144
G1 X95.1131 Y232.4099
G1 X94.8729 Y231.4611
G1 X94.419 Y230.7664
G1 X93.8838 Y229.9471
G1 F300.0 Z-1.2
G1 F1200.0 X93.1117 Y229.3461
G1 X92.4569 Y228.8365
G1 X91.5314 Y228.5188
G1 X90.7467 Y228.2493
G1 X89.7681
G1 X88.9383
G1 X88.0128 Y228.5671
G1 X87.2281 Y228.8365
G1 X86.4559 Y229.4375
G1 X85.8011 Y229.9471
G1 X85.3473 Y230.6418
G1 X84.8121 Y231.4611
G1 X84.6084 Y232.2656
G1 X84.3682 Y233.2144
G1 X84.4367 Y234.0411
G1 X84.5175 Y235.0161
G1 X84.8508 Y235.776
G1 X85.2439 Y236.6723
G1 X85.8058 Y237.2826
G1 X86.4685 Y238.0025
G1 X87.3291 Y238.4682
G1 X88.0589 Y238.8631
G1 X89.0241 Y239.0241
G1 X89.8425 Y239.1606
G1 X90.8077 Y238.9996
G1 X91.6261 Y238.8631
G1 X92.4867 Y238.3974
G1 X93.2165 Y238.0025
G1 X93.7784 Y237.3921
G1 X94.4411 Y236.6723
G1 X94.7744 Y235.9123
G1 X95.1675 Y235.0161
G1 X95.236 Y234.1893
G1 X95.3168 Y233.2144
G1 X95.1131 Y232.4099
G1 X94.8729 Y231.4611
G1 X94.419 Y230.7664
G1 X93.8838 Y229.9471
G1 F300.0 Z-1.8
G1 F1200.0 X93.1117 Y229.3461
G1 X92.4569 Y228.8365
G1 X91.5314 Y228.5188
G1 X90.7467 Y228.2493
G1 X89.7681
G1 X88.9383
G1 X88.0128 Y228.5671
G1 X87.2281 Y228.8365
G1 X86.4559 Y229.4375
G1 X85.8011 Y229.9471
G1 X85.3473 Y230.6418
G1 X84.8121 Y231.4611
G1 X84.6084 Y232.2656
G1 X84.3682 Y233.2144
G1 X84.4367 Y234.0411
G1 X84.5175 Y235.0161
G1 X84.8508 Y235.776
G1 X85.2439 Y236.6723
G1 X85.8058 Y237.2826
G1 X86.4685 Y238.0025
G1 X87.3291 Y238.4682
G1 X88.0589 Y238.8631
G1 X89.0241 Y239.0241
G1 X89.8425 Y239.1606
G1 X90.8077 Y238.9996
G1 X91.6261 Y238.8631
G1 X92.4867 Y238.3974
G1 X93.2165 Y238.0025
G1 X93.7784 Y237.3921
G1 X94.4411 Y236.6723
G1 X94.7744 Y235.9123
G1 X95.1675 Y235.0161
G1 X95.236 Y234.1893
G1 X95.3168 Y233.2144
G1 X95.1131 Y232.4099
G1 X94.8729 Y231.4611
G1 X94.419 Y230.7664
G1 X93.8838 Y229.9471
G1 F300.0 Z-2.4
G1 F1200.0 X93.1117 Y229.3461
G1 X92.4569 Y228.8365
G1 X91.5314 Y228.5188
G1 X90.7467 Y228.2493
G1 X89.7681
G1 X88.9383
G1 X88.0128 Y228.5671
G1 X87.2281 Y228.8365
G1 X86.4559 Y229.4375
G1 X85.8011 Y229.9471
G1 X85.3473 Y230.6418
G1 X84.8121 Y231.4611
G1 X84.6084 Y232.2656
G1 X84.3682 Y233.2144
G1 X84.4367 Y234.0411
G1 X84.5175 Y235.0161
G1 X84.8508 Y235.776
G1 X85.2439 Y236.6723
G1 X85.8058 Y237.2826
G1 X86.4685 Y238.0025
G1 X87.3291 Y238.4682
G1 X88.0589 Y238.8631
G1 X89.0241 Y239.0241
G1 X89.8425 Y239.1606
G1 X90.8077 Y238.9996
G1 X91.6261 Y238.8631
G1 X92.4867 Y238.3974
G1 X93.2165 Y238.0025
G1 X93.7784 Y237.3921
G1 X94.4411 Y236.6723
G1 X94.7744 Y235.9123
G1 X95.1675 Y235.0161
G1 X95.236 Y234.1893
G1 X95.3168 Y233.2144
G1 X95.1131 Y232.4099
G1 X94.8729 Y231.4611
G1 X94.419 Y230.7664
G1 X93.8838 Y229.9471
G1 F300.0 Z-3.0
G1 F1200.0 X93.1117 Y229.3461
G1 X92.4569 Y228.8365
G1 X91.5314 Y228.5188
G1 X90.7467 Y228.2493
G1 X89.7681
G1 X88.9383
G1 X88.0128 Y228.5671
G1 X87.2281 Y228.8365
G1 X86.4559 Y229.4375
G1 X85.8011 Y229.9471
G1 X85.3473 Y230.6418
G1 X84.8121 Y231.4611
G1 X84.6084 Y232.2656
G1 X84.3682 Y233.2144
G1 X84.4367 Y234.0411
G1 X84.5175 Y235.0161
G1 X84.8508 Y235.776
G1 X85.2439 Y236.6723
G1 X85.8058 Y237.2826
G1 X86.4685 Y238.0025
G1 X87.3291 Y238.4682
G1 X88.0589 Y238.8631
G1 X89.0241 Y239.0241
G1 X89.8425 Y239.1606
G1 X90.8077 Y238.9996
G1 X91.6261 Y238.8631
G1 X92.4867 Y238.3974
G1 X93.2165 Y238.0025
G1 X93.7784 Y237.3921
G1 X94.4411 Y236.6723
G1 X94.7744 Y235.9123
G1 X95.1675 Y235.0161
G1 X95.236 Y234.1893
G1 X95.3168 Y233.2144
G1 X95.1131 Y232.4099
G1 X94.8729 Y231.4611
G1 X94.419 Y230.7664
G1 X93.8838 Y229.9471
G1 F300.0 Z-3.6
G1 F1200.0 X93.1117 Y229.3461
G1 X92.4569 Y228.8365
G1 X91.5314 Y228.5188
G1 X90.7467 Y228.2493
G1 X89.7681
G1 X88.9383
G1 X88.0128 Y228.5671
G1 X87.2281 Y228.8365
G1 X86.4559 Y229.4375
G1 X85.8011 Y229.9471
G1 X85.3473 Y230.6418
G1 X84.8121 Y231.4611
G1 X84.6084 Y232.2656
G1 X84.3682 Y233.2144
G1 X84.4367 Y234.0411
G1 X84.5175 Y235.0161
G1 X84.8508 Y235.776
G1 X85.2439 Y236.6723
G1 X85.8058 Y237.2826
G1 X86.4685 Y238.0025
G1 X87.3291 Y238.4682
G1 X88.0589 Y238.8631
G1 X89.0241 Y239.0241
G1 X89.8425 Y239.1606
G1 X90.8077 Y238.9996
G1 X91.6261 Y238.8631
G1 X92.4867 Y238.3974
G1 X93.2165 Y238.0025
G1 X93.7784 Y237.3921
G1 X94.4411 Y236.6723
G1 X94.7744 Y235.9123
G1 X95.1675 Y235.0161
G1 X95.236 Y234.1893
G1 X95.3168 Y233.2144
G1 X95.1131 Y232.4099
G1 X94.8729 Y231.4611
G1 X94.419 Y230.7664
G1 X93.8838 Y229.9471
G1 F300.0 Z-4.0
G1 F1200.0 X93.1117 Y229.3461
G1 X92.4569 Y228.8365
G1 X91.5314 Y228.5188
G1 X90.7467 Y228.2493
G1 X89.7681
G1 X88.9383
G1 X88.0128 Y228.5671
G1 X87.2281 Y228.8365
G1 X86.4559 Y229.4375
G1 X85.8011 Y229.9471
G1 X85.3473 Y230.6418
G1 X84.8121 Y231.4611
G1 X84.6084 Y232.2656
G1 X84.3682 Y233.2144
G1 X84.4367 Y234.0411
G1 X84.5175 Y235.0161
G1 X84.8508 Y235.776
G1 X85.2439 Y236.6723
G1 X85.8058 Y237.2826
G1 X86.4685 Y238.0025
G1 X87.3291 Y238.4682
G1 X88.0589 Y238.8631
G1 X89.0241 Y239.0241
G1 X89.8425 Y239.1606
G1 X90.8077 Y238.9996
G1 X91.6261 Y238.8631
G1 X92.4867 Y238.3974
G1 X93.2165 Y238.0025
G1 X93.7784 Y237.3921
G1 X94.4411 Y236.6723
G1 X94.7744 Y235.9123
G1 X95.1675 Y235.0161
G1 X95.236 Y234.1893
G1 X95.3168 Y233.2144
G1 X95.1131 Y232.4099
G1 X94.8729 Y231.4611
G1 X94.419 Y230.7664
G1 X93.8838 Y229.9471
G0 Z3.0
G0 X114.3682 Y233.2144
G0 Z1.0
G1 F300.0 Z-0.6
G1 F1200.0 X114.5175 Y235.0161
G1 X115.2439 Y236.6723
G1 X116.4685 Y238.0025
G1 X118.0589 Y238.8631
G1 X119.8425 Y239.1606
G1 X121.6261 Y238.8631
G1 X123.2165 Y238.0025
G1 X124.4411 Y236.6723
G1 X125.1675 Y235.0161
G1 X125.3168 Y233.2144
G1 X124.8729 Y231.4611
G1 X123.8838 Y229.9471
G1 X122.4569 Y228.8365
G1 X120.7466 Y228.2493
G1 X118.9383
G1 X117.2281 Y228.8365
G1 X115.8011 Y229.9471
G1 X114.8121 Y231.4611
G1 X114.3682 Y233.2144
G1 F300.0 Z-1.2
G1 F1200.0 X114.5175 Y235.0161
G1 X115.2439 Y236.6723
G1 X116.4685 Y238.0025
G1 X118.0589 Y238.8631
G1 X119.8425 Y239.1606
G1 X121.6261 Y238.8631
G1 X123.2165 Y238.0025
G1 X124.4411 Y236.6723
G1 X125.1675 Y235.0161
G1 X125.3168 Y233.2144
G1 X124.8729 Y231.4611
G1 X123.8838 Y229.9471
G1 X122.4569 Y228.8365
G1 X120.7466 Y228.2493
G1 X118.9383
G1 X117.2281 Y228.8365
G1 X115.8011 Y229.9471
G1 X114.8121 Y231.4611
G1 X114.3682 Y233.2144
G1 F300.0 Z-1.8
G1 F1200.0 X114.5175 Y235.0161
G1 X115.2439 Y236.6723
G1 X116.4685 Y238.0025
G1 X118.0589 Y238.8631
G1 X119.8425 Y239.1606
G1 X121.6261 Y238.8631
G1 X123.2165 Y238.0025
G1 X124.4411 Y236.6723
G1 X125.1675 Y235.0161
G1 X125.3168 Y233.2144
G1 X124.8729 Y231.4611
G1 X123.8838 Y229.9471
G1 X122.4569 Y228.8365
G1 X120.7466 Y228.2493
G1 X118.9383
G1 X117.2281 Y228.8365
G1 X115.8011 Y229.9471
G1 X114.8121 Y231.4611
G1 X114.3682 Y233.2144
G1 F300.0 Z-2.4
G1 F1200.0 X114.5175 Y235.0161
G1 X115.2439 Y236.6723
G1 X116.4685 Y238.0025
G1 X118.0589 Y238.8631
G1 X119.8425 Y239.1606
G1 X121.6261 Y238.8631
G1 X123.2165 Y238.0025
G1 X124.4411 Y236.6723
G1 X125.1675 Y235.0161
G1 X125.3168 Y233.2144
G1 X124.8729 Y231.4611
G1 X123.8838 Y229.9471
G1 X122.4569 Y228.8365
G1 X120.7466 Y228.2493
G1 X118.9383
G1 X117.2281 Y228.8365
G1 X115.8011 Y229.9471
G1 X114.8121 Y231.4611
G1 X114.3682 Y233.2144
G1 F300.0 Z-3.0
G1 F1200.0 X114.5175 Y235.0161
G1 X115.2439 Y236.6723
G1 X116.4685 Y238.0025
G1 X118.0589 Y238.8631
G1 X119.8425 Y239.1606
G1 X121.6261 Y238.8631
G1 X123.2165 Y238.0025
G1 X124.4411 Y236.6723
G1 X125.1675 Y235.0161
G1 X125.3168 Y233.2144
G1 X124.8729 Y231.4611
G1 X123.8838 Y229.9471
G1 X122.4569 Y228.8365
G1 X120.7466 Y228.2493
G1 X118.9383
G1 X117.2281 Y228.8365
G1 X115.8011 Y229.9471
G1 X114.8121 Y231.4611
G1 X114.3682 Y233.2144
G1 F300.0 Z-3.6
G1 F1200.0 X114.5175 Y235.0161
G1 X115.2439 Y236.6723
G1 X116.4685 Y238.0025
G1 X118.0589 Y238.8631
G1 X119.8425 Y239.1606
G1 X121.6261 Y238.8631
G1 X123.2165 Y238.0025
G1 X124.4411 Y236.6723
G1 X125.1675 Y235.0161
G1 X125.3168 Y233.2144
G1 X124.8729 Y231.4611
G1 X123.8838 Y229.9471
G1 X122.4569 Y228.8365
G1 X120.7466 Y228.2493
G1 X118.9383
G1 X117.2281 Y228.8365
G1 X115.8011 Y229.9471
G1 X114.8121 Y231.4611
G1 X114.3682 Y233.2144
G1 F300.0 Z-4.0
G1 F1200.0 X114.5175 Y235.0161
G1 X115.2439 Y236.6723
G1 X116.4685 Y238.0025
G1 X118.0589 Y238.8631
G1 X119.8425 Y239.1606
G1 X121.6261 Y238.8631
G1 X123.2165 Y238.0025
G1 X124.4411 Y236.6723
G1 X125.1675 Y235.0161
G1 X125.3168 Y233.2144
G1 X124.8729 Y231.4611
G1 X123.8838 Y229.9471
G1 X122.4569 Y228.8365
G1 X120.7466 Y228.2493
G1 X118.9383
G1 X117.2281 Y228.8365
G1 X115.8011 Y229.9471
G1 X114.8121 Y231.4611
G1 X114.3682 Y233.2144
G0 Z3.0
G0 X119.8425 Y207.6263
G0 Z1.0
G1 F300.0 Z-0.6
G1 F1200.0 X121.2276 Y207.0526
G1 X121.8013 Y205.6675
G1 X121.2276 Y204.2824
G1 X119.8425 Y203.7087
G1 X118.4574 Y204.2824
G1 X117.8837 Y205.6675
G1 X118.4574 Y207.0526
G1 X119.8425 Y207.6263
G1 F300.0 Z-1.2
G1 F1200.0 X121.2276 Y207.0526
G1 X121.8013 Y205.6675
G1 X121.2276 Y204.2824
G1 X119.8425 Y203.7087
G1 X118.4574 Y204.2824
G1 X117.8837 Y205.6675
G1 X118.4574 Y207.0526
G1 X119.8425 Y207.6263
G1 F300.0 Z-1.8
G1 F1200.0 X121.2276 Y207.0526
G1 X121.8013 Y205.6675
G1 X121.2276 Y204.2824
G1 X119.8425 Y203.7087
G1 X118.4574 Y204.2824
G1 X117.8837 Y205.6675
G1 X118.4574 Y207.0526
G1 X119.8425 Y207.6263
G1 F300.0 Z-2.4
G1 F1200.0 X121.2276 Y207.0526
G1 X121.8013 Y205.6675
G1 X121.2276 Y204.2824
G1 X119.8425 Y203.7087
G1 X118.4574 Y204.2824
G1 X117.8837 Y205.6675
G1 X118.4574 Y207.0526
G1 X119.8425 Y207.6263
G1 F300.0 Z-3.0
G1 F1200.0 X121.2276 Y207.0526
G1 X121.8013 Y205.6675
G1 X121.2276 Y204.2824
G1 X119.8425 Y203.7087
G1 X118.4574 Y204.2824
G1 X117.8837 Y205.6675
G1 X118.4574 Y207.0526
G1 X119.8425 Y207.6263
G1 F300.0 Z-3.6
G1 F1200.0 X121.2276 Y207.0526
G1 X121.8013 Y205.6675
G1 X121.2276 Y204.2824
G1 X119.8425 Y203.7087
G1 X118.4574 Y204.2824
G1 X117.8837 Y205.6675
G1 X118.4574 Y207.0526
G1 X119.8425 Y207.6263
G1 F300.0 Z-4.0
G1 F1200.0 X121.2276 Y207.0526
G1 X121.8013 Y205.6675
G1 X121.2276 Y204.2824
G1 X119.8425 Y203.7087
G1 X118.4574 Y204.2824
G1 X117.8837 Y205.6675
G1 X118.4574 Y207.0526
G1 X119.8425 Y207.6263
G0 Z3.0
G0 Y190.6263
G0 Z1.0
G1 F300.0 Z-0.6
G1 F1200.0 X121.2276 Y190.0526
G1 X121.8013 Y188.6675
G1 X121.2276 Y187.2824
G1 X119.8425 Y186.7087
G1 X118.4574 Y187.2824
G1 X117.8837 Y188.6675
G1 X118.4574 Y190.0526
G1 X119.8425 Y190.6263
G1 F300.0 Z-1.2
G1 F1200.0 X121.2276 Y190.0526
G1 X121.8013 Y188.6675
G1 X121.2276 Y187.2824
G1 X119.8425 Y186.7087
G1 X118.4574 Y187.2824
G1 X117.8837 Y188.6675
G1 X118.4574 Y190.0526
G1 X119.8425 Y190.6263
G1 F300.0 Z-1.8
G1 F1200.0 X121.2276 Y190.0526
G1 X121.8013 Y188.6675
G1 X121.2276 Y187.2824
G1 X119.8425 Y186.7087
G1 X118.4574 Y187.2824
G1 X117.8837 Y188.6675
G1 X118.4574 Y190.0526
G1 X119.8425 Y190.6263
G1 F300.0 Z-2.4
G1 F1200.0 X121.2276 Y190.0526
G1 X121.8013 Y188.6675
G1 X121.2276 Y187.2824
G1 X119.8425 Y186.7087
G1 X118.4574 Y187.2824
G1 X117.8837 Y188.6675
G1 X118.4574 Y190.0526
G1 X119.8425 Y190.6263
G1 F300.0 Z-3.0
G1 F1200.0 X121.2276 Y190.0526
G1 X121.8013 Y188.6675
G1 X121.2276 Y187.2824
G1 X119.8425 Y186.7087
G1 X118.4574 Y187.2824
G1 X117.8837 Y188.6675
G1 X118.4574 Y190.0526
G1 X119.8425 Y190.6263
G1 F300.0 Z-3.6
G1 F1200.0 X121.2276 Y190.0526
G1 X121.8013 Y188.6675
G1 X121.2276 Y187.2824
G1 X119.8425 Y186.7087
G1 X118.4574 Y187.2824
G1 X117.8837 Y188.6675
G1 X118.4574 Y190.0526
G1 X119.8425 Y190.6263
G1 F300.0 Z-4.0
G1 F1200.0 X121.2276 Y190.0526
G1 X121.8013 Y188.6675
G1 X121.2276 Y187.2824
G1 X119.8425 Y186.7087
G1 X118.4574 Y187.2824
G1 X117.8837 Y188.6675
G1 X118.4574 Y190.0526
G1 X119.8425 Y190.6263
G0 Z3.0
G0 X117.5859 Y169.7732
G0 Z1.0
G1 F300.0 Z-0.6
G1 F1200.0 X117.6127 Y169.7084
G3 X117.8834 Y169.4378 I0.4619 J0.1913
G1 X117.9482 Y169.4109
G1 X119.6512 Y168.7056
G3 X120.0338 I0.1913 J0.4619
G1 X120.0987 Y168.7324
G1 X121.8016 Y169.4378
G3 X122.0722 Y169.7084 I-0.1913 J0.4619
G1 X122.7776 Y171.4113
G1 X122.8044 Y171.4762
G3 Y171.8588 I-0.4619 J0.1913
G1 X122.0991 Y173.5618
G1 X122.0722 Y173.6266
G3 X121.8016 Y173.8972 I-0.4619 J-0.1913
G1 X121.7368 Y173.9241
G1 X120.0338 Y174.6295
G3 X119.6512 I-0.1913 J-0.4619
G1 X119.5863 Y174.6026
G1 X117.8834 Y173.8972
G3 X117.6127 Y173.6266 I0.1913 J-0.4619
G1 X116.9074 Y171.9237
G1 X116.8805 Y171.8588
G0 Z3.0
G0 X117.5859 Y169.7732
G0 Z0.4
G1 F300.0 Z-1.2
G1 F1200.0 X117.6127 Y169.7084
G3 X117.8834 Y169.4378 I0.4619 J0.1913
G1 X117.9482 Y169.4109
G1 X119.6512 Y168.7056
G3 X120.0338 I0.1913 J0.4619
G1 X120.0987 Y168.7324
G1 X121.8016 Y169.4378
G3 X122.0722 Y169.7084 I-0.1913 J0.4619
G1 X122.7776 Y171.4113
G1 X122.8044 Y171.4762
G3 Y171.8588 I-0.4619 J0.1913
G1 X122.0991 Y173.5618
G1 X122.0722 Y173.6266
G3 X121.8016 Y173.8972 I-0.4619 J-0.1913
G1 X121.7368 Y173.9241
G1 X120.0338 Y174.6295
G3 X119.6512 I-0.1913 J-0.4619
G1 X119.5863 Y174.6026
G1 X117.8834 Y173.8972
G3 X117.6127 Y173.6266 I0.1913 J-0.4619
G1 X116.9074 Y171.9237
G1 X116.8805 Y171.8588
G0 Z3.0
G0 X117.5859 Y169.7732
G0 Z-0.2
G1 F300.0 Z-1.8
G1 F1200.0 X117.6127 Y169.7084
G3 X117.8834 Y169.4378 I0.4619 J0.1913
G1 X117.9482 Y169.4109
G1 X119.6512 Y168.7056
G3 X120.0338 I0.1913 J0.4619
G1 X120.0987 Y168.7324
G1 X121.8016 Y169.4378
G3 X122.0722 Y169.7084 I-0.1913 J0.4619
G1 X122.7776 Y171.4113
G1 X122.8044 Y171.4762
G3 Y171.8588 I-0.4619 J0.1913
G1 X122.0991 Y173.5618
G1 X122.0722 Y173.6266
G3 X121.8016 Y173.8972 I-0.4619 J-0.1913
G1 X121.7368 Y173.9241
G1 X120.0338 Y174.6295
G3 X119.6512 I-0.1913 J-0.4619
G1 X119.5863 Y174.6026
G1 X117.8834 Y173.8972
G3 X117.6127 Y173.6266 I0.1913 J-0.4619
G1 X116.9074 Y171.9237
G1 X116.8805 Y171.8588
G0 Z3.0
G0 X117.5859 Y169.7732
G0 Z-0.8
G1 F300.0 Z-2.4
G1 F1200.0 X117.6127 Y169.7084
G3 X117.8834 Y169.4378 I0.4619 J0.1913
G1 X117.9482 Y169.4109
G1 X119.6512 Y168.7056
G3 X120.0338 I0.1913 J0.4619
G1 X120.0987 Y168.7324
G1 X121.8016 Y169.4378
G3 X122.0722 Y169.7084 I-0.1913 J0.4619
G1 X122.7776 Y171.4113
G1 X122.8044 Y171.4762
G3 Y171.8588 I-0.4619 J0.1913
G1 X122.0991 Y173.5618
G1 X122.0722 Y173.6266
G3 X121.8016 Y173.8972 I-0.4619 J-0.1913
G1 X121.7368 Y173.9241
G1 X120.0338 Y174.6295
G3 X119.6512 I-0.1913 J-0.4619
G1 X119.5863 Y174.6026
G1 X117.8834 Y173.8972
G3 X117.6127 Y173.6266 I0.1913 J-0.4619
G1 X116.9074 Y171.9237
G1 X116.8805 Y171.8588
G0 Z3.0
G0 X117.5859 Y169.7732
G0 Z-1.4
G1 F300.0 Z-3.0
G1 F1200.0 X117.6127 Y169.7084
G3 X117.8834 Y169.4378 I0.4619 J0.1913
G1 X117.9482 Y169.4109
G1 X119.6512 Y168.7056
G3 X120.0338 I0.1913 J0.4619
G1 X120.0987 Y168.7324
G1 X121.8016 Y169.4378
G3 X122.0722 Y169.7084 I-0.1913 J0.4619
G1 X122.7776 Y171.4113
G1 X122.8044 Y171.4762
G3 Y171.8588 I-0.4619 J0.1913
G1 X122.0991 Y173.5618
G1 X122.0722 Y173.6266
G3 X121.8016 Y173.8972 I-0.4619 J-0.1913
G1 X121.7368 Y173.9241
G1 X120.0338 Y174.6295
G3 X119.6512 I-0.1913 J-0.4619
G1 X119.5863 Y174.6026
G1 X117.8834 Y173.8972
G3 X117.6127 Y173.6266 I0.1913 J-0.4619
G1 X116.9074 Y171.9237
G1 X116.8805 Y171.8588
G0 Z3.0
G0 X117.5859 Y169.7732
G0 Z-2.0
G1 F300.0 Z-3.6
G1 F1200.0 X117.6127 Y169.7084
G3 X117.8834 Y169.4378 I0.4619 J0.1913
G1 X117.9482 Y169.4109
G1 X119.6512 Y168.7056
G3 X120.0338 I0.1913 J0.4619
G1 X120.0987 Y168.7324
G1 X121.8016 Y169.4378
G3 X122.0722 Y169.7084 I-0.1913 J0.4619
G1 X122.7776 Y171.4113
G1 X122.8044 Y171.4762
G3 Y171.8588 I-0.4619 J0.1913
G1 X122.0991 Y173.5618
G1 X122.0722 Y173.6266
G3 X121.8016 Y173.8972 I-0.4619 J-0.1913
G1 X121.7368 Y173.9241
G1 X120.0338 Y174.6295
G3 X119.6512 I-0.1913 J-0.4619
G1 X119.5863 Y174.6026
G1 X117.8834 Y173.8972
G3 X117.6127 Y173.6266 I0.1913 J-0.4619
G1 X116.9074 Y171.9237
G1 X116.8805 Y171.8588
G0 Z3.0
G0 X117.5859 Y169.7732
G0 Z-2.6
G1 F300.0 Z-4.0
G1 F1200.0 X117.6127 Y169.7084
G3 X117.8834 Y169.4378 I0.4619 J0.1913
G1 X117.9482 Y169.4109
G1 X119.6512 Y168.7056
G3 X120.0338 I0.1913 J0.4619
G1 X120.0987 Y168.7324
G1 X121.8016 Y169.4378
G3 X122.0722 Y169.7084 I-0.1913 J0.4619
G1 X122.7776 Y171.4113
G1 X122.8044 Y171.4762
G3 Y171.8588 I-0.4619 J0.1913
G1 X122.0991 Y173.5618
G1 X122.0722 Y173.6266
G3 X121.8016 Y173.8972 I-0.4619 J-0.1913
G1 X121.7368 Y173.9241
G1 X120.0338 Y174.6295
G3 X119.6512 I-0.1913 J-0.4619
G1 X119.5863 Y174.6026
G1 X117.8834 Y173.8972
G3 X117.6127 Y173.6266 I0.1913 J-0.4619
G1 X116.9074 Y171.9237
G1 X116.8805 Y171.8588
G0 Z3.0
G0 X119.8425 Y156.6263
G0 Z1.0
G1 F300.0 Z-0.6
G1 F1200.0 X121.2276 Y156.0526
G1 X121.8013 Y154.6675
G1 X121.2276 Y153.2824
G1 X119.8425 Y152.7087
G1 X118.4574 Y153.2824
G1 X117.8837 Y154.6675
G1 X118.4574 Y156.0526
G1 X119.8425 Y156.6263
G1 F300.0 Z-1.2
G1 F1200.0 X121.2276 Y156.0526
G1 X121.8013 Y154.6675
G1 X121.2276 Y153.2824
G1 X119.8425 Y152.7087
G1 X118.4574 Y153.2824
G1 X117.8837 Y154.6675
G1 X118.4574 Y156.0526
G1 X119.8425 Y156.6263
G1 F300.0 Z-1.8
G1 F1200.0 X121.2276 Y156.0526
G1 X121.8013 Y154.6675
G1 X121.2276 Y153.2824
G1 X119.8425 Y152.7087
G1 X118.4574 Y153.2824
G1 X117.8837 Y154.6675
G1 X118.4574 Y156.0526
G1 X119.8425 Y156.6263
G1 F300.0 Z-2.4
G1 F1200.0 X121.2276 Y156.0526
G1 X121.8013 Y154.6675
G1 X121.2276 Y153.2824
G1 X119.8425 Y152.7087
G1 X118.4574 Y153.2824
G1 X117.8837 Y154.6675
G1 X118.4574 Y156.0526
G1 X119.8425 Y156.6263
G1 F300.0 Z-3.0
G1 F1200.0 X121.2276 Y156.0526
G1 X121.8013 Y154.6675
G1 X121.2276 Y153.2824
G1 X119.8425 Y152.7087
G1 X118.4574 Y153.2824
G1 X117.8837 Y154.6675
G1 X118.4574 Y156.0526
G1 X119.8425 Y156.6263
G1 F300.0 Z-3.6
G1 F1200.0 X121.2276 Y156.0526
G1 X121.8013 Y154.6675
G1 X121.2276 Y153.2824
G1 X119.8425 Y152.7087
G1 X118.4574 Y153.2824
G1 X117.8837 Y154.6675
G1 X118.4574 Y156.0526
G1 X119.8425 Y156.6263
G1 F300.0 Z-4.0
G1 F1200.0 X121.2276 Y156.0526
G1 X121.8013 Y154.6675
G1 X121.2276 Y153.2824
G1 X119.8425 Y152.7087
G1 X118.4574 Y153.2824
G1 X117.8837 Y154.6675
G1 X118.4574 Y156.0526
G1 X119.8425 Y156.6263
G0 Z3.0
G0 Y139.6263
G0 Z1.0
G1 F300.0 Z-0.6
G1 F1200.0 X121.2276 Y139.0526
G1 X121.8013 Y137.6675
G1 X121.2276 Y136.2824
G1 X119.8425 Y135.7087
G1 X118.4574 Y136.2824
G1 X117.8837 Y137.6675
G1 X118.4574 Y139.0526
G1 X119.8425 Y139.6263
G1 F300.0 Z-1.2
G1 F1200.0 X121.2276 Y139.0526
G1 X121.8013 Y137.6675
G1 X121.2276 Y136.2824
G1 X119.8425 Y135.7087
G1 X118.4574 Y136.2824
G1 X117.8837 Y137.6675
G1 X118.4574 Y139.0526
G1 X119.8425 Y139.6263
G1 F300.0 Z-1.8
G1 F1200.0 X121.2276 Y139.0526
G1 X121.8013 Y137.6675
G1 X121.2276 Y136.2824
G1 X119.8425 Y135.7087
G1 X118.4574 Y136.2824
G1 X117.8837 Y137.6675
G1 X118.4574 Y139.0526
G1 X119.8425 Y139.6263
G1 F300.0 Z-2.4
G1 F1200.0 X121.2276 Y139.0526
G1 X121.8013 Y137.6675
G1 X121.2276 Y136.2824
G1 X119.8425 Y135.7087
G1 X118.4574 Y136.2824
G1 X117.8837 Y137.6675
G1 X118.4574 Y139.0526
G1 X119.8425 Y139.6263
G1 F300.0 Z-3.0
G1 F1200.0 X121.2276 Y139.0526
G1 X121.8013 Y137.6675
G1 X121.2276 Y136.2824
G1 X119.8425 Y135.7087
G1 X118.4574 Y136.2824
G1 X117.8837 Y137.6675
G1 X118.4574 Y139.0526
G1 X119.8425 Y139.6263
G1 F300.0 Z-3.6
G1 F1200.0 X121.2276 Y139.0526
G1 X121.8013 Y137.6675
G1 X121.2276 Y136.2824
G1 X119.8425 Y135.7087
G1 X118.4574 Y136.2824
G1 X117.8837 Y137.6675
G1 X118.4574 Y139.0526
G1 X119.8425 Y139.6263
G1 F300.0 Z-4.0
G1 F1200.0 X121.2276 Y139.0526
G1 X121.8013 Y137.6675
G1 X121.2276 Y136.2824
G1 X119.8425 Y135.7087
G1 X118.4574 Y136.2824
G1 X117.8837 Y137.6675
G1 X118.4574 Y139.0526
G1 X119.8425 Y139.6263
G0 Z3.0
G0 Y123.6263
G0 Z1.0
G1 F300.0 Z-0.6
G1 F1200.0 X121.2276 Y123.0526
G1 X121.8013 Y121.6675
G1 X121.2276 Y120.2824
G1 X119.8425 Y119.7087
G1 X118.4574 Y120.2824
G1 X117.8837 Y121.6675
G1 X118.4574 Y123.0526
G1 X119.8425 Y123.6263
G1 F300.0 Z-1.2
G1 F1200.0 X121.2276 Y123.0526
G1 X121.8013 Y121.6675
G1 X121.2276 Y120.2824
G1 X119.8425 Y119.7087
G1 X118.4574 Y120.2824
G1 X117.8837 Y121.6675
G1 X118.4574 Y123.0526
G1 X119.8425 Y123.6263
G1 F300.0 Z-1.8
G1 F1200.0 X121.2276 Y123.0526
G1 X121.8013 Y121.6675
G1 X121.2276 Y120.2824
G1 X119.8425 Y119.7087
G1 X118.4574 Y120.2824
G1 X117.8837 Y121.6675
G1 X118.4574 Y123.0526
G1 X119.8425 Y123.6263
G1 F300.0 Z-2.4
G1 F1200.0 X121.2276 Y123.0526
G1 X121.8013 Y121.6675
G1 X121.2276 Y120.2824
G1 X119.8425 Y119.7087
G1 X118.4574 Y120.2824
G1 X117.8837 Y121.6675
G1 X118.4574 Y123.0526
G1 X119.8425 Y123.6263
G1 F300.0 Z-3.0
G1 F1200.0 X121.2276 Y123.0526
G1 X121.8013 Y121.6675
G1 X121.2276 Y120.2824
G1 X119.8425 Y119.7087
G1 X118.4574 Y120.2824
G1 X117.8837 Y121.6675
G1 X118.4574 Y123.0526
G1 X119.8425 Y123.6263
G1 F300.0 Z-3.6
G1 F1200.0 X121.2276 Y123.0526
G1 X121.8013 Y121.6675
G1 X121.2276 Y120.2824
G1 X119.8425 Y119.7087
G1 X118.4574 Y120.2824
G1 X117.8837 Y121.6675
G1 X118.4574 Y123.0526
G1 X119.8425 Y123.6263
G1 F300.0 Z-4.0
G1 F1200.0 X121.2276 Y123.0526
G1 X121.8013 Y121.6675
G1 X121.2276 Y120.2824
G1 X119.8425 Y119.7087
G1 X118.4574 Y120.2824
G1 X117.8837 Y121.6675
G1 X118.4574 Y123.0526
G1 X119.8425 Y123.6263
G0 Z3.0
G0 Y106.6263
G0 Z1.0
G1 F300.0 Z-0.6
G1 F1200.0 X121.2276 Y106.0526
G1 X121.8013 Y104.6675
G1 X121.2276 Y103.2824
G1 X119.8425 Y102.7087
G1 X118.4574 Y103.2824
G1 X117.8837 Y104.6675
G1 X118.4574 Y106.0526
G1 X119.8425 Y106.6263
G1 F300.0 Z-1.2
G1 F1200.0 X121.2276 Y106.0526
G1 X121.8013 Y104.6675
G1 X121.2276 Y103.2824
G1 X119.8425 Y102.7087
G1 X118.4574 Y103.2824
G1 X117.8837 Y104.6675
G1 X118.4574 Y106.0526
G1 X119.8425 Y106.6263
G1 F300.0 Z-1.8
G1 F1200.0 X121.2276 Y106.0526
G1 X121.8013 Y104.6675
G1 X121.2276 Y103.2824
G1 X119.8425 Y102.7087
G1 X118.4574 Y103.2824
G1 X117.8837 Y104.6675
G1 X118.4574 Y106.0526
G1 X119.8425 Y106.6263
G1 F300.0 Z-2.4
G1 F1200.0 X121.2276 Y106.0526
G1 X121.8013 Y104.6675
G1 X121.2276 Y103.2824
G1 X119.8425 Y102.7087
G1 X118.4574 Y103.2824
G1 X117.8837 Y104.6675
G1 X118.4574 Y106.0526
G1 X119.8425 Y106.6263
G1 F300.0 Z-3.0
G1 F1200.0 X121.2276 Y106.0526
G1 X121.8013 Y104.6675
G1 X121.2276 Y103.2824
G1 X119.8425 Y102.7087
G1 X118.4574 Y103.2824
G1 X117.8837 Y104.6675
G1 X118.4574 Y106.0526
G1 X119.8425 Y106.6263
G1 F300.0 Z-3.6
G1 F1200.0 X121.2276 Y106.0526
G1 X121.8013 Y104.6675
G1 X121.2276 Y103.2824
G1 X119.8425 Y102.7087
G1 X118.4574 Y103.2824
G1 X117.8837 Y104.6675
G1 X118.4574 Y106.0526
G1 X119.8425 Y106.6263
G1 F300.0 Z-4.0
G1 F1200.0 X121.2276 Y106.0526
G1 X121.8013 Y104.6675
G1 X121.2276 Y103.2824
G1 X119.8425 Y102.7087
G1 X118.4574 Y103.2824
G1 X117.8837 Y104.6675
G1 X118.4574 Y106.0526
G1 X119.8425 Y106.6263
G0 Z3.0
G0 Y89.6263
G0 Z1.0
G1 F300.0 Z-0.6
G1 F1200.0 X121.2276 Y89.0526
G1 X121.8013 Y87.6675
G1 X121.2276 Y86.2824
G1 X119.8425 Y85.7087
G1 X118.4574 Y86.2824
G1 X117.8837 Y87.6675
G1 X118.4574 Y89.0526
G1 X119.8425 Y89.6263
G1 F300.0 Z-1.2
G1 F1200.0 X121.2276 Y89.0526
G1 X121.8013 Y87.6675
G1 X121.2276 Y86.2824
G1 X119.8425 Y85.7087
G1 X118.4574 Y86.2824
G1 X117.8837 Y87.6675
G1 X118.4574 Y89.0526
G1 X119.8425 Y89.6263
G1 F300.0 Z-1.8
G1 F1200.0 X121.2276 Y89.0526
G1 X121.8013 Y87.6675
G1 X121.2276 Y86.2824
G1 X119.8425 Y85.7087
G1 X118.4574 Y86.2824
G1 X117.8837 Y87.6675
G1 X118.4574 Y89.0526
G1 X119.8425 Y89.6263
G1 F300.0 Z-2.4
G1 F1200.0 X121.2276 Y89.0526
G1 X121.8013 Y87.6675
G1 X121.2276 Y86.2824
G1 X119.8425 Y85.7087
G1 X118.4574 Y86.2824
G1 X117.8837 Y87.6675
G1 X118.4574 Y89.0526
G1 X119.8425 Y89.6263
G1 F300.0 Z-3.0
G1 F1200.0 X121.2276 Y89.0526
G1 X121.8013 Y87.6675
G1 X121.2276 Y86.2824
G1 X119.8425 Y85.7087
G1 X118.4574 Y86.2824
G1 X117.8837 Y87.6675
G1 X118.4574 Y89.0526
G1 X119.8425 Y89.6263
G1 F300.0 Z-3.6
G1 F1200.0 X121.2276 Y89.0526
G1 X121.8013 Y87.6675
G1 X121.2276 Y86.2824
G1 X119.8425 Y85.7087
G1 X118.4574 Y86.2824
G1 X117.8837 Y87.6675
G1 X118.4574 Y89.0526
G1 X119.8425 Y89.6263
G1 F300.0 Z-4.0
G1 F1200.0 X121.2276 Y89.0526
G1 X121.8013 Y87.6675
G1 X121.2276 Y86.2824
G1 X119.8425 Y85.7087
G1 X118.4574 Y86.2824
G1 X117.8837 Y87.6675
G1 X118.4574 Y89.0526
G1 X119.8425 Y89.6263
G0 Z3.0
G0 Y72.6263
G0 Z1.0
G1 F300.0 Z-0.6
G1 F1200.0 X121.2276 Y72.0526
G1 X121.8013 Y70.6675
G1 X121.2276 Y69.2824
G1 X119.8425 Y68.7087
G1 X118.4574 Y69.2824
G1 X117.8837 Y70.6675
G1 X118.4574 Y72.0526
G1 X119.8425 Y72.6263
G1 F300.0 Z-1.2
G1 F1200.0 X121.2276 Y72.0526
G1 X121.8013 Y70.6675
G1 X121.2276 Y69.2824
G1 X119.8425 Y68.7087
G1 X118.4574 Y69.2824
G1 X117.8837 Y70.6675
G1 X118.4574 Y72.0526
G1 X119.8425 Y72.6263
G1 F300.0 Z-1.8
G1 F1200.0 X121.2276 Y72.0526
G1 X121.8013 Y70.6675
G1 X121.2276 Y69.2824
G1 X119.8425 Y68.7087
G1 X118.4574 Y69.2824
G1 X117.8837 Y70.6675
G1 X118.4574 Y72.0526
G1 X119.8425 Y72.6263
G1 F300.0 Z-2.4
G1 F1200.0 X121.2276 Y72.0526
G1 X121.8013 Y70.6675
G1 X121.2276 Y69.2824
G1 X119.8425 Y68.7087
G1 X118.4574 Y69.2824
G1 X117.8837 Y70.6675
G1 X118.4574 Y72.0526
G1 X119.8425 Y72.6263
G1 F300.0 Z-3.0
G1 F1200.0 X121.2276 Y72.0526
G1 X121.8013 Y70.6675
G1 X121.2276 Y69.2824
G1 X119.8425 Y68.7087
G1 X118.4574 Y69.2824
G1 X117.8837 Y70.6675
G1 X118.4574 Y72.0526
G1 X119.8425 Y72.6263
G1 F300.0 Z-3.6
G1 F1200.0 X121.2276 Y72.0526
G1 X121.8013 Y70.6675
G1 X121.2276 Y69.2824
G1 X119.8425 Y68.7087
G1 X118.4574 Y69.2824
G1 X117.8837 Y70.6675
G1 X118.4574 Y72.0526
G1 X119.8425 Y72.6263
G1 F300.0 Z-4.0
G1 F1200.0 X121.2276 Y72.0526
G1 X121.8013 Y70.6675
G1 X121.2276 Y69.2824
G1 X119.8425 Y68.7087
G1 X118.4574 Y69.2824
G1 X117.8837 Y70.6675
G1 X118.4574 Y72.0526
G1 X119.8425 Y72.6263
G0 Z3.0
G0 Y55.6263
G0 Z1.0
G1 F300.0 Z-0.6
G1 F1200.0 X121.2276 Y55.0526
G1 X121.8013 Y53.6675
G1 X121.2276 Y52.2824
G1 X119.8425 Y51.7087
G1 X118.4574 Y52.2824
G1 X117.8837 Y53.6675
G1 X118.4574 Y55.0526
G1 X119.8425 Y55.6263
G1 F300.0 Z-1.2
G1 F1200.0 X121.2276 Y55.0526
G1 X121.8013 Y53.6675
G1 X121.2276 Y52.2824
G1 X119.8425 Y51.7087
G1 X118.4574 Y52.2824
G1 X117.8837 Y53.6675
G1 X118.4574 Y55.0526
G1 X119.8425 Y55.6263
G1 F300.0 Z-1.8
G1 F1200.0 X121.2276 Y55.0526
G1 X121.8013 Y53.6675
G1 X121.2276 Y52.2824
G1 X119.8425 Y51.7087
G1 X118.4574 Y52.2824
G1 X117.8837 Y53.6675
G1 X118.4574 Y55.0526
G1 X119.8425 Y55.6263
G1 F300.0 Z-2.4
G1 F1200.0 X121.2276 Y55.0526
G1 X121.8013 Y53.6675
G1 X121.2276 Y52.2824
G1 X119.8425 Y51.7087
G1 X118.4574 Y52.2824
G1 X117.8837 Y53.6675
G1 X118.4574 Y55.0526
G1 X119.8425 Y55.6263
G1 F300.0 Z-3.0
G1 F1200.0 X121.2276 Y55.0526
G1 X121.8013 Y53.6675
G1 X121.2276 Y52.2824
G1 X119.8425 Y51.7087
G1 X118.4574 Y52.2824
G1 X117.8837 Y53.6675
G1 X118.4574 Y55.0526
G1 X119.8425 Y55.6263
G1 F300.0 Z-3.6
G1 F1200.0 X121.2276 Y55.0526
G1 X121.8013 Y53.6675
G1 X121.2276 Y52.2824
G1 X119.8425 Y51.7087
G1 X118.4574 Y52.2824
G1 X117.8837 Y53.6675
G1 X118.4574 Y55.0526
G1 X119.8425 Y55.6263
G1 F300.0 Z-4.0
G1 F1200.0 X121.2276 Y55.0526
G1 X121.8013 Y53.6675
G1 X121.2276 Y52.2824
G1 X119.8425 Y51.7087
G1 X118.4574 Y52.2824
G1 X117.8837 Y53.6675
G1 X118.4574 Y55.0526
G1 X119.8425 Y55.6263
G0 Z3.0
G0 Y31.1606
G0 Z1.0
G1 F300.0 Z-0.6
G1 F1200.0 X121.6261 Y30.8629
G1 X123.2165 Y30.0023
G1 X124.4411 Y28.6722
G1 X125.1675 Y27.0161
G1 X125.3168 Y25.2143
G1 X124.8729 Y23.4611
G1 X123.8838 Y21.9468
G1 X122.457 Y20.8363
G1 X120.7467 Y20.2495
G1 X118.9383
G1 X117.228 Y20.8363
G1 X115.8012 Y21.9468
G1 X114.8121 Y23.4611
G1 X114.3682 Y25.2143
G1 X114.5175 Y27.0161
G1 X115.2439 Y28.6722
G1 X116.4685 Y30.0023
G1 X118.0589 Y30.8629
G1 X119.8425 Y31.1606
G1 F300.0 Z-1.2
G1 F1200.0 X121.6261 Y30.8629
G1 X123.2165 Y30.0023
G1 X124.4411 Y28.6722
G1 X125.1675 Y27.0161
G1 X125.3168 Y25.2143
G1 X124.8729 Y23.4611
G1 X123.8838 Y21.9468
G1 X122.457 Y20.8363
G1 X120.7467 Y20.2495
G1 X118.9383
G1 X117.228 Y20.8363
G1 X115.8012 Y21.9468
G1 X114.8121 Y23.4611
G1 X114.3682 Y25.2143
G1 X114.5175 Y27.0161
G1 X115.2439 Y28.6722
G1 X116.4685 Y30.0023
G1 X118.0589 Y30.8629
G1 X119.8425 Y31.1606
G1 F300.0 Z-1.8
G1 F1200.0 X121.6261 Y30.8629
G1 X123.2165 Y30.0023
G1 X124.4411 Y28.6722
G1 X125.1675 Y27.0161
G1 X125.3168 Y25.2143
G1 X124.8729 Y23.4611
G1 X123.8838 Y21.9468
G1 X122.457 Y20.8363
G1 X120.7467 Y20.2495
G1 X118.9383
G1 X117.228 Y20.8363
G1 X115.8012 Y21.9468
G1 X114.8121 Y23.4611
G1 X114.3682 Y25.2143
G1 X114.5175 Y27.0161
G1 X115.2439 Y28.6722
G1 X116.4685 Y30.0023
G1 X118.0589 Y30.8629
G1 X119.8425 Y31.1606
G1 F300.0 Z-2.4
G1 F1200.0 X121.6261 Y30.8629
G1 X123.2165 Y30.0023
G1 X124.4411 Y28.6722
G1 X125.1675 Y27.0161
G1 X125.3168 Y25.2143
G1 X124.8729 Y23.4611
G1 X123.8838 Y21.9468
G1 X122.457 Y20.8363
G1 X120.7467 Y20.2495
G1 X118.9383
G1 X117.228 Y20.8363
G1 X115.8012 Y21.9468
G1 X114.8121 Y23.4611
G1 X114.3682 Y25.2143
G1 X114.5175 Y27.0161
G1 X115.2439 Y28.6722
G1 X116.4685 Y30.0023
G1 X118.0589 Y30.8629
G1 X119.8425 Y31.1606
G1 F300.0 Z-3.0
G1 F1200.0 X121.6261 Y30.8629
G1 X123.2165 Y30.0023
G1 X124.4411 Y28.6722
G1 X125.1675 Y27.0161
G1 X125.3168 Y25.2143
G1 X124.8729 Y23.4611
G1 X123.8838 Y21.9468
G1 X122.457 Y20.8363
G1 X120.7467 Y20.2495
G1 X118.9383
G1 X117.228 Y20.8363
G1 X115.8012 Y21.9468
G1 X114.8121 Y23.4611
G1 X114.3682 Y25.2143
G1 X114.5175 Y27.0161
G1 X115.2439 Y28.6722
G1 X116.4685 Y30.0023
G1 X118.0589 Y30.8629
G1 X119.8425 Y31.1606
G1 F300.0 Z-3.6
G1 F1200.0 X121.6261 Y30.8629
G1 X123.2165 Y30.0023
G1 X124.4411 Y28.6722
G1 X125.1675 Y27.0161
G1 X125.3168 Y25.2143
G1 X124.8729 Y23.4611
G1 X123.8838 Y21.9468
G1 X122.457 Y20.8363
G1 X120.7467 Y20.2495
G1 X118.9383
G1 X117.228 Y20.8363
G1 X115.8012 Y21.9468
G1 X114.8121 Y23.4611
G1 X114.3682 Y25.2143
G1 X114.5175 Y27.0161
G1 X115.2439 Y28.6722
G1 X116.4685 Y30.0023
G1 X118.0589 Y30.8629
G1 X119.8425 Y31.1606
G1 F300.0 Z-4.0
G1 F1200.0 X121.6261 Y30.8629
G1 X123.2165 Y30.0023
G1 X124.4411 Y28.6722
G1 X125.1675 Y27.0161
G1 X125.3168 Y25.2143
G1 X124.8729 Y23.4611
G1 X123.8838 Y21.9468
G1 X122.457 Y20.8363
G1 X120.7467 Y20.2495
G1 X118.9383
G1 X117.228 Y20.8363
G1 X115.8012 Y21.9468
G1 X114.8121 Y23.4611
G1 X114.3682 Y25.2143
G1 X114.5175 Y27.0161
G1 X115.2439 Y28.6722
G1 X116.4685 Y30.0023
G1 X118.0589 Y30.8629
G1 X119.8425 Y31.1606
G0 Z3.0
G0 X95.1675 Y27.0161
G0 Z1.0
G1 F300.0 Z-0.6
G1 F1200.0 X95.236 Y26.1893
G1 X95.3168 Y25.2143
G1 X95.1131 Y24.4099
G1 X94.8729 Y23.4611
G1 X94.419 Y22.7662
G1 X93.8838 Y21.9468
G1 X93.1117 Y21.3459
G1 X92.457 Y20.8363
G1 X91.5315 Y20.5188
G1 X90.7467 Y20.2495
G1 X89.7681
G1 X88.9383
G1 X88.0128 Y20.5671
G1 X87.228 Y20.8363
G1 X86.4559 Y21.4373
G1 X85.8012 Y21.9468
G1 X85.3473 Y22.6416
G1 X84.8121 Y23.4611
G1 X84.6084 Y24.2656
G1 X84.3682 Y25.2143
G1 X84.4367 Y26.0411
G1 X84.5175 Y27.0161
G1 X84.8508 Y27.776
G1 X85.2439 Y28.6722
G1 X85.8058 Y29.2825
G1 X86.4685 Y30.0023
G1 X87.3292 Y30.468
G1 X88.0589 Y30.8629
G1 X89.0241 Y31.024
G1 X89.8425 Y31.1606
G1 X90.8077 Y30.9995
G1 X91.6261 Y30.8629
G1 X92.4867 Y30.3972
G1 X93.2165 Y30.0023
G1 X93.7784 Y29.3919
G1 X94.4411 Y28.6722
G1 X94.7744 Y27.9123
G1 X95.1675 Y27.0161
G1 F300.0 Z-1.2
G1 F1200.0 X95.236 Y26.1893
G1 X95.3168 Y25.2143
G1 X95.1131 Y24.4099
G1 X94.8729 Y23.4611
G1 X94.419 Y22.7662
G1 X93.8838 Y21.9468
G1 X93.1117 Y21.3459
G1 X92.457 Y20.8363
G1 X91.5315 Y20.5188
G1 X90.7467 Y20.2495
G1 X89.7681
G1 X88.9383
G1 X88.0128 Y20.5671
G1 X87.228 Y20.8363
G1 X86.4559 Y21.4373
G1 X85.8012 Y21.9468
G1 X85.3473 Y22.6416
G1 X84.8121 Y23.4611
G1 X84.6084 Y24.2656
G1 X84.3682 Y25.2143
G1 X84.4367 Y26.0411
G1 X84.5175 Y27.0161
G1 X84.8508 Y27.776
G1 X85.2439 Y28.6722
G1 X85.8058 Y29.2825
G1 X86.4685 Y30.0023
G1 X87.3292 Y30.468
G1 X88.0589 Y30.8629
G1 X89.0241 Y31.024
G1 X89.8425 Y31.1606
G1 X90.8077 Y30.9995
G1 X91.6261 Y30.8629
G1 X92.4867 Y30.3972
G1 X93.2165 Y30.0023
G1 X93.7784 Y29.3919
G1 X94.4411 Y28.6722
G1 X94.7744 Y27.9123
G1 X95.1675 Y27.0161
G1 F300.0 Z-1.8
G1 F1200.0 X95.236 Y26.1893
G1 X95.3168 Y25.2143
G1 X95.1131 Y24.4099
G1 X94.8729 Y23.4611
G1 X94.419 Y22.7662
G1 X93.8838 Y21.9468
G1 X93.1117 Y21.3459
G1 X92.457 Y20.8363
G1 X91.5315 Y20.5188
G1 X90.7467 Y20.2495
G1 X89.7681
G1 X88.9383
G1 X88.0128 Y20.5671
G1 X87.228 Y20.8363
G1 X86.4559 Y21.4373
G1 X85.8012 Y21.9468
G1 X85.3473 Y22.6416
G1 X84.8121 Y23.4611
G1 X84.6084 Y24.2656
G1 X84.3682 Y25.2143
G1 X84.4367 Y26.0411
G1 X84.5175 Y27.0161
G1 X84.8508 Y27.776
G1 X85.2439 Y28.6722
G1 X85.8058 Y29.2825
G1 X86.4685 Y30.0023
G1 X87.3292 Y30.468
G1 X88.0589 Y30.8629
G1 X89.0241 Y31.024
G1 X89.8425 Y31.1606
G1 X90.8077 Y30.9995
G1 X91.6261 Y30.8629
G1 X92.4867 Y30.3972
G1 X93.2165 Y30.0023
G1 X93.7784 Y29.3919
G1 X94.4411 Y28.6722
G1 X94.7744 Y27.9123
G1 X95.1675 Y27.0161
G1 F300.0 Z-2.4
G1 F1200.0 X95.236 Y26.1893
G1 X95.3168 Y25.2143
G1 X95.1131 Y24.4099
G1 X94.8729 Y23.4611
G1 X94.419 Y22.7662
G1 X93.8838 Y21.9468
G1 X93.1117 Y21.3459
G1 X92.457 Y20.8363
G1 X91.5315 Y20.5188
G1 X90.7467 Y20.2495
G1 X89.7681
G1 X88.9383
G1 X88.0128 Y20.5671
G1 X87.228 Y20.8363
G1 X86.4559 Y21.4373
G1 X85.8012 Y21.9468
G1 X85.3473 Y22.6416
G1 X84.8121 Y23.4611
G1 X84.6084 Y24.2656
G1 X84.3682 Y25.2143
G1 X84.4367 Y26.0411
G1 X84.5175 Y27.0161
G1 X84.8508 Y27.776
G1 X85.2439 Y28.6722
G1 X85.8058 Y29.2825
G1 X86.4685 Y30.0023
G1 X87.3292 Y30.468
G1 X88.0589 Y30.8629
G1 X89.0241 Y31.024
G1 X89.8425 Y31.1606
G1 X90.8077 Y30.9995
G1 X91.6261 Y30.8629
G1 X92.4867 Y30.3972
G1 X93.2165 Y30.0023
G1 X93.7784 Y29.3919
G1 X94.4411 Y28.6722
G1 X94.7744 Y27.9123
G1 X95.1675 Y27.0161
G1 F300.0 Z-3.0
G1 F1200.0 X95.236 Y26.1893
G1 X95.3168 Y25.2143
G1 X95.1131 Y24.4099
G1 X94.8729 Y23.4611
G1 X94.419 Y22.7662
G1 X93.8838 Y21.9468
G1 X93.1117 Y21.3459
G1 X92.457 Y20.8363
G1 X91.5315 Y20.5188
G1 X90.7467 Y20.2495
G1 X89.7681
G1 X88.9383
G1 X88.0128 Y20.5671
G1 X87.228 Y20.8363
G1 X86.4559 Y21.4373
G1 X85.8012 Y21.9468
G1 X85.3473 Y22.6416
G1 X84.8121 Y23.4611
G1 X84.6084 Y24.2656
G1 X84.3682 Y25.2143
G1 X84.4367 Y26.0411
G1 X84.5175 Y27.0161
G1 X84.8508 Y27.776
G1 X85.2439 Y28.6722
G1 X85.8058 Y29.2825
G1 X86.4685 Y30.0023
G1 X87.3292 Y30.468
G1 X88.0589 Y30.8629
G1 X89.0241 Y31.024
G1 X89.8425 Y31.1606
G1 X90.8077 Y30.9995
G1 X91.6261 Y30.8629
G1 X92.4867 Y30.3972
G1 X93.2165 Y30.0023
G1 X93.7784 Y29.3919
G1 X94.4411 Y28.6722
G1 X94.7744 Y27.9123
G1 X95.1675 Y27.0161
G1 F300.0 Z-3.6
G1 F1200.0 X95.236 Y26.1893
G1 X95.3168 Y25.2143
G1 X95.1131 Y24.4099
G1 X94.8729 Y23.4611
G1 X94.419 Y22.7662
G1 X93.8838 Y21.9468
G1 X93.1117 Y21.3459
G1 X92.457 Y20.8363
G1 X91.5315 Y20.5188
G1 X90.7467 Y20.2495
G1 X89.7681
G1 X88.9383
G1 X88.0128 Y20.5671
G1 X87.228 Y20.8363
G1 X86.4559 Y21.4373
G1 X85.8012 Y21.9468
G1 X85.3473 Y22.6416
G1 X84.8121 Y23.4611
G1 X84.6084 Y24.2656
G1 X84.3682 Y25.2143
G1 X84.4367 Y26.0411
G1 X84.5175 Y27.0161
G1 X84.8508 Y27.776
G1 X85.2439 Y28.6722
G1 X85.8058 Y29.2825
G1 X86.4685 Y30.0023
G1 X87.3292 Y30.468
G1 X88.0589 Y30.8629
G1 X89.0241 Y31.024
G1 X89.8425 Y31.1606
G1 X90.8077 Y30.9995
G1 X91.6261 Y30.8629
G1 X92.4867 Y30.3972
G1 X93.2165 Y30.0023
G1 X93.7784 Y29.3919
G1 X94.4411 Y28.6722
G1 X94.7744 Y27.9123
G1 X95.1675 Y27.0161
G1 F300.0 Z-4.0
G1 F1200.0 X95.236 Y26.1893
G1 X95.3168 Y25.2143
G1 X95.1131 Y24.4099
G1 X94.8729 Y23.4611
G1 X94.419 Y22.7662
G1 X93.8838 Y21.9468
G1 X93.1117 Y21.3459
G1 X92.457 Y20.8363
G1 X91.5315 Y20.5188
G1 X90.7467 Y20.2495
G1 X89.7681
G1 X88.9383
G1 X88.0128 Y20.5671
G1 X87.228 Y20.8363
G1 X86.4559 Y21.4373
G1 X85.8012 Y21.9468
G1 X85.3473 Y22.6416
G1 X84.8121 Y23.4611
G1 X84.6084 Y24.2656
G1 X84.3682 Y25.2143
G1 X84.4367 Y26.0411
G1 X84.5175 Y27.0161
G1 X84.8508 Y27.776
G1 X85.2439 Y28.6722
G1 X85.8058 Y29.2825
G1 X86.4685 Y30.0023
G1 X87.3292 Y30.468
G1 X88.0589 Y30.8629
G1 X89.0241 Y31.024
G1 X89.8425 Y31.1606
G1 X90.8077 Y30.9995
G1 X91.6261 Y30.8629
G1 X92.4867 Y30.3972
G1 X93.2165 Y30.0023
G1 X93.7784 Y29.3919
G1 X94.4411 Y28.6722
G1 X94.7744 Y27.9123
G1 X95.1675 Y27.0161
G0 Z3.0
G0 X90.7467 Y59.2493
G0 Z1.0
G1 F300.0 Z-0.6
G1 F1200.0 X89.7681
G1 X88.9383
G1 X88.0128 Y59.5671
G1 X87.2281 Y59.8365
G1 X86.4559 Y60.4375
G1 X85.8011 Y60.9471
G1 X85.3473 Y61.6418
G1 X84.8121 Y62.4609
G1 X84.6084 Y63.2653
G1 X84.3682 Y64.2139
G1 X84.4367 Y65.0408
G1 X84.5175 Y66.016
G1 X84.8508 Y66.7758
G1 X85.2439 Y67.6719
G1 X85.8058 Y68.2824
G1 X86.4685 Y69.0023
G1 X87.3292 Y69.468
G1 X88.0589 Y69.863
G1 X89.0241 Y70.024
G1 X89.8425 Y70.1606
G1 X90.8077 Y69.9995
G1 X91.6261 Y69.863
G1 X92.4867 Y69.3972
G1 X93.2164 Y69.0023
G1 X93.7784 Y68.3918
G1 X94.4411 Y67.6719
G1 X94.7744 Y66.9121
G1 X95.1675 Y66.016
G1 X95.236 Y65.1891
G1 X95.3168 Y64.2139
G1 X95.1131 Y63.4095
G1 X94.8729 Y62.4609
G1 X94.4191 Y61.7663
G1 X93.8838 Y60.9471
G1 X93.1117 Y60.3461
G1 X92.4569 Y59.8365
G1 X91.5314 Y59.5187
G1 X90.7467 Y59.2493
G1 F300.0 Z-1.2
G1 F1200.0 X89.7681
G1 X88.9383
G1 X88.0128 Y59.5671
G1 X87.2281 Y59.8365
G1 X86.4559 Y60.4375
G1 X85.8011 Y60.9471
G1 X85.3473 Y61.6418
G1 X84.8121 Y62.4609
G1 X84.6084 Y63.2653
G1 X84.3682 Y64.2139
G1 X84.4367 Y65.0408
G1 X84.5175 Y66.016
G1 X84.8508 Y66.7758
G1 X85.2439 Y67.6719
G1 X85.8058 Y68.2824
G1 X86.4685 Y69.0023
G1 X87.3292 Y69.468
G1 X88.0589 Y69.863
G1 X89.0241 Y70.024
G1 X89.8425 Y70.1606
G1 X90.8077 Y69.9995
G1 X91.6261 Y69.863
G1 X92.4867 Y69.3972
G1 X93.2164 Y69.0023
G1 X93.7784 Y68.3918
G1 X94.4411 Y67.6719
G1 X94.7744 Y66.9121
G1 X95.1675 Y66.016
G1 X95.236 Y65.1891
G1 X95.3168 Y64.2139
G1 X95.1131 Y63.4095
G1 X94.8729 Y62.4609
G1 X94.4191 Y61.7663
G1 X93.8838 Y60.9471
G1 X93.1117 Y60.3461
G1 X92.4569 Y59.8365
G1 X91.5314 Y59.5187
G1 X90.7467 Y59.2493
G1 F300.0 Z-1.8
G1 F1200.0 X89.7681
G1 X88.9383
G1 X88.0128 Y59.5671
G1 X87.2281 Y59.8365
G1 X86.4559 Y60.4375
G1 X85.8011 Y60.9471
G1 X85.3473 Y61.6418
G1 X84.8121 Y62.4609
G1 X84.6084 Y63.2653
G1 X84.3682 Y64.2139
G1 X84.4367 Y65.0408
G1 X84.5175 Y66.016
G1 X84.8508 Y66.7758
G1 X85.2439 Y67.6719
G1 X85.8058 Y68.2824
G1 X86.4685 Y69.0023
G1 X87.3292 Y69.468
G1 X88.0589 Y69.863
G1 X89.0241 Y70.024
G1 X89.8425 Y70.1606
G1 X90.8077 Y69.9995
G1 X91.6261 Y69.863
G1 X92.4867 Y69.3972
G1 X93.2164 Y69.0023
G1 X93.7784 Y68.3918
G1 X94.4411 Y67.6719
G1 X94.7744 Y66.9121
G1 X95.1675 Y66.016
G1 X95.236 Y65.1891
G1 X95.3168 Y64.2139
G1 X95.1131 Y63.4095
G1 X94.8729 Y62.4609
G1 X94.4191 Y61.7663
G1 X93.8838 Y60.9471
G1 X93.1117 Y60.3461
G1 X92.4569 Y59.8365
G1 X91.5314 Y59.5187
G1 X90.7467 Y59.2493
G1 F300.0 Z-2.4
G1 F1200.0 X89.7681
G1 X88.9383
G1 X88.0128 Y59.5671
G1 X87.2281 Y59.8365
G1 X86.4559 Y60.4375
G1 X85.8011 Y60.9471
G1 X85.3473 Y61.6418
G1 X84.8121 Y62.4609
G1 X84.6084 Y63.2653
G1 X84.3682 Y64.2139
G1 X84.4367 Y65.0408
G1 X84.5175 Y66.016
G1 X84.8508 Y66.7758
G1 X85.2439 Y67.6719
G1 X85.8058 Y68.2824
G1 X86.4685 Y69.0023
G1 X87.3292 Y69.468
G1 X88.0589 Y69.863
G1 X89.0241 Y70.024
G1 X89.8425 Y70.1606
G1 X90.8077 Y69.9995
G1 X91.6261 Y69.863
G1 X92.4867 Y69.3972
G1 X93.2164 Y69.0023
G1 X93.7784 Y68.3918
G1 X94.4411 Y67.6719
G1 X94.7744 Y66.9121
G1 X95.1675 Y66.016
G1 X95.236 Y65.1891
G1 X95.3168 Y64.2139
G1 X95.1131 Y63.4095
G1 X94.8729 Y62.4609
G1 X94.4191 Y61.7663
G1 X93.8838 Y60.9471
G1 X93.1117 Y60.3461
G1 X92.4569 Y59.8365
G1 X91.5314 Y59.5187
G1 X90.7467 Y59.2493
G1 F300.0 Z-3.0
G1 F1200.0 X89.7681
G1 X88.9383
G1 X88.0128 Y59.5671
G1 X87.2281 Y59.8365
G1 X86.4559 Y60.4375
G1 X85.8011 Y60.9471
G1 X85.3473 Y61.6418
G1 X84.8121 Y62.4609
G1 X84.6084 Y63.2653
G1 X84.3682 Y64.2139
G1 X84.4367 Y65.0408
G1 X84.5175 Y66.016
G1 X84.8508 Y66.7758
G1 X85.2439 Y67.6719
G1 X85.8058 Y68.2824
G1 X86.4685 Y69.0023
G1 X87.3292 Y69.468
G1 X88.0589 Y69.863
G1 X89.0241 Y70.024
G1 X89.8425 Y70.1606
G1 X90.8077 Y69.9995
G1 X91.6261 Y69.863
G1 X92.4867 Y69.3972
G1 X93.2164 Y69.0023
G1 X93.7784 Y68.3918
G1 X94.4411 Y67.6719
G1 X94.7744 Y66.9121
G1 X95.1675 Y66.016
G1 X95.236 Y65.1891
G1 X95.3168 Y64.2139
G1 X95.1131 Y63.4095
G1 X94.8729 Y62.4609
G1 X94.4191 Y61.7663
G1 X93.8838 Y60.9471
G1 X93.1117 Y60.3461
G1 X92.4569 Y59.8365
G1 X91.5314 Y59.5187
G1 X90.7467 Y59.2493
G1 F300.0 Z-3.6
G1 F1200.0 X89.7681
G1 X88.9383
G1 X88.0128 Y59.5671
G1 X87.2281 Y59.8365
G1 X86.4559 Y60.4375
G1 X85.8011 Y60.9471
G1 X85.3473 Y61.6418
G1 X84.8121 Y62.4609
G1 X84.6084 Y63.2653
G1 X84.3682 Y64.2139
G1 X84.4367 Y65.0408
G1 X84.5175 Y66.016
G1 X84.8508 Y66.7758
G1 X85.2439 Y67.6719
G1 X85.8058 Y68.2824
G1 X86.4685 Y69.0023
G1 X87.3292 Y69.468
G1 X88.0589 Y69.863
G1 X89.0241 Y70.024
G1 X89.8425 Y70.1606
G1 X90.8077 Y69.9995
G1 X91.6261 Y69.863
G1 X92.4867 Y69.3972
G1 X93.2164 Y69.0023
G1 X93.7784 Y68.3918
G1 X94.4411 Y67.6719
G1 X94.7744 Y66.9121
G1 X95.1675 Y66.016
G1 X95.236 Y65.1891
G1 X95.3168 Y64.2139
G1 X95.1131 Y63.4095
G1 X94.8729 Y62.4609
G1 X94.4191 Y61.7663
G1 X93.8838 Y60.9471
G1 X93.1117 Y60.3461
G1 X92.4569 Y59.8365
G1 X91.5314 Y59.5187
G1 X90.7467 Y59.2493
G1 F300.0 Z-4.0
G1 F1200.0 X89.7681
G1 X88.9383
G1 X88.0128 Y59.5671
G1 X87.2281 Y59.8365
G1 X86.4559 Y60.4375
G1 X85.8011 Y60.9471
G1 X85.3473 Y61.6418
G1 X84.8121 Y62.4609
G1 X84.6084 Y63.2653
G1 X84.3682 Y64.2139
G1 X84.4367 Y65.0408
G1 X84.5175 Y66.016
G1 X84.8508 Y66.7758
G1 X85.2439 Y67.6719
G1 X85.8058 Y68.2824
G1 X86.4685 Y69.0023
G1 X87.3292 Y69.468
G1 X88.0589 Y69.863
G1 X89.0241 Y70.024
G1 X89.8425 Y70.1606
G1 X90.8077 Y69.9995
G1 X91.6261 Y69.863
G1 X92.4867 Y69.3972
G1 X93.2164 Y69.0023
G1 X93.7784 Y68.3918
G1 X94.4411 Y67.6719
G1 X94.7744 Y66.9121
G1 X95.1675 Y66.016
G1 X95.236 Y65.1891
G1 X95.3168 Y64.2139
G1 X95.1131 Y63.4095
G1 X94.8729 Y62.4609
G1 X94.4191 Y61.7663
G1 X93.8838 Y60.9471
G1 X93.1117 Y60.3461
G1 X92.4569 Y59.8365
G1 X91.5314 Y59.5187
G1 X90.7467 Y59.2493
G0 Z3.0
G0 X91.9383 Y101.2493
G0 Z1.0
G1 F300.0 Z-0.6
G1 F1200.0 X91.0128 Y101.5671
G1 X90.2281 Y101.8365
G1 X89.4559 Y102.4375
G1 X88.8011 Y102.9471
G1 X88.3473 Y103.6417
G1 X87.8121 Y104.4609
G1 X87.6084 Y105.2653
G1 X87.3682 Y106.2139
G1 X87.4367 Y107.0408
G1 X87.5175 Y108.016
G1 X87.8508 Y108.7758
G1 X88.2439 Y109.6719
G1 X88.8058 Y110.2824
G1 X89.4685 Y111.0023
G1 X90.3292 Y111.468
G1 X91.0589 Y111.863
G1 X92.0241 Y112.024
G1 X92.8425 Y112.1606
G1 X93.8077 Y111.9995
G1 X94.6261 Y111.863
G1 X95.4867 Y111.3972
G1 X96.2164 Y111.0023
G1 X96.7784 Y110.3918
G1 X97.4411 Y109.6719
G1 X97.7744 Y108.9121
G1 X98.1675 Y108.016
G1 X98.236 Y107.1891
G1 X98.3168 Y106.2139
G1 X98.1131 Y105.4095
G1 X97.8729 Y104.4609
G1 X97.4191 Y103.7663
G1 X96.8838 Y102.9471
G1 X96.1117 Y102.3461
G1 X95.4569 Y101.8365
G1 X94.5314 Y101.5187
G1 X93.7466 Y101.2493
G1 X92.7681
G1 X91.9383
G1 F300.0 Z-1.2
G1 F1200.0 X91.0128 Y101.5671
G1 X90.2281 Y101.8365
G1 X89.4559 Y102.4375
G1 X88.8011 Y102.9471
G1 X88.3473 Y103.6417
G1 X87.8121 Y104.4609
G1 X87.6084 Y105.2653
G1 X87.3682 Y106.2139
G1 X87.4367 Y107.0408
G1 X87.5175 Y108.016
G1 X87.8508 Y108.7758
G1 X88.2439 Y109.6719
G1 X88.8058 Y110.2824
G1 X89.4685 Y111.0023
G1 X90.3292 Y111.468
G1 X91.0589 Y111.863
G1 X92.0241 Y112.024
G1 X92.8425 Y112.1606
G1 X93.8077 Y111.9995
G1 X94.6261 Y111.863
G1 X95.4867 Y111.3972
G1 X96.2164 Y111.0023
G1 X96.7784 Y110.3918
G1 X97.4411 Y109.6719
G1 X97.7744 Y108.9121
G1 X98.1675 Y108.016
G1 X98.236 Y107.1891
G1 X98.3168 Y106.2139
G1 X98.1131 Y105.4095
G1 X97.8729 Y104.4609
G1 X97.4191 Y103.7663
G1 X96.8838 Y102.9471
G1 X96.1117 Y102.3461
G1 X95.4569 Y101.8365
G1 X94.5314 Y101.5187
G1 X93.7466 Y101.2493
G1 X92.7681
G1 X91.9383
G1 F300.0 Z-1.8
G1 F1200.0 X91.0128 Y101.5671
G1 X90.2281 Y101.8365
G1 X89.4559 Y102.4375
G1 X88.8011 Y102.9471
G1 X88.3473 Y103.6417
G1 X87.8121 Y104.4609
G1 X87.6084 Y105.2653
G1 X87.3682 Y106.2139
G1 X87.4367 Y107.0408
G1 X87.5175 Y108.016
G1 X87.8508 Y108.7758
G1 X88.2439 Y109.6719
G1 X88.8058 Y110.2824
G1 X89.4685 Y111.0023
G1 X90.3292 Y111.468
G1 X91.0589 Y111.863
G1 X92.0241 Y112.024
G1 X92.8425 Y112.1606
G1 X93.8077 Y111.9995
G1 X94.6261 Y111.863
G1 X95.4867 Y111.3972
G1 X96.2164 Y111.0023
G1 X96.7784 Y110.3918
G1 X97.4411 Y109.6719
G1 X97.7744 Y108.9121
G1 X98.1675 Y108.016
G1 X98.236 Y107.1891
G1 X98.3168 Y106.2139
G1 X98.1131 Y105.4095
G1 X97.8729 Y104.4609
G1 X97.4191 Y103.7663
G1 X96.8838 Y102.9471
G1 X96.1117 Y102.3461
G1 X95.4569 Y101.8365
G1 X94.5314 Y101.5187
G1 X93.7466 Y101.2493
G1 X92.7681
G1 X91.9383
G1 F300.0 Z-2.4
G1 F1200.0 X91.0128 Y101.5671
G1 X90.2281 Y101.8365
G1 X89.4559 Y102.4375
G1 X88.8011 Y102.9471
G1 X88.3473 Y103.6417
G1 X87.8121 Y104.4609
G1 X87.6084 Y105.2653
G1 X87.3682 Y106.2139
G1 X87.4367 Y107.0408
G1 X87.5175 Y108.016
G1 X87.8508 Y108.7758
G1 X88.2439 Y109.6719
G1 X88.8058 Y110.2824
G1 X89.4685 Y111.0023
G1 X90.3292 Y111.468
G1 X91.0589 Y111.863
G1 X92.0241 Y112.024
G1 X92.8425 Y112.1606
G1 X93.8077 Y111.9995
G1 X94.6261 Y111.863
G1 X95.4867 Y111.3972
G1 X96.2164 Y111.0023
G1 X96.7784 Y110.3918
G1 X97.4411 Y109.6719
G1 X97.7744 Y108.9121
G1 X98.1675 Y108.016
G1 X98.236 Y107.1891
G1 X98.3168 Y106.2139
G1 X98.1131 Y105.4095
G1 X97.8729 Y104.4609
G1 X97.4191 Y103.7663
G1 X96.8838 Y102.9471
G1 X96.1117 Y102.3461
G1 X95.4569 Y101.8365
G1 X94.5314 Y101.5187
G1 X93.7466 Y101.2493
G1 X92.7681
G1 X91.9383
G1 F300.0 Z-3.0
G1 F1200.0 X91.0128 Y101.5671
G1 X90.2281 Y101.8365
G1 X89.4559 Y102.4375
G1 X88.8011 Y102.9471
G1 X88.3473 Y103.6417
G1 X87.8121 Y104.4609
G1 X87.6084 Y105.2653
G1 X87.3682 Y106.2139
G1 X87.4367 Y107.0408
G1 X87.5175 Y108.016
G1 X87.8508 Y108.7758
G1 X88.2439 Y109.6719
G1 X88.8058 Y110.2824
G1 X89.4685 Y111.0023
G1 X90.3292 Y111.468
G1 X91.0589 Y111.863
G1 X92.0241 Y112.024
G1 X92.8425 Y112.1606
G1 X93.8077 Y111.9995
G1 X94.6261 Y111.863
G1 X95.4867 Y111.3972
G1 X96.2164 Y111.0023
G1 X96.7784 Y110.3918
G1 X97.4411 Y109.6719
G1 X97.7744 Y108.9121
G1 X98.1675 Y108.016
G1 X98.236 Y107.1891
G1 X98.3168 Y106.2139
G1 X98.1131 Y105.4095
G1 X97.8729 Y104.4609
G1 X97.4191 Y103.7663
G1 X96.8838 Y102.9471
G1 X96.1117 Y102.3461
G1 X95.4569 Y101.8365
G1 X94.5314 Y101.5187
G1 X93.7466 Y101.2493
G1 X92.7681
G1 X91.9383
G1 F300.0 Z-3.6
G1 F1200.0 X91.0128 Y101.5671
G1 X90.2281 Y101.8365
G1 X89.4559 Y102.4375
G1 X88.8011 Y102.9471
G1 X88.3473 Y103.6417
G1 X87.8121 Y104.4609
G1 X87.6084 Y105.2653
G1 X87.3682 Y106.2139
G1 X87.4367 Y107.0408
G1 X87.5175 Y108.016
G1 X87.8508 Y108.7758
G1 X88.2439 Y109.6719
G1 X88.8058 Y110.2824
G1 X89.4685 Y111.0023
G1 X90.3292 Y111.468
G1 X91.0589 Y111.863
G1 X92.0241 Y112.024
G1 X92.8425 Y112.1606
G1 X93.8077 Y111.9995
G1 X94.6261 Y111.863
G1 X95.4867 Y111.3972
G1 X96.2164 Y111.0023
G1 X96.7784 Y110.3918
G1 X97.4411 Y109.6719
G1 X97.7744 Y108.9121
G1 X98.1675 Y108.016
G1 X98.236 Y107.1891
G1 X98.3168 Y106.2139
G1 X98.1131 Y105.4095
G1 X97.8729 Y104.4609
G1 X97.4191 Y103.7663
G1 X96.8838 Y102.9471
G1 X96.1117 Y102.3461
G1 X95.4569 Y101.8365
G1 X94.5314 Y101.5187
G1 X93.7466 Y101.2493
G1 X92.7681
G1 X91.9383
G1 F300.0 Z-4.0
G1 F1200.0 X91.0128 Y101.5671
G1 X90.2281 Y101.8365
G1 X89.4559 Y102.4375
G1 X88.8011 Y102.9471
G1 X88.3473 Y103.6417
G1 X87.8121 Y104.4609
G1 X87.6084 Y105.2653
G1 X87.3682 Y106.2139
G1 X87.4367 Y107.0408
G1 X87.5175 Y108.016
G1 X87.8508 Y108.7758
G1 X88.2439 Y109.6719
G1 X88.8058 Y110.2824
G1 X89.4685 Y111.0023
G1 X90.3292 Y111.468
G1 X91.0589 Y111.863
G1 X92.0241 Y112.024
G1 X92.8425 Y112.1606
G1 X93.8077 Y111.9995
G1 X94.6261 Y111.863
G1 X95.4867 Y111.3972
G1 X96.2164 Y111.0023
G1 X96.7784 Y110.3918
G1 X97.4411 Y109.6719
G1 X97.7744 Y108.9121
G1 X98.1675 Y108.016
G1 X98.236 Y107.1891
G1 X98.3168 Y106.2139
G1 X98.1131 Y105.4095
G1 X97.8729 Y104.4609
G1 X97.4191 Y103.7663
G1 X96.8838 Y102.9471
G1 X96.1117 Y102.3461
G1 X95.4569 Y101.8365
G1 X94.5314 Y101.5187
G1 X93.7466 Y101.2493
G1 X92.7681
G1 X91.9383
G0 Z3.0
G0 Y147.2493
G0 Z1.0
G1 F300.0 Z-0.6
G1 F1200.0 X91.0128 Y147.5671
G1 X90.2281 Y147.8365
G1 X89.4559 Y148.4375
G1 X88.8011 Y148.9471
G1 X88.3473 Y149.6417
G1 X87.8121 Y150.4609
G1 X87.6084 Y151.2653
G1 X87.3682 Y152.2139
G1 X87.4367 Y153.0408
G1 X87.5175 Y154.016
G1 X87.8508 Y154.7758
G1 X88.2439 Y155.6719
G1 X88.8058 Y156.2824
G1 X89.4685 Y157.0023
G1 X90.3292 Y157.468
G1 X91.0589 Y157.863
G1 X92.0241 Y158.024
G1 X92.8425 Y158.1606
G1 X93.8077 Y157.9995
G1 X94.6261 Y157.863
G1 X95.4867 Y157.3972
G1 X96.2164 Y157.0023
G1 X96.7784 Y156.3918
G1 X97.4411 Y155.6719
G1 X97.7744 Y154.9121
G1 X98.1675 Y154.016
G1 X98.236 Y153.1891
G1 X98.3168 Y152.2139
G1 X98.1131 Y151.4095
G1 X97.8729 Y150.4609
G1 X97.4191 Y149.7663
G1 X96.8838 Y148.9471
G1 X96.1117 Y148.3461
G1 X95.4569 Y147.8365
G1 X94.5314 Y147.5187
G1 X93.7466 Y147.2493
G1 X92.7681
G1 X91.9383
G1 F300.0 Z-1.2
G1 F1200.0 X91.0128 Y147.5671
G1 X90.2281 Y147.8365
G1 X89.4559 Y148.4375
G1 X88.8011 Y148.9471
G1 X88.3473 Y149.6417
G1 X87.8121 Y150.4609
G1 X87.6084 Y151.2653
G1 X87.3682 Y152.2139
G1 X87.4367 Y153.0408
G1 X87.5175 Y154.016
G1 X87.8508 Y154.7758
G1 X88.2439 Y155.6719
G1 X88.8058 Y156.2824
G1 X89.4685 Y157.0023
G1 X90.3292 Y157.468
G1 X91.0589 Y157.863
G1 X92.0241 Y158.024
G1 X92.8425 Y158.1606
G1 X93.8077 Y157.9995
G1 X94.6261 Y157.863
G1 X95.4867 Y157.3972
G1 X96.2164 Y157.0023
G1 X96.7784 Y156.3918
G1 X97.4411 Y155.6719
G1 X97.7744 Y154.9121
G1 X98.1675 Y154.016
G1 X98.236 Y153.1891
G1 X98.3168 Y152.2139
G1 X98.1131 Y151.4095
G1 X97.8729 Y150.4609
G1 X97.4191 Y149.7663
G1 X96.8838 Y148.9471
G1 X96.1117 Y148.3461
G1 X95.4569 Y147.8365
G1 X94.5314 Y147.5187
G1 X93.7466 Y147.2493
G1 X92.7681
G1 X91.9383
G1 F300.0 Z-1.8
G1 F1200.0 X91.0128 Y147.5671
G1 X90.2281 Y147.8365
G1 X89.4559 Y148.4375
G1 X88.8011 Y148.9471
G1 X88.3473 Y149.6417
G1 X87.8121 Y150.4609
G1 X87.6084 Y151.2653
G1 X87.3682 Y152.2139
G1 X87.4367 Y153.0408
G1 X87.5175 Y154.016
G1 X87.8508 Y154.7758
G1 X88.2439 Y155.6719
G1 X88.8058 Y156.2824
G1 X89.4685 Y157.0023
G1 X90.3292 Y157.468
G1 X91.0589 Y157.863
G1 X92.0241 Y158.024
G1 X92.8425 Y158.1606
G1 X93.8077 Y157.9995
G1 X94.6261 Y157.863
G1 X95.4867 Y157.3972
G1 X96.2164 Y157.0023
G1 X96.7784 Y156.3918
G1 X97.4411 Y155.6719
G1 X97.7744 Y154.9121
G1 X98.1675 Y154.016
G1 X98.236 Y153.1891
G1 X98.3168 Y152.2139
G1 X98.1131 Y151.4095
G1 X97.8729 Y150.4609
G1 X97.4191 Y149.7663
G1 X96.8838 Y148.9471
G1 X96.1117 Y148.3461
G1 X95.4569 Y147.8365
G1 X94.5314 Y147.5187
G1 X93.7466 Y147.2493
G1 X92.7681
G1 X91.9383
G1 F300.0 Z-2.4
G1 F1200.0 X91.0128 Y147.5671
G1 X90.2281 Y147.8365
G1 X89.4559 Y148.4375
G1 X88.8011 Y148.9471
G1 X88.3473 Y149.6417
G1 X87.8121 Y150.4609
G1 X87.6084 Y151.2653
G1 X87.3682 Y152.2139
G1 X87.4367 Y153.0408
G1 X87.5175 Y154.016
G1 X87.8508 Y154.7758
G1 X88.2439 Y155.6719
G1 X88.8058 Y156.2824
G1 X89.4685 Y157.0023
G1 X90.3292 Y157.468
G1 X91.0589 Y157.863
G1 X92.0241 Y158.024
G1 X92.8425 Y158.1606
G1 X93.8077 Y157.9995
G1 X94.6261 Y157.863
G1 X95.4867 Y157.3972
G1 X96.2164 Y157.0023
G1 X96.7784 Y156.3918
G1 X97.4411 Y155.6719
G1 X97.7744 Y154.9121
G1 X98.1675 Y154.016
G1 X98.236 Y153.1891
G1 X98.3168 Y152.2139
G1 X98.1131 Y151.4095
G1 X97.8729 Y150.4609
G1 X97.4191 Y149.7663
G1 X96.8838 Y148.9471
G1 X96.1117 Y148.3461
G1 X95.4569 Y147.8365
G1 X94.5314 Y147.5187
G1 X93.7466 Y147.2493
G1 X92.7681
G1 X91.9383
G1 F300.0 Z-3.0
G1 F1200.0 X91.0128 Y147.5671
G1 X90.2281 Y147.8365
G1 X89.4559 Y148.4375
G1 X88.8011 Y148.9471
G1 X88.3473 Y149.6417
G1 X87.8121 Y150.4609
G1 X87.6084 Y151.2653
G1 X87.3682 Y152.2139
G1 X87.4367 Y153.0408
G1 X87.5175 Y154.016
G1 X87.8508 Y154.7758
G1 X88.2439 Y155.6719
G1 X88.8058 Y156.2824
G1 X89.4685 Y157.0023
G1 X90.3292 Y157.468
G1 X91.0589 Y157.863
G1 X92.0241 Y158.024
G1 X92.8425 Y158.1606
G1 X93.8077 Y157.9995
G1 X94.6261 Y157.863
G1 X95.4867 Y157.3972
G1 X96.2164 Y157.0023
G1 X96.7784 Y156.3918
G1 X97.4411 Y155.6719
G1 X97.7744 Y154.9121
G1 X98.1675 Y154.016
G1 X98.236 Y153.1891
G1 X98.3168 Y152.2139
G1 X98.1131 Y151.4095
G1 X97.8729 Y150.4609
G1 X97.4191 Y149.7663
G1 X96.8838 Y148.9471
G1 X96.1117 Y148.3461
G1 X95.4569 Y147.8365
G1 X94.5314 Y147.5187
G1 X93.7466 Y147.2493
G1 X92.7681
G1 X91.9383
G1 F300.0 Z-3.6
G1 F1200.0 X91.0128 Y147.5671
G1 X90.2281 Y147.8365
G1 X89.4559 Y148.4375
G1 X88.8011 Y148.9471
G1 X88.3473 Y149.6417
G1 X87.8121 Y150.4609
G1 X87.6084 Y151.2653
G1 X87.3682 Y152.2139
G1 X87.4367 Y153.0408
G1 X87.5175 Y154.016
G1 X87.8508 Y154.7758
G1 X88.2439 Y155.6719
G1 X88.8058 Y156.2824
G1 X89.4685 Y157.0023
G1 X90.3292 Y157.468
G1 X91.0589 Y157.863
G1 X92.0241 Y158.024
G1 X92.8425 Y158.1606
G1 X93.8077 Y157.9995
G1 X94.6261 Y157.863
G1 X95.4867 Y157.3972
G1 X96.2164 Y157.0023
G1 X96.7784 Y156.3918
G1 X97.4411 Y155.6719
G1 X97.7744 Y154.9121
G1 X98.1675 Y154.016
G1 X98.236 Y153.1891
G1 X98.3168 Y152.2139
G1 X98.1131 Y151.4095
G1 X97.8729 Y150.4609
G1 X97.4191 Y149.7663
G1 X96.8838 Y148.9471
G1 X96.1117 Y148.3461
G1 X95.4569 Y147.8365
G1 X94.5314 Y147.5187
G1 X93.7466 Y147.2493
G1 X92.7681
G1 X91.9383
G1 F300.0 Z-4.0
G1 F1200.0 X91.0128 Y147.5671
G1 X90.2281 Y147.8365
G1 X89.4559 Y148.4375
G1 X88.8011 Y148.9471
G1 X88.3473 Y149.6417
G1 X87.8121 Y150.4609
G1 X87.6084 Y151.2653
G1 X87.3682 Y152.2139
G1 X87.4367 Y153.0408
G1 X87.5175 Y154.016
G1 X87.8508 Y154.7758
G1 X88.2439 Y155.6719
G1 X88.8058 Y156.2824
G1 X89.4685 Y157.0023
G1 X90.3292 Y157.468
G1 X91.0589 Y157.863
G1 X92.0241 Y158.024
G1 X92.8425 Y158.1606
G1 X93.8077 Y157.9995
G1 X94.6261 Y157.863
G1 X95.4867 Y157.3972
G1 X96.2164 Y157.0023
G1 X96.7784 Y156.3918
G1 X97.4411 Y155.6719
G1 X97.7744 Y154.9121
G1 X98.1675 Y154.016
G1 X98.236 Y153.1891
G1 X98.3168 Y152.2139
G1 X98.1131 Y151.4095
G1 X97.8729 Y150.4609
G1 X97.4191 Y149.7663
G1 X96.8838 Y148.9471
G1 X96.1117 Y148.3461
G1 X95.4569 Y147.8365
G1 X94.5314 Y147.5187
G1 X93.7466 Y147.2493
G1 X92.7681
G1 X91.9383
G0 Z3.0
G0 X90.7467 Y189.2493
G0 Z1.0
G1 F300.0 Z-0.6
G1 F1200.0 X89.7681
G1 X88.9383
G1 X88.0128 Y189.5671
G1 X87.2281 Y189.8365
G1 X86.4559 Y190.4375
G1 X85.8011 Y190.9471
G1 X85.3473 Y191.6418
G1 X84.8121 Y192.4609
G1 X84.6084 Y193.2653
G1 X84.3682 Y194.2139
G1 X84.4367 Y195.0408
G1 X84.5175 Y196.016
G1 X84.8508 Y196.7758
G1 X85.2439 Y197.672
G1 X85.8058 Y198.2824
G1 X86.4685 Y199.0023
G1 X87.3292 Y199.468
G1 X88.0589 Y199.863
G1 X89.0241 Y200.024
G1 X89.8425 Y200.1606
G1 X90.8077 Y199.9995
G1 X91.6261 Y199.863
G1 X92.4867 Y199.3972
G1 X93.2164 Y199.0023
G1 X93.7784 Y198.3919
G1 X94.4411 Y197.6719
G1 X94.7744 Y196.9121
G1 X95.1675 Y196.016
G1 X95.236 Y195.1891
G1 X95.3168 Y194.2139
G1 X95.1131 Y193.4095
G1 X94.8729 Y192.4609
G1 X94.4191 Y191.7663
G1 X93.8838 Y190.9471
G1 X93.1117 Y190.3461
G1 X92.4569 Y189.8365
G1 X91.5314 Y189.5188
G1 X90.7467 Y189.2493
G1 F300.0 Z-1.2
G1 F1200.0 X89.7681
G1 X88.9383
G1 X88.0128 Y189.5671
G1 X87.2281 Y189.8365
G1 X86.4559 Y190.4375
G1 X85.8011 Y190.9471
G1 X85.3473 Y191.6418
G1 X84.8121 Y192.4609
G1 X84.6084 Y193.2653
G1 X84.3682 Y194.2139
G1 X84.4367 Y195.0408
G1 X84.5175 Y196.016
G1 X84.8508 Y196.7758
G1 X85.2439 Y197.672
G1 X85.8058 Y198.2824
G1 X86.4685 Y199.0023
G1 X87.3292 Y199.468
G1 X88.0589 Y199.863
G1 X89.0241 Y200.024
G1 X89.8425 Y200.1606
G1 X90.8077 Y199.9995
G1 X91.6261 Y199.863
G1 X92.4867 Y199.3972
G1 X93.2164 Y199.0023
G1 X93.7784 Y198.3919
G1 X94.4411 Y197.6719
G1 X94.7744 Y196.9121
G1 X95.1675 Y196.016
G1 X95.236 Y195.1891
G1 X95.3168 Y194.2139
G1 X95.1131 Y193.4095
G1 X94.8729 Y192.4609
G1 X94.4191 Y191.7663
G1 X93.8838 Y190.9471
G1 X93.1117 Y190.3461
G1 X92.4569 Y189.8365
G1 X91.5314 Y189.5188
G1 X90.7467 Y189.2493
G1 F300.0 Z-1.8
G1 F1200.0 X89.7681
G1 X88.9383
G1 X88.0128 Y189.5671
G1 X87.2281 Y189.8365
G1 X86.4559 Y190.4375
G1 X85.8011 Y190.9471
G1 X85.3473 Y191.6418
G1 X84.8121 Y192.4609
G1 X84.6084 Y193.2653
G1 X84.3682 Y194.2139
G1 X84.4367 Y195.0408
G1 X84.5175 Y196.016
G1 X84.8508 Y196.7758
G1 X85.2439 Y197.672
G1 X85.8058 Y198.2824
G1 X86.4685 Y199.0023
G1 X87.3292 Y199.468
G1 X88.0589 Y199.863
G1 X89.0241 Y200.024
G1 X89.8425 Y200.1606
G1 X90.8077 Y199.9995
G1 X91.6261 Y199.863
G1 X92.4867 Y199.3972
G1 X93.2164 Y199.0023
G1 X93.7784 Y198.3919
G1 X94.4411 Y197.6719
G1 X94.7744 Y196.9121
G1 X95.1675 Y196.016
G1 X95.236 Y195.1891
G1 X95.3168 Y194.2139
G1 X95.1131 Y193.4095
G1 X94.8729 Y192.4609
G1 X94.4191 Y191.7663
G1 X93.8838 Y190.9471
G1 X93.1117 Y190.3461
G1 X92.4569 Y189.8365
G1 X91.5314 Y189.5188
G1 X90.7467 Y189.2493
G1 F300.0 Z-2.4
G1 F1200.0 X89.7681
G1 X88.9383
G1 X88.0128 Y189.5671
G1 X87.2281 Y189.8365
G1 X86.4559 Y190.4375
G1 X85.8011 Y190.9471
G1 X85.3473 Y191.6418
G1 X84.8121 Y192.4609
G1 X84.6084 Y193.2653
G1 X84.3682 Y194.2139
G1 X84.4367 Y195.0408
G1 X84.5175 Y196.016
G1 X84.8508 Y196.7758
G1 X85.2439 Y197.672
G1 X85.8058 Y198.2824
G1 X86.4685 Y199.0023
G1 X87.3292 Y199.468
G1 X88.0589 Y199.863
G1 X89.0241 Y200.024
G1 X89.8425 Y200.1606
G1 X90.8077 Y199.9995
G1 X91.6261 Y199.863
G1 X92.4867 Y199.3972
G1 X93.2164 Y199.0023
G1 X93.7784 Y198.3919
G1 X94.4411 Y197.6719
G1 X94.7744 Y196.9121
G1 X95.1675 Y196.016
G1 X95.236 Y195.1891
G1 X95.3168 Y194.2139
G1 X95.1131 Y193.4095
G1 X94.8729 Y192.4609
G1 X94.4191 Y191.7663
G1 X93.8838 Y190.9471
G1 X93.1117 Y190.3461
G1 X92.4569 Y189.8365
G1 X91.5314 Y189.5188
G1 X90.7467 Y189.2493
G1 F300.0 Z-3.0
G1 F1200.0 X89.7681
G1 X88.9383
G1 X88.0128 Y189.5671
G1 X87.2281 Y189.8365
G1 X86.4559 Y190.4375
G1 X85.8011 Y190.9471
G1 X85.3473 Y191.6418
G1 X84.8121 Y192.4609
G1 X84.6084 Y193.2653
G1 X84.3682 Y194.2139
G1 X84.4367 Y195.0408
G1 X84.5175 Y196.016
G1 X84.8508 Y196.7758
G1 X85.2439 Y197.672
G1 X85.8058 Y198.2824
G1 X86.4685 Y199.0023
G1 X87.3292 Y199.468
G1 X88.0589 Y199.863
G1 X89.0241 Y200.024
G1 X89.8425 Y200.1606
G1 X90.8077 Y199.9995
G1 X91.6261 Y199.863
G1 X92.4867 Y199.3972
G1 X93.2164 Y199.0023
G1 X93.7784 Y198.3919
G1 X94.4411 Y197.6719
G1 X94.7744 Y196.9121
G1 X95.1675 Y196.016
G1 X95.236 Y195.1891
G1 X95.3168 Y194.2139
G1 X95.1131 Y193.4095
G1 X94.8729 Y192.4609
G1 X94.4191 Y191.7663
G1 X93.8838 Y190.9471
G1 X93.1117 Y190.3461
G1 X92.4569 Y189.8365
G1 X91.5314 Y189.5188
G1 X90.7467 Y189.2493
G1 F300.0 Z-3.6
G1 F1200.0 X89.7681
G1 X88.9383
G1 X88.0128 Y189.5671
G1 X87.2281 Y189.8365
G1 X86.4559 Y190.4375
G1 X85.8011 Y190.9471
G1 X85.3473 Y191.6418
G1 X84.8121 Y192.4609
G1 X84.6084 Y193.2653
G1 X84.3682 Y194.2139
G1 X84.4367 Y195.0408
G1 X84.5175 Y196.016
G1 X84.8508 Y196.7758
G1 X85.2439 Y197.672
G1 X85.8058 Y198.2824
G1 X86.4685 Y199.0023
G1 X87.3292 Y199.468
G1 X88.0589 Y199.863
G1 X89.0241 Y200.024
G1 X89.8425 Y200.1606
G1 X90.8077 Y199.9995
G1 X91.6261 Y199.863
G1 X92.4867 Y199.3972
G1 X93.2164 Y199.0023
G1 X93.7784 Y198.3919
G1 X94.4411 Y197.6719
G1 X94.7744 Y196.9121
G1 X95.1675 Y196.016
G1 X95.236 Y195.1891
G1 X95.3168 Y194.2139
G1 X95.1131 Y193.4095
G1 X94.8729 Y192.4609
G1 X94.4191 Y191.7663
G1 X93.8838 Y190.9471
G1 X93.1117 Y190.3461
G1 X92.4569 Y189.8365
G1 X91.5314 Y189.5188
G1 X90.7467 Y189.2493
G1 F300.0 Z-4.0
G1 F1200.0 X89.7681
G1 X88.9383
G1 X88.0128 Y189.5671
G1 X87.2281 Y189.8365
G1 X86.4559 Y190.4375
G1 X85.8011 Y190.9471
G1 X85.3473 Y191.6418
G1 X84.8121 Y192.4609
G1 X84.6084 Y193.2653
G1 X84.3682 Y194.2139
G1 X84.4367 Y195.0408
G1 X84.5175 Y196.016
G1 X84.8508 Y196.7758
G1 X85.2439 Y197.672
G1 X85.8058 Y198.2824
G1 X86.4685 Y199.0023
G1 X87.3292 Y199.468
G1 X88.0589 Y199.863
G1 X89.0241 Y200.024
G1 X89.8425 Y200.1606
G1 X90.8077 Y199.9995
G1 X91.6261 Y199.863
G1 X92.4867 Y199.3972
G1 X93.2164 Y199.0023
G1 X93.7784 Y198.3919
G1 X94.4411 Y197.6719
G1 X94.7744 Y196.9121
G1 X95.1675 Y196.016
G1 X95.236 Y195.1891
G1 X95.3168 Y194.2139
G1 X95.1131 Y193.4095
G1 X94.8729 Y192.4609
G1 X94.4191 Y191.7663
G1 X93.8838 Y190.9471
G1 X93.1117 Y190.3461
G1 X92.4569 Y189.8365
G1 X91.5314 Y189.5188
G1 X90.7467 Y189.2493
G0 Z3.0
M5
M30
