( Made using CamBam - http://www.cambam.co.uk )
( tournevis2 7/21/2017 6:44:57 PM )
G0 Z3.0
M3 S1000
G0 X22.9598 Y250.1675
G0 Z1.0
G1 F300.0 Z-0.6
G1 F1200.0 X12.7305
G1 X9.6675
G3 X9.1675 Y249.6675 I0.0 J-0.5
G1 Y248.2149
G1 Y245.542
G3 X9.1687 Y245.5078 I0.5 J0.0
G1 X9.179 Y245.3578
G3 X9.6778 Y244.892 I0.4988 J0.0343
G1 X37.0405
G1 Y243.146
G1 X9.6778
G3 X9.179 Y242.6803 I0.0 J-0.5
G1 X9.1687 Y242.5303
G3 X9.1675 Y242.496 I0.4988 J-0.0343
G1 Y241.0636
G1 Y214.1345
G1 Y206.9832
G1 Y180.0541
G1 Y172.9028
G1 Y168.3735
G3 X9.1687 Y168.3393 I0.5 J0.0
G1 X9.179 Y168.1893
G3 X9.6778 Y167.7235 I0.4988 J0.0343
G1 X37.0405
G1 Y165.9775
G1 X9.6778
G3 X9.179 Y165.5118 I0.0 J-0.5
G1 X9.1687 Y165.3618
G3 X9.1675 Y165.3275 I0.4988 J-0.0343
G1 Y145.9737
G1 Y138.8224
G1 Y131.1905
G3 X9.1687 Y131.1563 I0.5 J0.0
G1 X9.179 Y131.0063
G3 X9.6778 Y130.5405 I0.4988 J0.0343
G1 X37.0405
G1 Y128.7945
G1 X9.6778
G3 X9.179 Y128.3288 I0.0 J-0.5
G1 X9.1687 Y128.1788
G3 X9.1675 Y128.1445 I0.4988 J-0.0343
G1 Y113.3613
G1 Y94.3008
G3 X9.1687 Y94.2666 I0.5 J0.0
G1 X9.179 Y94.1166
G3 X9.6778 Y93.6508 I0.4988 J0.0342
G1 X37.0405
G1 Y91.9048
G1 X9.6778
G3 X9.179 Y91.4391 I0.0 J-0.5
G1 X9.1687 Y91.2891
G3 X9.1675 Y91.2548 I0.4988 J-0.0342
G1 Y86.4322
G1 Y79.2809
G1 Y52.3518
G1 Y45.2005
G1 Y18.2714
G1 Y16.7623
G3 X9.1687 Y16.7281 I0.5 J0.0
G1 X9.179 Y16.5781
G3 X9.6778 Y16.1123 I0.4988 J0.0343
G1 X37.0405
G1 Y14.3663
G1 X9.6778
G3 X9.179 Y13.9006 I0.0 J-0.5
G1 X9.1687 Y13.7506
G3 X9.1675 Y13.7163 I0.4988 J-0.0343
G1 Y11.1201
G1 Y9.6675
G3 X9.6675 Y9.1675 I0.5 J0.0
G1 X12.7305
G1 X22.9598
G1 X57.7027
G1 X65.6675
G3 X66.1675 Y9.6675 I0.0 J0.5
G1 Y170.0194
G1 Y249.6675
G3 X65.6675 Y250.1675 I-0.5 J0.0
G1 X57.7027
G1 X22.9598
G1 F300.0 Z-1.2
G1 F1200.0 X12.7305
G1 X9.6675
G3 X9.1675 Y249.6675 I0.0 J-0.5
G1 Y248.2149
G1 Y245.542
G3 X9.1687 Y245.5078 I0.5 J0.0
G1 X9.179 Y245.3578
G3 X9.6778 Y244.892 I0.4988 J0.0343
G1 X37.0405
G1 Y243.146
G1 X9.6778
G3 X9.179 Y242.6803 I0.0 J-0.5
G1 X9.1687 Y242.5303
G3 X9.1675 Y242.496 I0.4988 J-0.0343
G1 Y241.0636
G1 Y214.1345
G1 Y206.9832
G1 Y180.0541
G1 Y172.9028
G1 Y168.3735
G3 X9.1687 Y168.3393 I0.5 J0.0
G1 X9.179 Y168.1893
G3 X9.6778 Y167.7235 I0.4988 J0.0343
G1 X37.0405
G1 Y165.9775
G1 X9.6778
G3 X9.179 Y165.5118 I0.0 J-0.5
G1 X9.1687 Y165.3618
G3 X9.1675 Y165.3275 I0.4988 J-0.0343
G1 Y145.9737
G1 Y138.8224
G1 Y131.1905
G3 X9.1687 Y131.1563 I0.5 J0.0
G1 X9.179 Y131.0063
G3 X9.6778 Y130.5405 I0.4988 J0.0343
G1 X37.0405
G1 Y128.7945
G1 X9.6778
G3 X9.179 Y128.3288 I0.0 J-0.5
G1 X9.1687 Y128.1788
G3 X9.1675 Y128.1445 I0.4988 J-0.0343
G1 Y113.3613
G1 Y94.3008
G3 X9.1687 Y94.2666 I0.5 J0.0
G1 X9.179 Y94.1166
G3 X9.6778 Y93.6508 I0.4988 J0.0342
G1 X37.0405
G1 Y91.9048
G1 X9.6778
G3 X9.179 Y91.4391 I0.0 J-0.5
G1 X9.1687 Y91.2891
G3 X9.1675 Y91.2548 I0.4988 J-0.0342
G1 Y86.4322
G1 Y79.2809
G1 Y52.3518
G1 Y45.2005
G1 Y18.2714
G1 Y16.7623
G3 X9.1687 Y16.7281 I0.5 J0.0
G1 X9.179 Y16.5781
G3 X9.6778 Y16.1123 I0.4988 J0.0343
G1 X37.0405
G1 Y14.3663
G1 X9.6778
G3 X9.179 Y13.9006 I0.0 J-0.5
G1 X9.1687 Y13.7506
G3 X9.1675 Y13.7163 I0.4988 J-0.0343
G1 Y11.1201
G1 Y9.6675
G3 X9.6675 Y9.1675 I0.5 J0.0
G1 X12.7305
G1 X22.9598
G1 X57.7027
G1 X65.6675
G3 X66.1675 Y9.6675 I0.0 J0.5
G1 Y170.0194
G1 Y249.6675
G3 X65.6675 Y250.1675 I-0.5 J0.0
G1 X57.7027
G1 X22.9598
G1 F300.0 Z-1.8
G1 F1200.0 X12.7305
G1 X9.6675
G3 X9.1675 Y249.6675 I0.0 J-0.5
G1 Y248.2149
G1 Y245.542
G3 X9.1687 Y245.5078 I0.5 J0.0
G1 X9.179 Y245.3578
G3 X9.6778 Y244.892 I0.4988 J0.0343
G1 X37.0405
G1 Y243.146
G1 X9.6778
G3 X9.179 Y242.6803 I0.0 J-0.5
G1 X9.1687 Y242.5303
G3 X9.1675 Y242.496 I0.4988 J-0.0343
G1 Y241.0636
G1 Y214.1345
G1 Y206.9832
G1 Y180.0541
G1 Y172.9028
G1 Y168.3735
G3 X9.1687 Y168.3393 I0.5 J0.0
G1 X9.179 Y168.1893
G3 X9.6778 Y167.7235 I0.4988 J0.0343
G1 X37.0405
G1 Y165.9775
G1 X9.6778
G3 X9.179 Y165.5118 I0.0 J-0.5
G1 X9.1687 Y165.3618
G3 X9.1675 Y165.3275 I0.4988 J-0.0343
G1 Y145.9737
G1 Y138.8224
G1 Y131.1905
G3 X9.1687 Y131.1563 I0.5 J0.0
G1 X9.179 Y131.0063
G3 X9.6778 Y130.5405 I0.4988 J0.0343
G1 X37.0405
G1 Y128.7945
G1 X9.6778
G3 X9.179 Y128.3288 I0.0 J-0.5
G1 X9.1687 Y128.1788
G3 X9.1675 Y128.1445 I0.4988 J-0.0343
G1 Y113.3613
G1 Y94.3008
G3 X9.1687 Y94.2666 I0.5 J0.0
G1 X9.179 Y94.1166
G3 X9.6778 Y93.6508 I0.4988 J0.0342
G1 X37.0405
G1 Y91.9048
G1 X9.6778
G3 X9.179 Y91.4391 I0.0 J-0.5
G1 X9.1687 Y91.2891
G3 X9.1675 Y91.2548 I0.4988 J-0.0342
G1 Y86.4322
G1 Y79.2809
G1 Y52.3518
G1 Y45.2005
G1 Y18.2714
G1 Y16.7623
G3 X9.1687 Y16.7281 I0.5 J0.0
G1 X9.179 Y16.5781
G3 X9.6778 Y16.1123 I0.4988 J0.0343
G1 X37.0405
G1 Y14.3663
G1 X9.6778
G3 X9.179 Y13.9006 I0.0 J-0.5
G1 X9.1687 Y13.7506
G3 X9.1675 Y13.7163 I0.4988 J-0.0343
G1 Y11.1201
G1 Y9.6675
G3 X9.6675 Y9.1675 I0.5 J0.0
G1 X12.7305
G1 X22.9598
G1 X57.7027
G1 X65.6675
G3 X66.1675 Y9.6675 I0.0 J0.5
G1 Y170.0194
G1 Y249.6675
G3 X65.6675 Y250.1675 I-0.5 J0.0
G1 X57.7027
G1 X22.9598
G1 F300.0 Z-2.4
G1 F1200.0 X12.7305
G1 X9.6675
G3 X9.1675 Y249.6675 I0.0 J-0.5
G1 Y248.2149
G1 Y245.542
G3 X9.1687 Y245.5078 I0.5 J0.0
G1 X9.179 Y245.3578
G3 X9.6778 Y244.892 I0.4988 J0.0343
G1 X37.0405
G1 Y243.146
G1 X9.6778
G3 X9.179 Y242.6803 I0.0 J-0.5
G1 X9.1687 Y242.5303
G3 X9.1675 Y242.496 I0.4988 J-0.0343
G1 Y241.0636
G1 Y214.1345
G1 Y206.9832
G1 Y180.0541
G1 Y172.9028
G1 Y168.3735
G3 X9.1687 Y168.3393 I0.5 J0.0
G1 X9.179 Y168.1893
G3 X9.6778 Y167.7235 I0.4988 J0.0343
G1 X37.0405
G1 Y165.9775
G1 X9.6778
G3 X9.179 Y165.5118 I0.0 J-0.5
G1 X9.1687 Y165.3618
G3 X9.1675 Y165.3275 I0.4988 J-0.0343
G1 Y158.2544
G1 Y157.2544 Z-2.0
G1 Y156.2544
G1 Y155.2544 Z-2.4
G1 Y145.9737
G1 Y138.8224
G1 Y131.1905
G3 X9.1687 Y131.1563 I0.5 J0.0
G1 X9.179 Y131.0063
G3 X9.6778 Y130.5405 I0.4988 J0.0343
G1 X37.0405
G1 Y128.7945
G1 X9.6778
G3 X9.179 Y128.3288 I0.0 J-0.5
G1 X9.1687 Y128.1788
G3 X9.1675 Y128.1445 I0.4988 J-0.0343
G1 Y113.3613
G1 Y94.3008
G3 X9.1687 Y94.2666 I0.5 J0.0
G1 X9.179 Y94.1166
G3 X9.6778 Y93.6508 I0.4988 J0.0342
G1 X37.0405
G1 Y91.9048
G1 X9.6778
G3 X9.179 Y91.4391 I0.0 J-0.5
G1 X9.1687 Y91.2891
G3 X9.1675 Y91.2548 I0.4988 J-0.0342
G1 Y86.4322
G1 Y79.2809
G1 Y75.5
G1 Y74.5 Z-2.0
G1 Y73.5
G1 Y72.5 Z-2.4
G1 Y52.3518
G1 Y45.2005
G1 Y18.2714
G1 Y16.7623
G3 X9.1687 Y16.7281 I0.5 J0.0
G1 X9.179 Y16.5781
G3 X9.6778 Y16.1123 I0.4988 J0.0343
G1 X37.0405
G1 Y14.3663
G1 X9.6778
G3 X9.179 Y13.9006 I0.0 J-0.5
G1 X9.1687 Y13.7506
G3 X9.1675 Y13.7163 I0.4988 J-0.0343
G1 Y11.1201
G1 Y9.6675
G3 X9.6675 Y9.1675 I0.5 J0.0
G1 X12.7305
G1 X22.9598
G1 X33.5
G1 X34.5 Z-2.0
G1 X35.5
G1 X36.5 Z-2.4
G1 X57.7027
G1 X65.6675
G3 X66.1675 Y9.6675 I0.0 J0.5
G1 Y73.2176
G1 Y74.2176 Z-2.0
G1 Y75.2176
G1 Y76.2176 Z-2.4
G1 Y170.0194
G1 Y218.3227
G1 Y219.3227 Z-2.0
G1 Y220.3227
G1 Y221.3227 Z-2.4
G1 Y249.6675
G3 X65.6675 Y250.1675 I-0.5 J0.0
G1 X57.7027
G1 X38.5
G1 X37.5 Z-2.0
G1 X36.5
G1 X35.5 Z-2.4
G1 X22.9598
G1 F300.0 Z-3.0
G1 F1200.0 X12.7305
G1 X9.6675
G3 X9.1675 Y249.6675 I0.0 J-0.5
G1 Y248.2149
G1 Y245.542
G3 X9.1687 Y245.5078 I0.5 J0.0
G1 X9.179 Y245.3578
G3 X9.6778 Y244.892 I0.4988 J0.0343
G1 X37.0405
G1 Y243.146
G1 X9.6778
G3 X9.179 Y242.6803 I0.0 J-0.5
G1 X9.1687 Y242.5303
G3 X9.1675 Y242.496 I0.4988 J-0.0343
G1 Y241.0636
G1 Y214.1345
G1 Y206.9832
G1 Y180.0541
G1 Y172.9028
G1 Y168.3735
G3 X9.1687 Y168.3393 I0.5 J0.0
G1 X9.179 Y168.1893
G3 X9.6778 Y167.7235 I0.4988 J0.0343
G1 X37.0405
G1 Y165.9775
G1 X9.6778
G3 X9.179 Y165.5118 I0.0 J-0.5
G1 X9.1687 Y165.3618
G3 X9.1675 Y165.3275 I0.4988 J-0.0343
G1 Y158.2544
G1 Y157.2544 Z-2.0
G1 Y156.2544
G1 Y155.2544 Z-3.0
G1 Y145.9737
G1 Y138.8224
G1 Y131.1905
G3 X9.1687 Y131.1563 I0.5 J0.0
G1 X9.179 Y131.0063
G3 X9.6778 Y130.5405 I0.4988 J0.0343
G1 X37.0405
G1 Y128.7945
G1 X9.6778
G3 X9.179 Y128.3288 I0.0 J-0.5
G1 X9.1687 Y128.1788
G3 X9.1675 Y128.1445 I0.4988 J-0.0343
G1 Y113.3613
G1 Y94.3008
G3 X9.1687 Y94.2666 I0.5 J0.0
G1 X9.179 Y94.1166
G3 X9.6778 Y93.6508 I0.4988 J0.0342
G1 X37.0405
G1 Y91.9048
G1 X9.6778
G3 X9.179 Y91.4391 I0.0 J-0.5
G1 X9.1687 Y91.2891
G3 X9.1675 Y91.2548 I0.4988 J-0.0342
G1 Y86.4322
G1 Y79.2809
G1 Y75.5
G1 Y74.5 Z-2.0
G1 Y73.5
G1 Y72.5 Z-3.0
G1 Y52.3518
G1 Y45.2005
G1 Y18.2714
G1 Y16.7623
G3 X9.1687 Y16.7281 I0.5 J0.0
G1 X9.179 Y16.5781
G3 X9.6778 Y16.1123 I0.4988 J0.0343
G1 X37.0405
G1 Y14.3663
G1 X9.6778
G3 X9.179 Y13.9006 I0.0 J-0.5
G1 X9.1687 Y13.7506
G3 X9.1675 Y13.7163 I0.4988 J-0.0343
G1 Y11.1201
G1 Y9.6675
G3 X9.6675 Y9.1675 I0.5 J0.0
G1 X12.7305
G1 X22.9598
G1 X33.5
G1 X34.5 Z-2.0
G1 X35.5
G1 X36.5 Z-3.0
G1 X57.7027
G1 X65.6675
G3 X66.1675 Y9.6675 I0.0 J0.5
G1 Y73.2176
G1 Y74.2176 Z-2.0
G1 Y75.2176
G1 Y76.2176 Z-3.0
G1 Y170.0194
G1 Y218.3227
G1 Y219.3227 Z-2.0
G1 Y220.3227
G1 Y221.3227 Z-3.0
G1 Y249.6675
G3 X65.6675 Y250.1675 I-0.5 J0.0
G1 X57.7027
G1 X38.5
G1 X37.5 Z-2.0
G1 X36.5
G1 X35.5 Z-3.0
G1 X22.9598
G1 F300.0 Z-3.6
G1 F1200.0 X12.7305
G1 X9.6675
G3 X9.1675 Y249.6675 I0.0 J-0.5
G1 Y248.2149
G1 Y245.542
G3 X9.1687 Y245.5078 I0.5 J0.0
G1 X9.179 Y245.3578
G3 X9.6778 Y244.892 I0.4988 J0.0343
G1 X37.0405
G1 Y243.146
G1 X9.6778
G3 X9.179 Y242.6803 I0.0 J-0.5
G1 X9.1687 Y242.5303
G3 X9.1675 Y242.496 I0.4988 J-0.0343
G1 Y241.0636
G1 Y214.1345
G1 Y206.9832
G1 Y180.0541
G1 Y172.9028
G1 Y168.3735
G3 X9.1687 Y168.3393 I0.5 J0.0
G1 X9.179 Y168.1893
G3 X9.6778 Y167.7235 I0.4988 J0.0343
G1 X37.0405
G1 Y165.9775
G1 X9.6778
G3 X9.179 Y165.5118 I0.0 J-0.5
G1 X9.1687 Y165.3618
G3 X9.1675 Y165.3275 I0.4988 J-0.0343
G1 Y158.2544
G1 Y157.2544 Z-2.0
G1 Y156.2544
G1 Y155.2544 Z-3.6
G1 Y145.9737
G1 Y138.8224
G1 Y131.1905
G3 X9.1687 Y131.1563 I0.5 J0.0
G1 X9.179 Y131.0063
G3 X9.6778 Y130.5405 I0.4988 J0.0343
G1 X37.0405
G1 Y128.7945
G1 X9.6778
G3 X9.179 Y128.3288 I0.0 J-0.5
G1 X9.1687 Y128.1788
G3 X9.1675 Y128.1445 I0.4988 J-0.0343
G1 Y113.3613
G1 Y94.3008
G3 X9.1687 Y94.2666 I0.5 J0.0
G1 X9.179 Y94.1166
G3 X9.6778 Y93.6508 I0.4988 J0.0342
G1 X37.0405
G1 Y91.9048
G1 X9.6778
G3 X9.179 Y91.4391 I0.0 J-0.5
G1 X9.1687 Y91.2891
G3 X9.1675 Y91.2548 I0.4988 J-0.0342
G1 Y86.4322
G1 Y79.2809
G1 Y75.5
G1 Y74.5 Z-2.0
G1 Y73.5
G1 Y72.5 Z-3.6
G1 Y52.3518
G1 Y45.2005
G1 Y18.2714
G1 Y16.7623
G3 X9.1687 Y16.7281 I0.5 J0.0
G1 X9.179 Y16.5781
G3 X9.6778 Y16.1123 I0.4988 J0.0343
G1 X37.0405
G1 Y14.3663
G1 X9.6778
G3 X9.179 Y13.9006 I0.0 J-0.5
G1 X9.1687 Y13.7506
G3 X9.1675 Y13.7163 I0.4988 J-0.0343
G1 Y11.1201
G1 Y9.6675
G3 X9.6675 Y9.1675 I0.5 J0.0
G1 X12.7305
G1 X22.9598
G1 X33.5
G1 X34.5 Z-2.0
G1 X35.5
G1 X36.5 Z-3.6
G1 X57.7027
G1 X65.6675
G3 X66.1675 Y9.6675 I0.0 J0.5
G1 Y73.2176
G1 Y74.2176 Z-2.0
G1 Y75.2176
G1 Y76.2176 Z-3.6
G1 Y170.0194
G1 Y218.3227
G1 Y219.3227 Z-2.0
G1 Y220.3227
G1 Y221.3227 Z-3.6
G1 Y249.6675
G3 X65.6675 Y250.1675 I-0.5 J0.0
G1 X57.7027
G1 X38.5
G1 X37.5 Z-2.0
G1 X36.5
G1 X35.5 Z-3.6
G1 X22.9598
G1 F300.0 Z-4.0
G1 F1200.0 X12.7305
G1 X9.6675
G3 X9.1675 Y249.6675 I0.0 J-0.5
G1 Y248.2149
G1 Y245.542
G3 X9.1687 Y245.5078 I0.5 J0.0
G1 X9.179 Y245.3578
G3 X9.6778 Y244.892 I0.4988 J0.0343
G1 X37.0405
G1 Y243.146
G1 X9.6778
G3 X9.179 Y242.6803 I0.0 J-0.5
G1 X9.1687 Y242.5303
G3 X9.1675 Y242.496 I0.4988 J-0.0343
G1 Y241.0636
G1 Y214.1345
G1 Y206.9832
G1 Y180.0541
G1 Y172.9028
G1 Y168.3735
G3 X9.1687 Y168.3393 I0.5 J0.0
G1 X9.179 Y168.1893
G3 X9.6778 Y167.7235 I0.4988 J0.0343
G1 X37.0405
G1 Y165.9775
G1 X9.6778
G3 X9.179 Y165.5118 I0.0 J-0.5
G1 X9.1687 Y165.3618
G3 X9.1675 Y165.3275 I0.4988 J-0.0343
G1 Y158.2544
G1 Y157.2544 Z-2.0
G1 Y156.2544
G1 Y155.2544 Z-4.0
G1 Y145.9737
G1 Y138.8224
G1 Y131.1905
G3 X9.1687 Y131.1563 I0.5 J0.0
G1 X9.179 Y131.0063
G3 X9.6778 Y130.5405 I0.4988 J0.0343
G1 X37.0405
G1 Y128.7945
G1 X9.6778
G3 X9.179 Y128.3288 I0.0 J-0.5
G1 X9.1687 Y128.1788
G3 X9.1675 Y128.1445 I0.4988 J-0.0343
G1 Y113.3613
G1 Y94.3008
G3 X9.1687 Y94.2666 I0.5 J0.0
G1 X9.179 Y94.1166
G3 X9.6778 Y93.6508 I0.4988 J0.0342
G1 X37.0405
G1 Y91.9048
G1 X9.6778
G3 X9.179 Y91.4391 I0.0 J-0.5
G1 X9.1687 Y91.2891
G3 X9.1675 Y91.2548 I0.4988 J-0.0342
G1 Y86.4322
G1 Y79.2809
G1 Y75.5
G1 Y74.5 Z-2.0
G1 Y73.5
G1 Y72.5 Z-4.0
G1 Y52.3518
G1 Y45.2005
G1 Y18.2714
G1 Y16.7623
G3 X9.1687 Y16.7281 I0.5 J0.0
G1 X9.179 Y16.5781
G3 X9.6778 Y16.1123 I0.4988 J0.0343
G1 X37.0405
G1 Y14.3663
G1 X9.6778
G3 X9.179 Y13.9006 I0.0 J-0.5
G1 X9.1687 Y13.7506
G3 X9.1675 Y13.7163 I0.4988 J-0.0343
G1 Y11.1201
G1 Y9.6675
G3 X9.6675 Y9.1675 I0.5 J0.0
G1 X12.7305
G1 X22.9598
G1 X33.5
G1 X34.5 Z-2.0
G1 X35.5
G1 X36.5 Z-4.0
G1 X57.7027
G1 X65.6675
G3 X66.1675 Y9.6675 I0.0 J0.5
G1 Y73.2176
G1 Y74.2176 Z-2.0
G1 Y75.2176
G1 Y76.2176 Z-4.0
G1 Y170.0194
G1 Y218.3227
G1 Y219.3227 Z-2.0
G1 Y220.3227
G1 Y221.3227 Z-4.0
G1 Y249.6675
G3 X65.6675 Y250.1675 I-0.5 J0.0
G1 X57.7027
G1 X38.5
G1 X37.5 Z-2.0
G1 X36.5
G1 X35.5 Z-4.0
G1 X22.9598
G0 Z3.0
G0 X74.3425 Y249.6723
G0 Z1.0
G1 F300.0 Z-0.6
G3 F1200.0 Y249.6675 I0.5 J-0.0048
G1 Y249.0605
G1 Y246.0719
G1 Y245.542
G3 X74.3437 Y245.5078 I0.5 J0.0
G1 X74.354 Y245.3578
G3 X74.8528 Y244.892 I0.4988 J0.0343
G1 X102.2155
G1 Y243.146
G1 X74.8528
G3 X74.354 Y242.6803 I0.0 J-0.5
G1 X74.3437 Y242.5303
G3 X74.3425 Y242.496 I0.4988 J-0.0343
G1 Y234.818
G1 Y231.8294
G1 Y220.5756
G1 Y217.587
G1 Y206.3332
G1 Y203.3446
G1 Y168.3735
G3 X74.3437 Y168.3393 I0.5 J0.0
G1 X74.354 Y168.1893
G3 X74.8528 Y167.7235 I0.4988 J0.0343
G1 X102.2155
G1 Y165.9775
G1 X74.8528
G3 X74.354 Y165.5118 I0.0 J-0.5
G1 X74.3437 Y165.3618
G3 X74.3425 Y165.3275 I0.4988 J-0.0343
G1 Y131.1905
G3 X74.3437 Y131.1563 I0.5 J0.0
G1 X74.354 Y131.0063
G3 X74.8528 Y130.5405 I0.4988 J0.0343
G1 X102.2155
G1 Y128.7945
G1 X74.8528
G3 X74.354 Y128.3288 I0.0 J-0.5
G1 X74.3437 Y128.1788
G3 X74.3425 Y128.1445 I0.4988 J-0.0343
G1 Y94.3008
G3 X74.3437 Y94.2666 I0.5 J0.0
G1 X74.354 Y94.1166
G3 X74.8528 Y93.6508 I0.4988 J0.0342
G1 X102.2155
G1 Y91.9048
G1 X74.8528
G3 X74.354 Y91.4391 I0.0 J-0.5
G1 X74.3437 Y91.2891
G3 X74.3425 Y91.2548 I0.4988 J-0.0342
G1 Y53.0019
G1 Y41.748
G1 Y38.7594
G1 Y27.5056
G1 Y24.517
G1 Y16.7623
G3 X74.3437 Y16.7281 I0.5 J0.0
G1 X74.354 Y16.5781
G3 X74.8528 Y16.1123 I0.4988 J0.0342
G1 X102.2155
G1 Y14.3663
G1 X74.8528
G3 X74.354 Y13.9006 I0.0 J-0.5
G1 X74.3437 Y13.7506
G3 X74.3425 Y13.7163 I0.4988 J-0.0342
G1 Y13.2631
G1 Y10.2746
G1 Y9.6675
G3 X74.8425 Y9.1675 I0.5 J0.0
G1 X76.1225
G1 X105.8155
G1 X107.7228
G1 X130.8425
G3 X131.3425 Y9.6675 I0.0 J0.5
G1 Y18.4704
G1 Y249.6675
G3 X130.8425 Y250.1675 I-0.5 J0.0
G1 X107.7228
G1 X105.8155
G1 X76.1225
G1 X74.8425
G3 X74.3425 Y249.6723 I0.0 J-0.5
G1 F300.0 Z-1.2
G3 F1200.0 Y249.6675 I0.5 J-0.0048
G1 Y249.0605
G1 Y246.0719
G1 Y245.542
G3 X74.3437 Y245.5078 I0.5 J0.0
G1 X74.354 Y245.3578
G3 X74.8528 Y244.892 I0.4988 J0.0343
G1 X102.2155
G1 Y243.146
G1 X74.8528
G3 X74.354 Y242.6803 I0.0 J-0.5
G1 X74.3437 Y242.5303
G3 X74.3425 Y242.496 I0.4988 J-0.0343
G1 Y234.818
G1 Y231.8294
G1 Y220.5756
G1 Y217.587
G1 Y206.3332
G1 Y203.3446
G1 Y168.3735
G3 X74.3437 Y168.3393 I0.5 J0.0
G1 X74.354 Y168.1893
G3 X74.8528 Y167.7235 I0.4988 J0.0343
G1 X102.2155
G1 Y165.9775
G1 X74.8528
G3 X74.354 Y165.5118 I0.0 J-0.5
G1 X74.3437 Y165.3618
G3 X74.3425 Y165.3275 I0.4988 J-0.0343
G1 Y131.1905
G3 X74.3437 Y131.1563 I0.5 J0.0
G1 X74.354 Y131.0063
G3 X74.8528 Y130.5405 I0.4988 J0.0343
G1 X102.2155
G1 Y128.7945
G1 X74.8528
G3 X74.354 Y128.3288 I0.0 J-0.5
G1 X74.3437 Y128.1788
G3 X74.3425 Y128.1445 I0.4988 J-0.0343
G1 Y94.3008
G3 X74.3437 Y94.2666 I0.5 J0.0
G1 X74.354 Y94.1166
G3 X74.8528 Y93.6508 I0.4988 J0.0342
G1 X102.2155
G1 Y91.9048
G1 X74.8528
G3 X74.354 Y91.4391 I0.0 J-0.5
G1 X74.3437 Y91.2891
G3 X74.3425 Y91.2548 I0.4988 J-0.0342
G1 Y53.0019
G1 Y41.748
G1 Y38.7594
G1 Y27.5056
G1 Y24.517
G1 Y16.7623
G3 X74.3437 Y16.7281 I0.5 J0.0
G1 X74.354 Y16.5781
G3 X74.8528 Y16.1123 I0.4988 J0.0342
G1 X102.2155
G1 Y14.3663
G1 X74.8528
G3 X74.354 Y13.9006 I0.0 J-0.5
G1 X74.3437 Y13.7506
G3 X74.3425 Y13.7163 I0.4988 J-0.0342
G1 Y13.2631
G1 Y10.2746
G1 Y9.6675
G3 X74.8425 Y9.1675 I0.5 J0.0
G1 X76.1225
G1 X105.8155
G1 X107.7228
G1 X130.8425
G3 X131.3425 Y9.6675 I0.0 J0.5
G1 Y18.4704
G1 Y249.6675
G3 X130.8425 Y250.1675 I-0.5 J0.0
G1 X107.7228
G1 X105.8155
G1 X76.1225
G1 X74.8425
G3 X74.3425 Y249.6723 I0.0 J-0.5
G1 F300.0 Z-1.8
G3 F1200.0 Y249.6675 I0.5 J-0.0048
G1 Y249.0605
G1 Y246.0719
G1 Y245.542
G3 X74.3437 Y245.5078 I0.5 J0.0
G1 X74.354 Y245.3578
G3 X74.8528 Y244.892 I0.4988 J0.0343
G1 X102.2155
G1 Y243.146
G1 X74.8528
G3 X74.354 Y242.6803 I0.0 J-0.5
G1 X74.3437 Y242.5303
G3 X74.3425 Y242.496 I0.4988 J-0.0343
G1 Y234.818
G1 Y231.8294
G1 Y220.5756
G1 Y217.587
G1 Y206.3332
G1 Y203.3446
G1 Y168.3735
G3 X74.3437 Y168.3393 I0.5 J0.0
G1 X74.354 Y168.1893
G3 X74.8528 Y167.7235 I0.4988 J0.0343
G1 X102.2155
G1 Y165.9775
G1 X74.8528
G3 X74.354 Y165.5118 I0.0 J-0.5
G1 X74.3437 Y165.3618
G3 X74.3425 Y165.3275 I0.4988 J-0.0343
G1 Y131.1905
G3 X74.3437 Y131.1563 I0.5 J0.0
G1 X74.354 Y131.0063
G3 X74.8528 Y130.5405 I0.4988 J0.0343
G1 X102.2155
G1 Y128.7945
G1 X74.8528
G3 X74.354 Y128.3288 I0.0 J-0.5
G1 X74.3437 Y128.1788
G3 X74.3425 Y128.1445 I0.4988 J-0.0343
G1 Y94.3008
G3 X74.3437 Y94.2666 I0.5 J0.0
G1 X74.354 Y94.1166
G3 X74.8528 Y93.6508 I0.4988 J0.0342
G1 X102.2155
G1 Y91.9048
G1 X74.8528
G3 X74.354 Y91.4391 I0.0 J-0.5
G1 X74.3437 Y91.2891
G3 X74.3425 Y91.2548 I0.4988 J-0.0342
G1 Y53.0019
G1 Y41.748
G1 Y38.7594
G1 Y27.5056
G1 Y24.517
G1 Y16.7623
G3 X74.3437 Y16.7281 I0.5 J0.0
G1 X74.354 Y16.5781
G3 X74.8528 Y16.1123 I0.4988 J0.0342
G1 X102.2155
G1 Y14.3663
G1 X74.8528
G3 X74.354 Y13.9006 I0.0 J-0.5
G1 X74.3437 Y13.7506
G3 X74.3425 Y13.7163 I0.4988 J-0.0342
G1 Y13.2631
G1 Y10.2746
G1 Y9.6675
G3 X74.8425 Y9.1675 I0.5 J0.0
G1 X76.1225
G1 X105.8155
G1 X107.7228
G1 X130.8425
G3 X131.3425 Y9.6675 I0.0 J0.5
G1 Y18.4704
G1 Y249.6675
G3 X130.8425 Y250.1675 I-0.5 J0.0
G1 X107.7228
G1 X105.8155
G1 X76.1225
G1 X74.8425
G3 X74.3425 Y249.6723 I0.0 J-0.5
G1 F300.0 Z-2.4
G3 F1200.0 Y249.6675 I0.5 J-0.0048
G1 Y249.0605
G1 Y246.0719
G1 Y245.542
G3 X74.3437 Y245.5078 I0.5 J0.0
G1 X74.354 Y245.3578
G3 X74.8528 Y244.892 I0.4988 J0.0343
G1 X102.2155
G1 Y243.146
G1 X74.8528
G3 X74.354 Y242.6803 I0.0 J-0.5
G1 X74.3437 Y242.5303
G3 X74.3425 Y242.496 I0.4988 J-0.0343
G1 Y234.818
G1 Y231.8294
G1 Y220.5756
G1 Y217.587
G1 Y206.3332
G1 Y203.3446
G1 Y181.5
G1 Y180.5 Z-2.0
G1 Y179.5
G1 Y178.5 Z-2.4
G1 Y168.3735
G3 X74.3437 Y168.3393 I0.5 J0.0
G1 X74.354 Y168.1893
G3 X74.8528 Y167.7235 I0.4988 J0.0343
G1 X102.2155
G1 Y165.9775
G1 X74.8528
G3 X74.354 Y165.5118 I0.0 J-0.5
G1 X74.3437 Y165.3618
G3 X74.3425 Y165.3275 I0.4988 J-0.0343
G1 Y131.1905
G3 X74.3437 Y131.1563 I0.5 J0.0
G1 X74.354 Y131.0063
G3 X74.8528 Y130.5405 I0.4988 J0.0343
G1 X102.2155
G1 Y128.7945
G1 X74.8528
G3 X74.354 Y128.3288 I0.0 J-0.5
G1 X74.3437 Y128.1788
G3 X74.3425 Y128.1445 I0.4988 J-0.0343
G1 Y117.3729
G1 Y116.3729 Z-2.0
G1 Y115.3729
G1 Y114.3729 Z-2.4
G1 Y94.3008
G3 X74.3437 Y94.2666 I0.5 J0.0
G1 X74.354 Y94.1166
G3 X74.8528 Y93.6508 I0.4988 J0.0342
G1 X102.2155
G1 Y91.9048
G1 X74.8528
G3 X74.354 Y91.4391 I0.0 J-0.5
G1 X74.3437 Y91.2891
G3 X74.3425 Y91.2548 I0.4988 J-0.0342
G1 Y53.0019
G1 Y41.748
G1 Y38.7594
G1 Y27.9939
G1 Y27.5056 Z-2.2047
G1 Y26.9939 Z-2.0
G1 Y25.9939
G1 Y24.9939 Z-2.4
G1 Y24.517
G1 Y16.7623
G3 X74.3437 Y16.7281 I0.5 J0.0
G1 X74.354 Y16.5781
G3 X74.8528 Y16.1123 I0.4988 J0.0342
G1 X102.2155
G1 Y14.3663
G1 X74.8528
G3 X74.354 Y13.9006 I0.0 J-0.5
G1 X74.3437 Y13.7506
G3 X74.3425 Y13.7163 I0.4988 J-0.0342
G1 Y13.2631
G1 Y10.2746
G1 Y9.6675
G3 X74.8425 Y9.1675 I0.5 J0.0
G1 X76.1225
G1 X105.8155
G1 X107.7228
G1 X130.8425
G3 X131.3425 Y9.6675 I0.0 J0.5
G1 Y18.4704
G1 Y24.72
G1 Y25.72 Z-2.0
G1 Y26.72
G1 Y27.72 Z-2.4
G1 Y169.8251
G1 Y170.8251 Z-2.0
G1 Y171.8251
G1 Y172.8251 Z-2.4
G1 Y249.6675
G3 X130.8425 Y250.1675 I-0.5 J0.0
G1 X107.7228
G1 X105.8155
G1 X94.5
G1 X93.5 Z-2.0
G1 X92.5
G1 X91.5 Z-2.4
G1 X76.1225
G1 X74.8425
G3 X74.3425 Y249.6723 I0.0 J-0.5
G1 F300.0 Z-3.0
G3 F1200.0 Y249.6675 I0.5 J-0.0048
G1 Y249.0605
G1 Y246.0719
G1 Y245.542
G3 X74.3437 Y245.5078 I0.5 J0.0
G1 X74.354 Y245.3578
G3 X74.8528 Y244.892 I0.4988 J0.0343
G1 X102.2155
G1 Y243.146
G1 X74.8528
G3 X74.354 Y242.6803 I0.0 J-0.5
G1 X74.3437 Y242.5303
G3 X74.3425 Y242.496 I0.4988 J-0.0343
G1 Y234.818
G1 Y231.8294
G1 Y220.5756
G1 Y217.587
G1 Y206.3332
G1 Y203.3446
G1 Y181.5
G1 Y180.5 Z-2.0
G1 Y179.5
G1 Y178.5 Z-3.0
G1 Y168.3735
G3 X74.3437 Y168.3393 I0.5 J0.0
G1 X74.354 Y168.1893
G3 X74.8528 Y167.7235 I0.4988 J0.0343
G1 X102.2155
G1 Y165.9775
G1 X74.8528
G3 X74.354 Y165.5118 I0.0 J-0.5
G1 X74.3437 Y165.3618
G3 X74.3425 Y165.3275 I0.4988 J-0.0343
G1 Y131.1905
G3 X74.3437 Y131.1563 I0.5 J0.0
G1 X74.354 Y131.0063
G3 X74.8528 Y130.5405 I0.4988 J0.0343
G1 X102.2155
G1 Y128.7945
G1 X74.8528
G3 X74.354 Y128.3288 I0.0 J-0.5
G1 X74.3437 Y128.1788
G3 X74.3425 Y128.1445 I0.4988 J-0.0343
G1 Y117.3729
G1 Y116.3729 Z-2.0
G1 Y115.3729
G1 Y114.3729 Z-3.0
G1 Y94.3008
G3 X74.3437 Y94.2666 I0.5 J0.0
G1 X74.354 Y94.1166
G3 X74.8528 Y93.6508 I0.4988 J0.0342
G1 X102.2155
G1 Y91.9048
G1 X74.8528
G3 X74.354 Y91.4391 I0.0 J-0.5
G1 X74.3437 Y91.2891
G3 X74.3425 Y91.2548 I0.4988 J-0.0342
G1 Y53.0019
G1 Y41.748
G1 Y38.7594
G1 Y27.9939
G1 Y27.5056 Z-2.5116
G1 Y26.9939 Z-2.0
G1 Y25.9939
G1 Y24.9939 Z-3.0
G1 Y24.517
G1 Y16.7623
G3 X74.3437 Y16.7281 I0.5 J0.0
G1 X74.354 Y16.5781
G3 X74.8528 Y16.1123 I0.4988 J0.0342
G1 X102.2155
G1 Y14.3663
G1 X74.8528
G3 X74.354 Y13.9006 I0.0 J-0.5
G1 X74.3437 Y13.7506
G3 X74.3425 Y13.7163 I0.4988 J-0.0342
G1 Y13.2631
G1 Y10.2746
G1 Y9.6675
G3 X74.8425 Y9.1675 I0.5 J0.0
G1 X76.1225
G1 X105.8155
G1 X107.7228
G1 X130.8425
G3 X131.3425 Y9.6675 I0.0 J0.5
G1 Y18.4704
G1 Y24.72
G1 Y25.72 Z-2.0
G1 Y26.72
G1 Y27.72 Z-3.0
G1 Y169.8251
G1 Y170.8251 Z-2.0
G1 Y171.8251
G1 Y172.8251 Z-3.0
G1 Y249.6675
G3 X130.8425 Y250.1675 I-0.5 J0.0
G1 X107.7228
G1 X105.8155
G1 X94.5
G1 X93.5 Z-2.0
G1 X92.5
G1 X91.5 Z-3.0
G1 X76.1225
G1 X74.8425
G3 X74.3425 Y249.6723 I0.0 J-0.5
G1 F300.0 Z-3.6
G3 F1200.0 Y249.6675 I0.5 J-0.0048
G1 Y249.0605
G1 Y246.0719
G1 Y245.542
G3 X74.3437 Y245.5078 I0.5 J0.0
G1 X74.354 Y245.3578
G3 X74.8528 Y244.892 I0.4988 J0.0343
G1 X102.2155
G1 Y243.146
G1 X74.8528
G3 X74.354 Y242.6803 I0.0 J-0.5
G1 X74.3437 Y242.5303
G3 X74.3425 Y242.496 I0.4988 J-0.0343
G1 Y234.818
G1 Y231.8294
G1 Y220.5756
G1 Y217.587
G1 Y206.3332
G1 Y203.3446
G1 Y181.5
G1 Y180.5 Z-2.0
G1 Y179.5
G1 Y178.5 Z-3.6
G1 Y168.3735
G3 X74.3437 Y168.3393 I0.5 J0.0
G1 X74.354 Y168.1893
G3 X74.8528 Y167.7235 I0.4988 J0.0343
G1 X102.2155
G1 Y165.9775
G1 X74.8528
G3 X74.354 Y165.5118 I0.0 J-0.5
G1 X74.3437 Y165.3618
G3 X74.3425 Y165.3275 I0.4988 J-0.0343
G1 Y131.1905
G3 X74.3437 Y131.1563 I0.5 J0.0
G1 X74.354 Y131.0063
G3 X74.8528 Y130.5405 I0.4988 J0.0343
G1 X102.2155
G1 Y128.7945
G1 X74.8528
G3 X74.354 Y128.3288 I0.0 J-0.5
G1 X74.3437 Y128.1788
G3 X74.3425 Y128.1445 I0.4988 J-0.0343
G1 Y117.3729
G1 Y116.3729 Z-2.0
G1 Y115.3729
G1 Y114.3729 Z-3.6
G1 Y94.3008
G3 X74.3437 Y94.2666 I0.5 J0.0
G1 X74.354 Y94.1166
G3 X74.8528 Y93.6508 I0.4988 J0.0342
G1 X102.2155
G1 Y91.9048
G1 X74.8528
G3 X74.354 Y91.4391 I0.0 J-0.5
G1 X74.3437 Y91.2891
G3 X74.3425 Y91.2548 I0.4988 J-0.0342
G1 Y53.0019
G1 Y41.748
G1 Y38.7594
G1 Y27.9939
G1 Y27.5056 Z-2.8186
G1 Y26.9939 Z-2.0
G1 Y25.9939
G1 Y24.9939 Z-3.6
G1 Y24.517
G1 Y16.7623
G3 X74.3437 Y16.7281 I0.5 J0.0
G1 X74.354 Y16.5781
G3 X74.8528 Y16.1123 I0.4988 J0.0342
G1 X102.2155
G1 Y14.3663
G1 X74.8528
G3 X74.354 Y13.9006 I0.0 J-0.5
G1 X74.3437 Y13.7506
G3 X74.3425 Y13.7163 I0.4988 J-0.0342
G1 Y13.2631
G1 Y10.2746
G1 Y9.6675
G3 X74.8425 Y9.1675 I0.5 J0.0
G1 X76.1225
G1 X105.8155
G1 X107.7228
G1 X130.8425
G3 X131.3425 Y9.6675 I0.0 J0.5
G1 Y18.4704
G1 Y24.72
G1 Y25.72 Z-2.0
G1 Y26.72
G1 Y27.72 Z-3.6
G1 Y169.8251
G1 Y170.8251 Z-2.0
G1 Y171.8251
G1 Y172.8251 Z-3.6
G1 Y249.6675
G3 X130.8425 Y250.1675 I-0.5 J0.0
G1 X107.7228
G1 X105.8155
G1 X94.5
G1 X93.5 Z-2.0
G1 X92.5
G1 X91.5 Z-3.6
G1 X76.1225
G1 X74.8425
G3 X74.3425 Y249.6723 I0.0 J-0.5
G1 F300.0 Z-4.0
G3 F1200.0 Y249.6675 I0.5 J-0.0048
G1 Y249.0605
G1 Y246.0719
G1 Y245.542
G3 X74.3437 Y245.5078 I0.5 J0.0
G1 X74.354 Y245.3578
G3 X74.8528 Y244.892 I0.4988 J0.0343
G1 X102.2155
G1 Y243.146
G1 X74.8528
G3 X74.354 Y242.6803 I0.0 J-0.5
G1 X74.3437 Y242.5303
G3 X74.3425 Y242.496 I0.4988 J-0.0343
G1 Y234.818
G1 Y231.8294
G1 Y220.5756
G1 Y217.587
G1 Y206.3332
G1 Y203.3446
G1 Y181.5
G1 Y180.5 Z-2.0
G1 Y179.5
G1 Y178.5 Z-4.0
G1 Y168.3735
G3 X74.3437 Y168.3393 I0.5 J0.0
G1 X74.354 Y168.1893
G3 X74.8528 Y167.7235 I0.4988 J0.0343
G1 X102.2155
G1 Y165.9775
G1 X74.8528
G3 X74.354 Y165.5118 I0.0 J-0.5
G1 X74.3437 Y165.3618
G3 X74.3425 Y165.3275 I0.4988 J-0.0343
G1 Y131.1905
G3 X74.3437 Y131.1563 I0.5 J0.0
G1 X74.354 Y131.0063
G3 X74.8528 Y130.5405 I0.4988 J0.0343
G1 X102.2155
G1 Y128.7945
G1 X74.8528
G3 X74.354 Y128.3288 I0.0 J-0.5
G1 X74.3437 Y128.1788
G3 X74.3425 Y128.1445 I0.4988 J-0.0343
G1 Y117.3729
G1 Y116.3729 Z-2.0
G1 Y115.3729
G1 Y114.3729 Z-4.0
G1 Y94.3008
G3 X74.3437 Y94.2666 I0.5 J0.0
G1 X74.354 Y94.1166
G3 X74.8528 Y93.6508 I0.4988 J0.0342
G1 X102.2155
G1 Y91.9048
G1 X74.8528
G3 X74.354 Y91.4391 I0.0 J-0.5
G1 X74.3437 Y91.2891
G3 X74.3425 Y91.2548 I0.4988 J-0.0342
G1 Y53.0019
G1 Y41.748
G1 Y38.7594
G1 Y27.9939
G1 Y27.5056 Z-3.0233
G1 Y26.9939 Z-2.0
G1 Y25.9939
G1 Y24.9939 Z-4.0
G1 Y24.517
G1 Y16.7623
G3 X74.3437 Y16.7281 I0.5 J0.0
G1 X74.354 Y16.5781
G3 X74.8528 Y16.1123 I0.4988 J0.0342
G1 X102.2155
G1 Y14.3663
G1 X74.8528
G3 X74.354 Y13.9006 I0.0 J-0.5
G1 X74.3437 Y13.7506
G3 X74.3425 Y13.7163 I0.4988 J-0.0342
G1 Y13.2631
G1 Y10.2746
G1 Y9.6675
G3 X74.8425 Y9.1675 I0.5 J0.0
G1 X76.1225
G1 X105.8155
G1 X107.7228
G1 X130.8425
G3 X131.3425 Y9.6675 I0.0 J0.5
G1 Y18.4704
G1 Y24.72
G1 Y25.72 Z-2.0
G1 Y26.72
G1 Y27.72 Z-4.0
G1 Y169.8251
G1 Y170.8251 Z-2.0
G1 Y171.8251
G1 Y172.8251 Z-4.0
G1 Y249.6675
G3 X130.8425 Y250.1675 I-0.5 J0.0
G1 X107.7228
G1 X105.8155
G1 X94.5
G1 X93.5 Z-2.0
G1 X92.5
G1 X91.5 Z-4.0
G1 X76.1225
G1 X74.8425
G3 X74.3425 Y249.6723 I0.0 J-0.5
G0 Z3.0
G0 X139.5176 Y248.0549
G0 Z1.0
G1 F300.0 Z-0.6
G3 F1200.0 X139.5175 Y248.0425 I0.4998 J-0.0124
G1 Y245.542
G3 X139.5187 Y245.5078 I0.5 J0.0
G1 X139.529 Y245.3578
G3 X140.0278 Y244.892 I0.4988 J0.0343
G1 X159.3905
G1 Y243.146
G1 X140.0278
G3 X139.529 Y242.6803 I0.0 J-0.5
G1 X139.5187 Y242.5303
G3 X139.5175 Y242.496 I0.4988 J-0.0343
G1 Y240.0425
G3 X140.0175 Y239.5425 I0.5 J0.0
G1 X145.7432
G1 X146.1089
G1 X147.5175
G1 Y211.2945
G1 Y210.4175
G1 X146.1089
G1 X145.7432
G1 X140.0175
G3 X139.5175 Y209.9175 I0.0 J-0.5
G1 Y206.1003
G1 Y201.9175
G3 X140.0175 Y201.4175 I0.5 J0.0
G1 X145.7432
G1 X146.1089
G1 X147.5175
G1 Y173.1695
G1 Y172.2925
G1 X146.1089
G1 X145.7432
G1 X140.0175
G3 X139.5175 Y171.7925 I0.0 J-0.5
G1 Y168.3735
G3 X139.5187 Y168.3393 I0.5 J0.0
G1 X139.529 Y168.1893
G3 X140.0278 Y167.7235 I0.4988 J0.0343
G1 X159.3905
G1 Y165.9775
G1 X140.0278
G3 X139.529 Y165.5118 I0.0 J-0.5
G1 X139.5187 Y165.3618
G3 X139.5175 Y165.3275 I0.4988 J-0.0343
G1 Y163.7925
G3 X140.0175 Y163.2925 I0.5 J0.0
G1 X145.7432
G1 X146.1089
G1 X147.5175
G1 Y135.0445
G1 Y134.1675
G1 X146.1089
G1 X145.7432
G1 X140.0175
G3 X139.5175 Y133.6675 I0.0 J-0.5
G1 Y131.1905
G3 X139.5187 Y131.1563 I0.5 J0.0
G1 X139.529 Y131.0063
G3 X140.0278 Y130.5405 I0.4988 J0.0343
G1 X159.3905
G1 Y128.7945
G1 X140.0278
G3 X139.529 Y128.3288 I0.0 J-0.5
G1 X139.5187 Y128.1788
G3 X139.5175 Y128.1445 I0.4988 J-0.0343
G1 Y125.6675
G3 X140.0175 Y125.1675 I0.5 J0.0
G1 X145.7432
G1 X146.1089
G1 X147.5175
G1 Y96.9195
G1 Y96.0425
G1 X146.1089
G1 X145.7432
G1 X140.0175
G3 X139.5175 Y95.5425 I0.0 J-0.5
G1 Y94.3008
G3 X139.5187 Y94.2666 I0.5 J0.0
G1 X139.529 Y94.1166
G3 X140.0278 Y93.6508 I0.4988 J0.0343
G1 X159.3905
G1 Y91.9048
G1 X140.0278
G3 X139.529 Y91.4391 I0.0 J-0.5
G1 X139.5187 Y91.2891
G3 X139.5175 Y91.2548 I0.4988 J-0.0343
G1 Y87.5425
G3 X140.0175 Y87.0425 I0.5 J0.0
G1 X145.7432
G1 X146.1089
G1 X147.5175
G1 Y58.7945
G1 Y57.9175
G1 X146.1089
G1 X145.7432
G1 X140.0175
G3 X139.5175 Y57.4175 I0.0 J-0.5
G1 Y53.6003
G1 Y49.4175
G3 X140.0175 Y48.9175 I0.5 J0.0
G1 X145.7432
G1 X146.1089
G1 X147.5175
G1 Y20.6695
G1 Y19.7925
G1 X146.1089
G1 X145.7432
G1 X140.0175
G3 X139.5175 Y19.2925 I0.0 J-0.5
G1 Y16.7623
G3 X139.5187 Y16.7281 I0.5 J0.0
G1 X139.529 Y16.5781
G3 X140.0278 Y16.1123 I0.4988 J0.0343
G1 X159.3905
G1 Y14.3663
G1 X140.0278
G3 X139.529 Y13.9006 I0.0 J-0.5
G1 X139.5187 Y13.7506
G3 X139.5175 Y13.7163 I0.4988 J-0.0343
G1 Y11.2925
G3 X140.0175 Y10.7925 I0.5 J0.0
G1 X145.7432
G1 X146.1089
G1 X147.5175
G1 Y9.7418
G1 Y9.6675
G3 X148.0175 Y9.1675 I0.5 J0.0
G1 X149.4802
G1 X166.4454
G1 X180.0175
G3 X180.5175 Y9.6675 I0.0 J0.5
G1 Y57.8843
G1 Y249.6675
G3 X180.0175 Y250.1675 I-0.5 J0.0
G1 X166.4454
G1 X149.4802
G1 X148.0175
G3 X147.5175 Y249.6675 I0.0 J-0.5
G1 Y248.5425
G1 X146.1089
G1 X145.7432
G1 X140.0175
G3 X139.5176 Y248.0549 I0.0 J-0.5
G1 F300.0 Z-1.2
G3 F1200.0 X139.5175 Y248.0425 I0.4998 J-0.0124
G1 Y245.542
G3 X139.5187 Y245.5078 I0.5 J0.0
G1 X139.529 Y245.3578
G3 X140.0278 Y244.892 I0.4988 J0.0343
G1 X159.3905
G1 Y243.146
G1 X140.0278
G3 X139.529 Y242.6803 I0.0 J-0.5
G1 X139.5187 Y242.5303
G3 X139.5175 Y242.496 I0.4988 J-0.0343
G1 Y240.0425
G3 X140.0175 Y239.5425 I0.5 J0.0
G1 X145.7432
G1 X146.1089
G1 X147.5175
G1 Y211.2945
G1 Y210.4175
G1 X146.1089
G1 X145.7432
G1 X140.0175
G3 X139.5175 Y209.9175 I0.0 J-0.5
G1 Y206.1003
G1 Y201.9175
G3 X140.0175 Y201.4175 I0.5 J0.0
G1 X145.7432
G1 X146.1089
G1 X147.5175
G1 Y173.1695
G1 Y172.2925
G1 X146.1089
G1 X145.7432
G1 X140.0175
G3 X139.5175 Y171.7925 I0.0 J-0.5
G1 Y168.3735
G3 X139.5187 Y168.3393 I0.5 J0.0
G1 X139.529 Y168.1893
G3 X140.0278 Y167.7235 I0.4988 J0.0343
G1 X159.3905
G1 Y165.9775
G1 X140.0278
G3 X139.529 Y165.5118 I0.0 J-0.5
G1 X139.5187 Y165.3618
G3 X139.5175 Y165.3275 I0.4988 J-0.0343
G1 Y163.7925
G3 X140.0175 Y163.2925 I0.5 J0.0
G1 X145.7432
G1 X146.1089
G1 X147.5175
G1 Y135.0445
G1 Y134.1675
G1 X146.1089
G1 X145.7432
G1 X140.0175
G3 X139.5175 Y133.6675 I0.0 J-0.5
G1 Y131.1905
G3 X139.5187 Y131.1563 I0.5 J0.0
G1 X139.529 Y131.0063
G3 X140.0278 Y130.5405 I0.4988 J0.0343
G1 X159.3905
G1 Y128.7945
G1 X140.0278
G3 X139.529 Y128.3288 I0.0 J-0.5
G1 X139.5187 Y128.1788
G3 X139.5175 Y128.1445 I0.4988 J-0.0343
G1 Y125.6675
G3 X140.0175 Y125.1675 I0.5 J0.0
G1 X145.7432
G1 X146.1089
G1 X147.5175
G1 Y96.9195
G1 Y96.0425
G1 X146.1089
G1 X145.7432
G1 X140.0175
G3 X139.5175 Y95.5425 I0.0 J-0.5
G1 Y94.3008
G3 X139.5187 Y94.2666 I0.5 J0.0
G1 X139.529 Y94.1166
G3 X140.0278 Y93.6508 I0.4988 J0.0343
G1 X159.3905
G1 Y91.9048
G1 X140.0278
G3 X139.529 Y91.4391 I0.0 J-0.5
G1 X139.5187 Y91.2891
G3 X139.5175 Y91.2548 I0.4988 J-0.0343
G1 Y87.5425
G3 X140.0175 Y87.0425 I0.5 J0.0
G1 X145.7432
G1 X146.1089
G1 X147.5175
G1 Y58.7945
G1 Y57.9175
G1 X146.1089
G1 X145.7432
G1 X140.0175
G3 X139.5175 Y57.4175 I0.0 J-0.5
G1 Y53.6003
G1 Y49.4175
G3 X140.0175 Y48.9175 I0.5 J0.0
G1 X145.7432
G1 X146.1089
G1 X147.5175
G1 Y20.6695
G1 Y19.7925
G1 X146.1089
G1 X145.7432
G1 X140.0175
G3 X139.5175 Y19.2925 I0.0 J-0.5
G1 Y16.7623
G3 X139.5187 Y16.7281 I0.5 J0.0
G1 X139.529 Y16.5781
G3 X140.0278 Y16.1123 I0.4988 J0.0343
G1 X159.3905
G1 Y14.3663
G1 X140.0278
G3 X139.529 Y13.9006 I0.0 J-0.5
G1 X139.5187 Y13.7506
G3 X139.5175 Y13.7163 I0.4988 J-0.0343
G1 Y11.2925
G3 X140.0175 Y10.7925 I0.5 J0.0
G1 X145.7432
G1 X146.1089
G1 X147.5175
G1 Y9.7418
G1 Y9.6675
G3 X148.0175 Y9.1675 I0.5 J0.0
G1 X149.4802
G1 X166.4454
G1 X180.0175
G3 X180.5175 Y9.6675 I0.0 J0.5
G1 Y57.8843
G1 Y249.6675
G3 X180.0175 Y250.1675 I-0.5 J0.0
G1 X166.4454
G1 X149.4802
G1 X148.0175
G3 X147.5175 Y249.6675 I0.0 J-0.5
G1 Y248.5425
G1 X146.1089
G1 X145.7432
G1 X140.0175
G3 X139.5176 Y248.0549 I0.0 J-0.5
G1 F300.0 Z-1.8
G3 F1200.0 X139.5175 Y248.0425 I0.4998 J-0.0124
G1 Y245.542
G3 X139.5187 Y245.5078 I0.5 J0.0
G1 X139.529 Y245.3578
G3 X140.0278 Y244.892 I0.4988 J0.0343
G1 X159.3905
G1 Y243.146
G1 X140.0278
G3 X139.529 Y242.6803 I0.0 J-0.5
G1 X139.5187 Y242.5303
G3 X139.5175 Y242.496 I0.4988 J-0.0343
G1 Y240.0425
G3 X140.0175 Y239.5425 I0.5 J0.0
G1 X145.7432
G1 X146.1089
G1 X147.5175
G1 Y211.2945
G1 Y210.4175
G1 X146.1089
G1 X145.7432
G1 X140.0175
G3 X139.5175 Y209.9175 I0.0 J-0.5
G1 Y206.1003
G1 Y201.9175
G3 X140.0175 Y201.4175 I0.5 J0.0
G1 X145.7432
G1 X146.1089
G1 X147.5175
G1 Y173.1695
G1 Y172.2925
G1 X146.1089
G1 X145.7432
G1 X140.0175
G3 X139.5175 Y171.7925 I0.0 J-0.5
G1 Y168.3735
G3 X139.5187 Y168.3393 I0.5 J0.0
G1 X139.529 Y168.1893
G3 X140.0278 Y167.7235 I0.4988 J0.0343
G1 X159.3905
G1 Y165.9775
G1 X140.0278
G3 X139.529 Y165.5118 I0.0 J-0.5
G1 X139.5187 Y165.3618
G3 X139.5175 Y165.3275 I0.4988 J-0.0343
G1 Y163.7925
G3 X140.0175 Y163.2925 I0.5 J0.0
G1 X145.7432
G1 X146.1089
G1 X147.5175
G1 Y135.0445
G1 Y134.1675
G1 X146.1089
G1 X145.7432
G1 X140.0175
G3 X139.5175 Y133.6675 I0.0 J-0.5
G1 Y131.1905
G3 X139.5187 Y131.1563 I0.5 J0.0
G1 X139.529 Y131.0063
G3 X140.0278 Y130.5405 I0.4988 J0.0343
G1 X159.3905
G1 Y128.7945
G1 X140.0278
G3 X139.529 Y128.3288 I0.0 J-0.5
G1 X139.5187 Y128.1788
G3 X139.5175 Y128.1445 I0.4988 J-0.0343
G1 Y125.6675
G3 X140.0175 Y125.1675 I0.5 J0.0
G1 X145.7432
G1 X146.1089
G1 X147.5175
G1 Y96.9195
G1 Y96.0425
G1 X146.1089
G1 X145.7432
G1 X140.0175
G3 X139.5175 Y95.5425 I0.0 J-0.5
G1 Y94.3008
G3 X139.5187 Y94.2666 I0.5 J0.0
G1 X139.529 Y94.1166
G3 X140.0278 Y93.6508 I0.4988 J0.0343
G1 X159.3905
G1 Y91.9048
G1 X140.0278
G3 X139.529 Y91.4391 I0.0 J-0.5
G1 X139.5187 Y91.2891
G3 X139.5175 Y91.2548 I0.4988 J-0.0343
G1 Y87.5425
G3 X140.0175 Y87.0425 I0.5 J0.0
G1 X145.7432
G1 X146.1089
G1 X147.5175
G1 Y58.7945
G1 Y57.9175
G1 X146.1089
G1 X145.7432
G1 X140.0175
G3 X139.5175 Y57.4175 I0.0 J-0.5
G1 Y53.6003
G1 Y49.4175
G3 X140.0175 Y48.9175 I0.5 J0.0
G1 X145.7432
G1 X146.1089
G1 X147.5175
G1 Y20.6695
G1 Y19.7925
G1 X146.1089
G1 X145.7432
G1 X140.0175
G3 X139.5175 Y19.2925 I0.0 J-0.5
G1 Y16.7623
G3 X139.5187 Y16.7281 I0.5 J0.0
G1 X139.529 Y16.5781
G3 X140.0278 Y16.1123 I0.4988 J0.0343
G1 X159.3905
G1 Y14.3663
G1 X140.0278
G3 X139.529 Y13.9006 I0.0 J-0.5
G1 X139.5187 Y13.7506
G3 X139.5175 Y13.7163 I0.4988 J-0.0343
G1 Y11.2925
G3 X140.0175 Y10.7925 I0.5 J0.0
G1 X145.7432
G1 X146.1089
G1 X147.5175
G1 Y9.7418
G1 Y9.6675
G3 X148.0175 Y9.1675 I0.5 J0.0
G1 X149.4802
G1 X166.4454
G1 X180.0175
G3 X180.5175 Y9.6675 I0.0 J0.5
G1 Y57.8843
G1 Y249.6675
G3 X180.0175 Y250.1675 I-0.5 J0.0
G1 X166.4454
G1 X149.4802
G1 X148.0175
G3 X147.5175 Y249.6675 I0.0 J-0.5
G1 Y248.5425
G1 X146.1089
G1 X145.7432
G1 X140.0175
G3 X139.5176 Y248.0549 I0.0 J-0.5
G1 F300.0 Z-2.4
G3 F1200.0 X139.5175 Y248.0425 I0.4998 J-0.0124
G1 Y245.542
G3 X139.5187 Y245.5078 I0.5 J0.0
G1 X139.529 Y245.3578
G3 X140.0278 Y244.892 I0.4988 J0.0343
G1 X159.3905
G1 Y243.146
G1 X140.0278
G3 X139.529 Y242.6803 I0.0 J-0.5
G1 X139.5187 Y242.5303
G3 X139.5175 Y242.496 I0.4988 J-0.0343
G1 Y240.0425
G3 X140.0175 Y239.5425 I0.5 J0.0
G1 X145.7432
G1 X146.1089
G1 X147.5175
G1 Y227.5
G1 Y226.5 Z-2.0
G1 Y225.5
G1 Y224.5 Z-2.4
G1 Y211.2945
G1 Y210.4175
G1 X146.1089
G1 X145.7432
G1 X140.0175
G3 X139.5175 Y209.9175 I0.0 J-0.5
G1 Y206.1003
G1 Y201.9175
G3 X140.0175 Y201.4175 I0.5 J0.0
G1 X145.7432
G1 X146.1089
G1 X147.5175
G1 Y173.1695
G1 Y172.2925
G1 X146.1089
G1 X145.7432
G1 X140.0175
G3 X139.5175 Y171.7925 I0.0 J-0.5
G1 Y168.3735
G3 X139.5187 Y168.3393 I0.5 J0.0
G1 X139.529 Y168.1893
G3 X140.0278 Y167.7235 I0.4988 J0.0343
G1 X159.3905
G1 Y165.9775
G1 X140.0278
G3 X139.529 Y165.5118 I0.0 J-0.5
G1 X139.5187 Y165.3618
G3 X139.5175 Y165.3275 I0.4988 J-0.0343
G1 Y163.7925
G3 X140.0175 Y163.2925 I0.5 J0.0
G1 X145.7432
G1 X146.1089
G1 X147.5175
G1 Y149.5
G1 Y148.5 Z-2.0
G1 Y147.5
G1 Y146.5 Z-2.4
G1 Y135.0445
G1 Y134.1675
G1 X146.1089
G1 X145.7432
G1 X140.0175
G3 X139.5175 Y133.6675 I0.0 J-0.5
G1 Y131.1905
G3 X139.5187 Y131.1563 I0.5 J0.0
G1 X139.529 Y131.0063
G3 X140.0278 Y130.5405 I0.4988 J0.0343
G1 X159.3905
G1 Y128.7945
G1 X140.0278
G3 X139.529 Y128.3288 I0.0 J-0.5
G1 X139.5187 Y128.1788
G3 X139.5175 Y128.1445 I0.4988 J-0.0343
G1 Y125.6675
G3 X140.0175 Y125.1675 I0.5 J0.0
G1 X145.7432
G1 X146.1089
G1 X147.5175
G1 Y107.5
G1 Y106.5 Z-2.0
G1 Y105.5
G1 Y104.5 Z-2.4
G1 Y96.9195
G1 Y96.0425
G1 X146.1089
G1 X145.7432
G1 X140.0175
G3 X139.5175 Y95.5425 I0.0 J-0.5
G1 Y94.3008
G3 X139.5187 Y94.2666 I0.5 J0.0
G1 X139.529 Y94.1166
G3 X140.0278 Y93.6508 I0.4988 J0.0343
G1 X159.3905
G1 Y91.9048
G1 X140.0278
G3 X139.529 Y91.4391 I0.0 J-0.5
G1 X139.5187 Y91.2891
G3 X139.5175 Y91.2548 I0.4988 J-0.0343
G1 Y87.5425
G3 X140.0175 Y87.0425 I0.5 J0.0
G1 X145.7432
G1 X146.1089
G1 X147.5175
G1 Y58.7945
G1 Y57.9175
G1 X146.1089
G1 X145.7432
G1 X140.0175
G3 X139.5175 Y57.4175 I0.0 J-0.5
G1 Y53.6003
G1 Y49.4175
G3 X140.0175 Y48.9175 I0.5 J0.0
G1 X145.7432
G1 X146.1089
G1 X147.5175
G1 Y25.1979
G1 Y24.1979 Z-2.0
G1 Y23.1979
G1 Y22.1979 Z-2.4
G1 Y20.6695
G1 Y19.7925
G1 X146.1089
G1 X145.7432
G1 X140.0175
G3 X139.5175 Y19.2925 I0.0 J-0.5
G1 Y16.7623
G3 X139.5187 Y16.7281 I0.5 J0.0
G1 X139.529 Y16.5781
G3 X140.0278 Y16.1123 I0.4988 J0.0343
G1 X159.3905
G1 Y14.3663
G1 X140.0278
G3 X139.529 Y13.9006 I0.0 J-0.5
G1 X139.5187 Y13.7506
G3 X139.5175 Y13.7163 I0.4988 J-0.0343
G1 Y11.2925
G3 X140.0175 Y10.7925 I0.5 J0.0
G1 X145.7432
G1 X146.1089
G1 X147.5175
G1 Y9.7418
G1 Y9.6675
G3 X148.0175 Y9.1675 I0.5 J0.0
G1 X149.4802
G1 X166.4454
G1 X180.0175
G3 X180.5175 Y9.6675 I0.0 J0.5
G1 Y48.8494
G1 Y49.8494 Z-2.0
G1 Y50.8494
G1 Y51.8494 Z-2.4
G1 Y57.8843
G1 Y191.2878
G1 Y192.2878 Z-2.0
G1 Y193.2878
G1 Y194.2878 Z-2.4
G1 Y249.6675
G3 X180.0175 Y250.1675 I-0.5 J0.0
G1 X166.4454
G1 X149.4802
G1 X148.0175
G3 X147.5175 Y249.6675 I0.0 J-0.5
G1 Y248.5425
G1 X146.1089
G1 X145.7432
G1 X140.0175
G3 X139.5176 Y248.0549 I0.0 J-0.5
G1 F300.0 Z-3.0
G3 F1200.0 X139.5175 Y248.0425 I0.4998 J-0.0124
G1 Y245.542
G3 X139.5187 Y245.5078 I0.5 J0.0
G1 X139.529 Y245.3578
G3 X140.0278 Y244.892 I0.4988 J0.0343
G1 X159.3905
G1 Y243.146
G1 X140.0278
G3 X139.529 Y242.6803 I0.0 J-0.5
G1 X139.5187 Y242.5303
G3 X139.5175 Y242.496 I0.4988 J-0.0343
G1 Y240.0425
G3 X140.0175 Y239.5425 I0.5 J0.0
G1 X145.7432
G1 X146.1089
G1 X147.5175
G1 Y227.5
G1 Y226.5 Z-2.0
G1 Y225.5
G1 Y224.5 Z-3.0
G1 Y211.2945
G1 Y210.4175
G1 X146.1089
G1 X145.7432
G1 X140.0175
G3 X139.5175 Y209.9175 I0.0 J-0.5
G1 Y206.1003
G1 Y201.9175
G3 X140.0175 Y201.4175 I0.5 J0.0
G1 X145.7432
G1 X146.1089
G1 X147.5175
G1 Y173.1695
G1 Y172.2925
G1 X146.1089
G1 X145.7432
G1 X140.0175
G3 X139.5175 Y171.7925 I0.0 J-0.5
G1 Y168.3735
G3 X139.5187 Y168.3393 I0.5 J0.0
G1 X139.529 Y168.1893
G3 X140.0278 Y167.7235 I0.4988 J0.0343
G1 X159.3905
G1 Y165.9775
G1 X140.0278
G3 X139.529 Y165.5118 I0.0 J-0.5
G1 X139.5187 Y165.3618
G3 X139.5175 Y165.3275 I0.4988 J-0.0343
G1 Y163.7925
G3 X140.0175 Y163.2925 I0.5 J0.0
G1 X145.7432
G1 X146.1089
G1 X147.5175
G1 Y149.5
G1 Y148.5 Z-2.0
G1 Y147.5
G1 Y146.5 Z-3.0
G1 Y135.0445
G1 Y134.1675
G1 X146.1089
G1 X145.7432
G1 X140.0175
G3 X139.5175 Y133.6675 I0.0 J-0.5
G1 Y131.1905
G3 X139.5187 Y131.1563 I0.5 J0.0
G1 X139.529 Y131.0063
G3 X140.0278 Y130.5405 I0.4988 J0.0343
G1 X159.3905
G1 Y128.7945
G1 X140.0278
G3 X139.529 Y128.3288 I0.0 J-0.5
G1 X139.5187 Y128.1788
G3 X139.5175 Y128.1445 I0.4988 J-0.0343
G1 Y125.6675
G3 X140.0175 Y125.1675 I0.5 J0.0
G1 X145.7432
G1 X146.1089
G1 X147.5175
G1 Y107.5
G1 Y106.5 Z-2.0
G1 Y105.5
G1 Y104.5 Z-3.0
G1 Y96.9195
G1 Y96.0425
G1 X146.1089
G1 X145.7432
G1 X140.0175
G3 X139.5175 Y95.5425 I0.0 J-0.5
G1 Y94.3008
G3 X139.5187 Y94.2666 I0.5 J0.0
G1 X139.529 Y94.1166
G3 X140.0278 Y93.6508 I0.4988 J0.0343
G1 X159.3905
G1 Y91.9048
G1 X140.0278
G3 X139.529 Y91.4391 I0.0 J-0.5
G1 X139.5187 Y91.2891
G3 X139.5175 Y91.2548 I0.4988 J-0.0343
G1 Y87.5425
G3 X140.0175 Y87.0425 I0.5 J0.0
G1 X145.7432
G1 X146.1089
G1 X147.5175
G1 Y58.7945
G1 Y57.9175
G1 X146.1089
G1 X145.7432
G1 X140.0175
G3 X139.5175 Y57.4175 I0.0 J-0.5
G1 Y53.6003
G1 Y49.4175
G3 X140.0175 Y48.9175 I0.5 J0.0
G1 X145.7432
G1 X146.1089
G1 X147.5175
G1 Y25.1979
G1 Y24.1979 Z-2.0
G1 Y23.1979
G1 Y22.1979 Z-3.0
G1 Y20.6695
G1 Y19.7925
G1 X146.1089
G1 X145.7432
G1 X140.0175
G3 X139.5175 Y19.2925 I0.0 J-0.5
G1 Y16.7623
G3 X139.5187 Y16.7281 I0.5 J0.0
G1 X139.529 Y16.5781
G3 X140.0278 Y16.1123 I0.4988 J0.0343
G1 X159.3905
G1 Y14.3663
G1 X140.0278
G3 X139.529 Y13.9006 I0.0 J-0.5
G1 X139.5187 Y13.7506
G3 X139.5175 Y13.7163 I0.4988 J-0.0343
G1 Y11.2925
G3 X140.0175 Y10.7925 I0.5 J0.0
G1 X145.7432
G1 X146.1089
G1 X147.5175
G1 Y9.7418
G1 Y9.6675
G3 X148.0175 Y9.1675 I0.5 J0.0
G1 X149.4802
G1 X166.4454
G1 X180.0175
G3 X180.5175 Y9.6675 I0.0 J0.5
G1 Y48.8494
G1 Y49.8494 Z-2.0
G1 Y50.8494
G1 Y51.8494 Z-3.0
G1 Y57.8843
G1 Y191.2878
G1 Y192.2878 Z-2.0
G1 Y193.2878
G1 Y194.2878 Z-3.0
G1 Y249.6675
G3 X180.0175 Y250.1675 I-0.5 J0.0
G1 X166.4454
G1 X149.4802
G1 X148.0175
G3 X147.5175 Y249.6675 I0.0 J-0.5
G1 Y248.5425
G1 X146.1089
G1 X145.7432
G1 X140.0175
G3 X139.5176 Y248.0549 I0.0 J-0.5
G1 F300.0 Z-3.6
G3 F1200.0 X139.5175 Y248.0425 I0.4998 J-0.0124
G1 Y245.542
G3 X139.5187 Y245.5078 I0.5 J0.0
G1 X139.529 Y245.3578
G3 X140.0278 Y244.892 I0.4988 J0.0343
G1 X159.3905
G1 Y243.146
G1 X140.0278
G3 X139.529 Y242.6803 I0.0 J-0.5
G1 X139.5187 Y242.5303
G3 X139.5175 Y242.496 I0.4988 J-0.0343
G1 Y240.0425
G3 X140.0175 Y239.5425 I0.5 J0.0
G1 X145.7432
G1 X146.1089
G1 X147.5175
G1 Y227.5
G1 Y226.5 Z-2.0
G1 Y225.5
G1 Y224.5 Z-3.6
G1 Y211.2945
G1 Y210.4175
G1 X146.1089
G1 X145.7432
G1 X140.0175
G3 X139.5175 Y209.9175 I0.0 J-0.5
G1 Y206.1003
G1 Y201.9175
G3 X140.0175 Y201.4175 I0.5 J0.0
G1 X145.7432
G1 X146.1089
G1 X147.5175
G1 Y173.1695
G1 Y172.2925
G1 X146.1089
G1 X145.7432
G1 X140.0175
G3 X139.5175 Y171.7925 I0.0 J-0.5
G1 Y168.3735
G3 X139.5187 Y168.3393 I0.5 J0.0
G1 X139.529 Y168.1893
G3 X140.0278 Y167.7235 I0.4988 J0.0343
G1 X159.3905
G1 Y165.9775
G1 X140.0278
G3 X139.529 Y165.5118 I0.0 J-0.5
G1 X139.5187 Y165.3618
G3 X139.5175 Y165.3275 I0.4988 J-0.0343
G1 Y163.7925
G3 X140.0175 Y163.2925 I0.5 J0.0
G1 X145.7432
G1 X146.1089
G1 X147.5175
G1 Y149.5
G1 Y148.5 Z-2.0
G1 Y147.5
G1 Y146.5 Z-3.6
G1 Y135.0445
G1 Y134.1675
G1 X146.1089
G1 X145.7432
G1 X140.0175
G3 X139.5175 Y133.6675 I0.0 J-0.5
G1 Y131.1905
G3 X139.5187 Y131.1563 I0.5 J0.0
G1 X139.529 Y131.0063
G3 X140.0278 Y130.5405 I0.4988 J0.0343
G1 X159.3905
G1 Y128.7945
G1 X140.0278
G3 X139.529 Y128.3288 I0.0 J-0.5
G1 X139.5187 Y128.1788
G3 X139.5175 Y128.1445 I0.4988 J-0.0343
G1 Y125.6675
G3 X140.0175 Y125.1675 I0.5 J0.0
G1 X145.7432
G1 X146.1089
G1 X147.5175
G1 Y107.5
G1 Y106.5 Z-2.0
G1 Y105.5
G1 Y104.5 Z-3.6
G1 Y96.9195
G1 Y96.0425
G1 X146.1089
G1 X145.7432
G1 X140.0175
G3 X139.5175 Y95.5425 I0.0 J-0.5
G1 Y94.3008
G3 X139.5187 Y94.2666 I0.5 J0.0
G1 X139.529 Y94.1166
G3 X140.0278 Y93.6508 I0.4988 J0.0343
G1 X159.3905
G1 Y91.9048
G1 X140.0278
G3 X139.529 Y91.4391 I0.0 J-0.5
G1 X139.5187 Y91.2891
G3 X139.5175 Y91.2548 I0.4988 J-0.0343
G1 Y87.5425
G3 X140.0175 Y87.0425 I0.5 J0.0
G1 X145.7432
G1 X146.1089
G1 X147.5175
G1 Y58.7945
G1 Y57.9175
G1 X146.1089
G1 X145.7432
G1 X140.0175
G3 X139.5175 Y57.4175 I0.0 J-0.5
G1 Y53.6003
G1 Y49.4175
G3 X140.0175 Y48.9175 I0.5 J0.0
G1 X145.7432
G1 X146.1089
G1 X147.5175
G1 Y25.1979
G1 Y24.1979 Z-2.0
G1 Y23.1979
G1 Y22.1979 Z-3.6
G1 Y20.6695
G1 Y19.7925
G1 X146.1089
G1 X145.7432
G1 X140.0175
G3 X139.5175 Y19.2925 I0.0 J-0.5
G1 Y16.7623
G3 X139.5187 Y16.7281 I0.5 J0.0
G1 X139.529 Y16.5781
G3 X140.0278 Y16.1123 I0.4988 J0.0343
G1 X159.3905
G1 Y14.3663
G1 X140.0278
G3 X139.529 Y13.9006 I0.0 J-0.5
G1 X139.5187 Y13.7506
G3 X139.5175 Y13.7163 I0.4988 J-0.0343
G1 Y11.2925
G3 X140.0175 Y10.7925 I0.5 J0.0
G1 X145.7432
G1 X146.1089
G1 X147.5175
G1 Y9.7418
G1 Y9.6675
G3 X148.0175 Y9.1675 I0.5 J0.0
G1 X149.4802
G1 X166.4454
G1 X180.0175
G3 X180.5175 Y9.6675 I0.0 J0.5
G1 Y48.8494
G1 Y49.8494 Z-2.0
G1 Y50.8494
G1 Y51.8494 Z-3.6
G1 Y57.8843
G1 Y191.2878
G1 Y192.2878 Z-2.0
G1 Y193.2878
G1 Y194.2878 Z-3.6
G1 Y249.6675
G3 X180.0175 Y250.1675 I-0.5 J0.0
G1 X166.4454
G1 X149.4802
G1 X148.0175
G3 X147.5175 Y249.6675 I0.0 J-0.5
G1 Y248.5425
G1 X146.1089
G1 X145.7432
G1 X140.0175
G3 X139.5176 Y248.0549 I0.0 J-0.5
G1 F300.0 Z-4.0
G3 F1200.0 X139.5175 Y248.0425 I0.4998 J-0.0124
G1 Y245.542
G3 X139.5187 Y245.5078 I0.5 J0.0
G1 X139.529 Y245.3578
G3 X140.0278 Y244.892 I0.4988 J0.0343
G1 X159.3905
G1 Y243.146
G1 X140.0278
G3 X139.529 Y242.6803 I0.0 J-0.5
G1 X139.5187 Y242.5303
G3 X139.5175 Y242.496 I0.4988 J-0.0343
G1 Y240.0425
G3 X140.0175 Y239.5425 I0.5 J0.0
G1 X145.7432
G1 X146.1089
G1 X147.5175
G1 Y227.5
G1 Y226.5 Z-2.0
G1 Y225.5
G1 Y224.5 Z-4.0
G1 Y211.2945
G1 Y210.4175
G1 X146.1089
G1 X145.7432
G1 X140.0175
G3 X139.5175 Y209.9175 I0.0 J-0.5
G1 Y206.1003
G1 Y201.9175
G3 X140.0175 Y201.4175 I0.5 J0.0
G1 X145.7432
G1 X146.1089
G1 X147.5175
G1 Y173.1695
G1 Y172.2925
G1 X146.1089
G1 X145.7432
G1 X140.0175
G3 X139.5175 Y171.7925 I0.0 J-0.5
G1 Y168.3735
G3 X139.5187 Y168.3393 I0.5 J0.0
G1 X139.529 Y168.1893
G3 X140.0278 Y167.7235 I0.4988 J0.0343
G1 X159.3905
G1 Y165.9775
G1 X140.0278
G3 X139.529 Y165.5118 I0.0 J-0.5
G1 X139.5187 Y165.3618
G3 X139.5175 Y165.3275 I0.4988 J-0.0343
G1 Y163.7925
G3 X140.0175 Y163.2925 I0.5 J0.0
G1 X145.7432
G1 X146.1089
G1 X147.5175
G1 Y149.5
G1 Y148.5 Z-2.0
G1 Y147.5
G1 Y146.5 Z-4.0
G1 Y135.0445
G1 Y134.1675
G1 X146.1089
G1 X145.7432
G1 X140.0175
G3 X139.5175 Y133.6675 I0.0 J-0.5
G1 Y131.1905
G3 X139.5187 Y131.1563 I0.5 J0.0
G1 X139.529 Y131.0063
G3 X140.0278 Y130.5405 I0.4988 J0.0343
G1 X159.3905
G1 Y128.7945
G1 X140.0278
G3 X139.529 Y128.3288 I0.0 J-0.5
G1 X139.5187 Y128.1788
G3 X139.5175 Y128.1445 I0.4988 J-0.0343
G1 Y125.6675
G3 X140.0175 Y125.1675 I0.5 J0.0
G1 X145.7432
G1 X146.1089
G1 X147.5175
G1 Y107.5
G1 Y106.5 Z-2.0
G1 Y105.5
G1 Y104.5 Z-4.0
G1 Y96.9195
G1 Y96.0425
G1 X146.1089
G1 X145.7432
G1 X140.0175
G3 X139.5175 Y95.5425 I0.0 J-0.5
G1 Y94.3008
G3 X139.5187 Y94.2666 I0.5 J0.0
G1 X139.529 Y94.1166
G3 X140.0278 Y93.6508 I0.4988 J0.0343
G1 X159.3905
G1 Y91.9048
G1 X140.0278
G3 X139.529 Y91.4391 I0.0 J-0.5
G1 X139.5187 Y91.2891
G3 X139.5175 Y91.2548 I0.4988 J-0.0343
G1 Y87.5425
G3 X140.0175 Y87.0425 I0.5 J0.0
G1 X145.7432
G1 X146.1089
G1 X147.5175
G1 Y58.7945
G1 Y57.9175
G1 X146.1089
G1 X145.7432
G1 X140.0175
G3 X139.5175 Y57.4175 I0.0 J-0.5
G1 Y53.6003
G1 Y49.4175
G3 X140.0175 Y48.9175 I0.5 J0.0
G1 X145.7432
G1 X146.1089
G1 X147.5175
G1 Y25.1979
G1 Y24.1979 Z-2.0
G1 Y23.1979
G1 Y22.1979 Z-4.0
G1 Y20.6695
G1 Y19.7925
G1 X146.1089
G1 X145.7432
G1 X140.0175
G3 X139.5175 Y19.2925 I0.0 J-0.5
G1 Y16.7623
G3 X139.5187 Y16.7281 I0.5 J0.0
G1 X139.529 Y16.5781
G3 X140.0278 Y16.1123 I0.4988 J0.0343
G1 X159.3905
G1 Y14.3663
G1 X140.0278
G3 X139.529 Y13.9006 I0.0 J-0.5
G1 X139.5187 Y13.7506
G3 X139.5175 Y13.7163 I0.4988 J-0.0343
G1 Y11.2925
G3 X140.0175 Y10.7925 I0.5 J0.0
G1 X145.7432
G1 X146.1089
G1 X147.5175
G1 Y9.7418
G1 Y9.6675
G3 X148.0175 Y9.1675 I0.5 J0.0
G1 X149.4802
G1 X166.4454
G1 X180.0175
G3 X180.5175 Y9.6675 I0.0 J0.5
G1 Y48.8494
G1 Y49.8494 Z-2.0
G1 Y50.8494
G1 Y51.8494 Z-4.0
G1 Y57.8843
G1 Y191.2878
G1 Y192.2878 Z-2.0
G1 Y193.2878
G1 Y194.2878 Z-4.0
G1 Y249.6675
G3 X180.0175 Y250.1675 I-0.5 J0.0
G1 X166.4454
G1 X149.4802
G1 X148.0175
G3 X147.5175 Y249.6675 I0.0 J-0.5
G1 Y248.5425
G1 X146.1089
G1 X145.7432
G1 X140.0175
G3 X139.5176 Y248.0549 I0.0 J-0.5
G0 Z3.0
M5
M30
